<?xml version="1.0" encoding="UTF-8"?>
<map version="1.10" tiledversion="1.12.1" orientation="isometric" renderorder="right-down" width="120" height="70" tilewidth="256" tileheight="128" infinite="0" nextlayerid="9" nextobjectid="587">
 <tileset firstgid="1" source="assetsLevel2/FloorLevel2.tsx"/>
 <tileset firstgid="2" source="assetsLevel2/Wallnw.tsx"/>
 <tileset firstgid="3" source="assetsLevel2/wallnwNoWindow.tsx"/>
 <tileset firstgid="4" source="assetsLevel2/Wallne.tsx"/>
 <tileset firstgid="5" source="assetsLevel2/WallEst.tsx"/>
 <tileset firstgid="6" source="assetsLevel2/WallEstWindow.tsx"/>
 <tileset firstgid="7" source="assetsLevel2/WallSouth.tsx"/>
 <tileset firstgid="8" source="assetsLevel2/WallSouthWindow.tsx"/>
 <tileset firstgid="9" source="assetsLevel2/WallnwWindow.tsx"/>
 <tileset firstgid="10" source="assetsLevel2/UniverseFloor.tsx"/>
 <tileset firstgid="11" source="assetsLevel2/Floating Crate left.tsx"/>
 <tileset firstgid="12" source="assetsLevel2/Space Rocks-size 1-F oxide red.tsx"/>
 <tileset firstgid="13" source="assetsLevel2/Space Rocks-size 2-D.tsx"/>
 <tileset firstgid="14" source="assetsLevel2/Secured Crate 2B.tsx"/>
 <tileset firstgid="15" source="assetsLevel2/Heavy Container left.tsx"/>
 <tileset firstgid="16" source="assetsLevel2/Pylon-Conduit-Yellow.tsx"/>
 <tileset firstgid="17" source="assetsLevel2/Heavy Container right.tsx"/>
 <tileset firstgid="18" source="assetsLevel2/Secured Crate 2A.tsx"/>
 <tileset firstgid="19" source="assetsLevel2/Infrastructural Barrel B1left.tsx"/>
 <tileset firstgid="20" source="assetsLevel2/Infrastructural Bit A2left.tsx"/>
 <tileset firstgid="21" source="assetsLevel2/Infrastructural Bit C1left.tsx"/>
 <tileset firstgid="22" source="assetsLevel2/Infrastructural Solar Panel2.tsx"/>
 <tileset firstgid="23" source="assetsLevel2/Infrastructural Solar Panel.tsx"/>
 <tileset firstgid="24" source="assetsLevel2/Infrastructural Post D1.tsx"/>
 <tileset firstgid="25" source="Immagini/floorScuro.tsx"/>
 <layer id="1" name="terreno" width="120" height="70" locked="1">
  <data encoding="csv">
10,10,10,10,10,10,10,10,10,10,10,10,10,10,10,10,10,10,10,10,10,10,10,10,10,10,10,10,10,10,10,10,10,10,10,10,10,10,10,10,10,10,10,10,10,10,10,10,10,10,10,10,10,10,10,10,10,10,10,10,10,10,10,10,10,10,10,10,10,10,10,10,10,10,10,10,10,10,10,10,10,10,10,10,10,10,10,10,10,10,10,10,10,10,10,10,10,10,10,10,10,10,10,10,10,10,10,10,10,10,10,10,10,10,10,10,10,10,10,10,
10,10,10,10,10,10,10,10,10,10,10,10,10,10,10,10,10,10,10,10,10,10,10,10,10,10,10,10,10,10,10,10,10,10,10,10,10,10,10,10,10,10,10,10,10,10,10,10,10,10,10,10,10,10,10,10,10,10,10,10,10,10,10,10,10,10,10,10,10,10,10,10,10,10,10,10,10,10,10,10,10,10,10,10,10,10,10,10,10,10,10,10,10,10,10,10,10,10,10,10,10,10,10,10,10,10,10,10,10,10,10,10,10,10,10,10,10,10,10,10,
10,10,10,10,10,10,10,10,10,10,10,10,10,10,10,10,10,10,10,10,10,10,10,10,10,10,10,10,10,10,10,10,10,10,10,10,10,10,10,10,10,10,10,10,10,10,10,10,10,10,10,10,10,10,10,10,10,10,10,10,10,10,10,10,10,10,10,10,10,10,10,10,10,10,10,10,10,10,10,10,10,10,10,10,10,10,10,10,10,10,10,10,10,10,10,10,10,10,10,10,10,10,10,10,10,10,10,10,10,10,10,10,10,10,10,10,10,10,10,10,
10,10,10,10,10,10,10,10,10,10,10,10,10,10,10,10,10,10,10,10,10,10,10,10,10,10,10,10,10,10,10,10,10,10,10,10,10,10,10,10,10,10,10,10,10,10,10,10,10,10,10,10,10,10,10,10,10,10,10,10,10,10,10,10,10,10,10,10,10,10,10,10,10,10,10,10,10,10,10,10,10,10,10,10,10,10,10,10,10,10,10,10,10,10,10,10,10,10,10,10,10,10,10,10,10,10,10,10,10,10,10,10,10,10,10,10,10,10,10,10,
10,10,10,10,10,10,10,10,10,10,10,10,10,10,10,10,10,10,10,10,10,10,10,10,10,10,10,10,10,10,10,10,10,10,10,10,10,10,10,10,10,10,10,10,10,10,10,10,10,10,10,10,10,10,10,10,10,10,10,10,10,10,10,10,10,10,10,10,10,10,10,10,10,10,10,10,10,10,10,10,10,10,10,10,10,10,10,10,10,10,10,10,10,10,10,10,10,10,10,10,10,10,10,10,10,10,10,10,10,10,10,10,10,10,10,10,10,10,10,10,
10,10,10,10,10,10,10,10,10,10,10,10,10,10,10,10,10,10,10,10,10,10,10,10,10,10,10,10,10,10,10,10,10,10,10,10,10,10,10,10,10,10,10,10,10,10,10,10,10,10,10,10,10,10,10,10,10,10,10,10,10,10,10,10,10,10,10,10,10,10,10,10,10,10,10,10,10,10,10,10,10,10,10,10,10,10,10,10,10,10,10,10,10,10,10,10,10,10,10,10,10,10,10,10,10,10,10,10,10,10,10,10,10,10,10,10,10,10,10,10,
10,10,10,10,10,10,10,10,10,10,10,10,10,10,10,10,10,10,10,10,10,10,10,10,10,10,10,10,10,10,10,10,10,10,10,10,10,10,10,10,10,10,10,10,10,10,10,10,10,10,10,10,10,10,10,10,10,10,10,10,10,10,10,10,10,10,10,10,10,10,10,10,10,10,10,10,10,10,10,10,10,10,10,10,10,10,10,10,10,10,10,10,10,10,10,10,10,10,10,10,10,10,10,10,10,10,10,10,10,10,10,10,10,10,10,10,10,10,10,10,
10,10,10,10,10,10,10,10,10,10,10,10,10,10,10,10,10,10,10,10,10,10,10,10,10,10,10,10,10,10,10,10,10,10,10,10,10,10,10,10,10,10,10,10,10,10,10,10,10,10,10,10,10,10,10,10,10,10,10,10,10,10,10,10,10,10,10,10,10,10,10,10,10,10,10,10,10,10,10,10,10,10,10,10,10,10,10,10,10,10,10,10,10,10,10,10,10,10,10,10,10,10,10,10,10,10,10,10,10,10,10,10,10,10,10,10,10,10,10,10,
10,10,10,10,10,10,10,10,10,10,10,10,10,10,10,10,10,10,10,10,10,10,10,10,10,10,10,10,10,10,10,10,10,10,10,10,10,10,10,10,10,10,10,10,10,10,10,10,10,10,10,10,10,10,10,10,10,10,10,10,10,10,10,10,10,10,10,10,10,10,10,10,10,10,10,10,10,10,10,10,10,10,10,10,10,10,10,10,10,10,10,10,10,10,10,10,10,10,10,10,10,10,10,10,10,10,10,10,10,10,10,10,10,10,10,10,10,10,10,10,
10,10,10,10,10,10,10,10,10,10,10,10,10,10,10,10,10,10,10,10,1,1,1,1,10,10,1,10,10,10,10,10,10,10,10,10,10,10,10,10,10,10,10,10,10,10,10,10,10,10,1,10,10,10,10,10,10,10,10,10,10,10,10,10,10,10,10,10,10,10,10,10,10,10,10,10,10,10,10,10,10,10,10,10,10,10,10,10,10,10,10,10,10,10,10,10,10,10,10,10,10,10,10,10,10,10,10,10,10,10,10,10,10,10,10,10,10,10,10,10,
10,10,10,10,10,10,10,10,10,10,1,1,1,10,10,10,10,1,1,1,1,1,1,1,1,1,1,1,10,10,10,10,10,10,10,10,10,10,10,10,10,1,1,1,1,1,1,1,10,1,1,1,10,10,10,10,10,10,10,10,10,10,10,10,10,10,10,10,10,10,10,10,10,1,1,10,10,10,10,10,10,10,10,10,10,10,10,10,10,10,10,10,10,10,10,10,10,10,10,10,10,10,10,10,10,10,10,10,10,10,10,10,10,10,10,10,10,10,10,10,
10,10,10,10,10,10,10,10,10,10,1,1,1,1,1,1,1,1,1,1,1,1,1,1,1,1,1,1,1,25,25,25,25,1,1,1,1,1,1,1,1,1,1,1,1,1,1,1,1,1,1,1,1,1,1,1,1,1,1,1,1,1,1,1,1,1,1,1,1,1,1,1,1,1,1,1,1,1,1,1,1,1,1,1,1,1,1,1,1,1,1,1,1,1,1,1,1,1,1,1,1,1,1,1,1,1,1,10,10,10,10,10,10,10,10,10,10,10,10,10,
10,10,10,10,10,10,10,10,10,10,1,1,1,1,1,1,1,1,1,1,1,1,1,1,1,1,1,1,1,25,25,25,25,1,1,1,1,1,1,1,1,1,1,1,1,1,1,1,1,1,1,1,1,1,1,1,1,1,1,1,1,1,1,1,1,1,1,1,1,1,1,1,1,1,1,1,1,1,1,1,1,1,1,1,1,1,1,1,1,1,1,1,1,1,1,1,1,1,1,1,1,1,1,1,1,1,1,1,10,10,10,10,10,10,10,10,10,10,10,10,
10,10,10,10,10,10,10,10,10,10,1,1,1,1,1,1,1,1,1,1,1,1,1,1,1,1,1,1,1,25,25,25,25,1,1,1,1,1,1,1,1,1,1,1,1,1,1,1,1,1,1,1,1,1,1,1,1,1,1,1,1,1,1,1,1,1,1,1,1,1,1,1,1,1,1,1,1,1,1,1,1,1,1,1,1,1,1,1,1,1,1,1,1,1,1,1,1,1,1,1,1,1,1,1,1,1,1,1,10,10,10,10,10,10,10,10,10,10,10,10,
10,10,10,10,10,10,10,10,10,10,1,1,1,1,1,1,1,1,1,1,1,1,1,1,1,1,1,1,1,25,25,25,25,1,1,1,1,1,1,1,1,1,1,1,1,1,1,1,1,1,1,1,1,1,1,1,1,1,1,1,1,1,1,1,1,1,1,1,1,1,1,1,1,1,1,1,1,1,1,1,1,1,1,1,1,1,1,1,1,1,1,1,1,1,1,1,1,1,1,1,1,1,1,1,1,1,1,1,10,10,10,10,10,10,10,10,10,10,10,10,
10,10,10,10,10,10,10,10,10,10,1,1,1,1,1,1,1,1,1,1,1,1,1,1,1,1,1,1,1,25,25,25,25,1,1,1,1,1,1,1,1,1,1,1,1,1,1,1,1,1,1,1,1,1,1,1,1,1,1,1,1,1,1,1,1,1,1,1,1,1,1,1,1,1,1,1,1,1,1,1,1,1,1,1,1,1,1,1,1,1,1,1,1,1,1,1,1,1,1,1,1,1,1,1,1,1,1,1,10,10,10,10,10,10,10,10,10,10,10,10,
10,10,10,10,10,10,10,10,10,10,1,1,1,1,1,1,1,1,1,1,1,1,1,1,1,1,1,1,1,25,25,25,25,1,1,1,1,1,1,1,1,1,1,1,1,1,1,1,1,1,1,1,1,1,1,1,1,1,1,1,1,1,1,1,1,1,1,1,1,1,1,1,1,1,1,1,1,1,1,1,1,1,1,1,1,1,1,1,1,1,1,1,1,1,1,1,1,1,1,1,1,1,1,1,1,1,1,1,10,10,10,10,10,10,10,10,10,10,10,10,
10,10,10,10,10,10,10,10,10,10,1,1,1,1,1,1,1,1,1,1,1,1,1,1,1,1,1,1,1,25,25,25,25,1,1,1,1,1,1,1,1,1,1,1,1,1,1,1,1,1,1,1,1,1,1,1,1,1,1,1,1,1,1,1,1,1,1,1,1,1,1,1,1,1,1,1,1,1,1,1,1,1,1,1,1,1,1,1,1,1,1,1,1,1,1,1,1,1,1,1,1,1,1,1,1,1,1,1,10,10,10,10,10,10,10,10,10,10,10,10,
10,10,10,10,10,10,10,10,10,10,1,1,1,1,1,1,1,1,1,1,1,1,1,1,1,1,1,1,1,25,25,25,25,1,1,1,1,1,1,1,1,1,1,1,1,1,1,1,1,1,1,1,1,1,1,1,1,1,1,1,1,1,1,1,1,1,1,1,1,1,1,1,1,1,1,1,1,1,1,1,1,1,1,1,1,1,1,1,1,1,1,1,1,1,1,1,1,1,1,1,1,1,1,1,1,1,1,1,10,10,10,10,10,10,10,10,10,10,10,10,
10,10,10,10,10,10,10,10,10,10,1,1,1,1,1,1,1,1,1,1,1,1,1,1,1,1,1,1,1,25,25,25,25,1,1,1,1,1,1,1,1,1,1,1,1,1,1,1,1,1,1,1,1,1,1,1,1,1,1,1,1,1,1,1,1,1,1,1,1,1,1,1,1,1,1,1,1,1,1,1,1,1,1,1,1,1,1,1,1,1,1,1,1,1,1,1,1,1,1,1,1,1,1,1,1,1,1,1,10,10,10,10,10,10,10,10,10,10,10,10,
10,10,10,10,10,10,10,10,10,10,1,1,1,1,1,1,1,1,1,1,1,1,1,1,1,1,1,1,1,25,25,25,25,1,1,1,1,1,1,1,1,1,1,1,1,1,1,1,1,1,1,1,1,1,1,1,1,1,1,1,1,1,1,1,1,1,1,1,1,1,1,1,1,1,1,1,1,1,1,1,1,1,1,1,1,1,1,1,1,1,1,1,1,1,1,1,1,1,1,1,1,1,1,1,1,1,1,1,10,10,10,10,10,10,10,10,10,10,10,10,
10,10,10,10,10,10,10,10,10,10,1,1,1,1,1,1,1,1,1,1,1,1,1,1,1,1,1,1,1,25,25,25,25,1,1,1,1,1,1,1,1,1,1,1,1,1,1,1,1,1,1,1,1,1,1,1,1,1,1,1,1,1,1,1,1,1,1,1,1,1,1,1,1,1,1,1,1,1,1,1,1,1,1,1,1,1,1,1,1,1,1,1,1,1,1,1,1,1,1,1,1,1,1,1,1,1,1,1,10,10,10,10,10,10,10,10,10,10,10,10,
10,10,10,10,10,10,10,10,10,10,1,1,1,1,1,1,1,1,1,1,1,1,1,1,1,1,1,1,1,25,25,25,25,1,1,1,1,1,1,1,1,1,1,1,1,1,1,1,1,1,1,1,1,1,1,1,1,1,1,1,1,1,1,1,1,1,1,1,1,1,1,1,1,1,1,1,1,1,1,1,1,1,1,1,1,1,1,1,1,1,1,1,1,1,1,1,1,1,1,1,1,1,1,1,1,1,1,1,10,10,10,10,10,10,10,10,10,10,10,10,
10,10,10,10,10,10,10,10,10,10,1,1,1,1,1,1,1,1,1,1,1,1,1,1,1,1,1,1,1,25,25,25,25,1,1,1,1,1,1,1,1,1,1,1,1,1,1,1,1,1,1,1,1,1,1,1,1,1,1,1,1,1,1,1,1,1,1,1,1,1,1,1,1,1,1,1,1,1,1,1,1,1,1,1,1,1,1,1,1,1,1,1,1,1,1,1,1,1,1,1,1,1,1,1,1,1,1,1,10,10,10,10,10,10,10,10,10,10,10,10,
10,10,10,10,10,10,10,10,10,10,1,1,1,1,1,1,1,1,1,1,1,1,1,1,1,1,1,1,1,25,25,25,25,1,1,1,1,1,1,1,1,1,1,1,1,1,1,1,1,1,1,1,1,1,1,1,1,1,1,1,1,1,1,1,1,1,1,1,1,1,1,1,1,1,1,1,1,1,1,1,1,1,1,1,1,1,1,1,1,1,1,1,1,1,1,1,1,1,1,1,1,1,1,1,1,1,1,1,10,10,10,10,10,10,10,10,10,10,10,10,
10,10,10,10,10,10,10,10,10,10,1,1,1,1,1,1,1,1,1,1,1,1,1,1,1,1,1,1,1,25,25,25,25,1,1,1,1,1,1,1,1,1,1,1,1,1,1,1,1,1,1,1,1,1,1,1,1,1,1,1,1,1,1,1,1,1,1,1,1,1,1,1,1,1,1,1,1,1,1,1,1,1,1,1,1,1,1,1,1,1,1,1,1,1,1,1,1,1,1,1,1,1,1,1,1,1,1,1,10,10,10,10,10,10,10,10,10,10,10,10,
10,10,10,10,10,10,10,10,10,10,1,1,1,1,1,1,1,1,1,1,1,1,1,1,1,1,1,1,1,25,25,25,25,1,1,1,1,1,1,1,1,1,1,1,1,1,1,1,1,1,1,1,1,1,1,1,1,1,1,1,1,1,1,1,1,1,1,1,1,1,1,1,1,1,1,1,1,1,1,1,1,1,1,1,1,1,1,1,1,1,1,1,1,1,1,1,1,1,1,1,1,1,1,1,1,1,1,1,10,10,10,10,10,10,10,10,10,10,10,10,
10,10,10,10,10,10,10,10,10,10,1,1,1,1,1,1,1,1,1,1,1,1,1,1,1,1,1,1,1,25,25,25,25,1,1,1,1,1,1,1,1,1,1,1,1,1,1,1,1,1,1,1,1,1,1,1,1,1,1,1,1,1,1,1,1,1,1,1,1,1,1,1,1,1,1,1,1,1,1,1,1,1,1,1,1,1,1,1,1,1,1,1,1,1,1,1,1,1,1,1,1,1,1,1,1,1,1,1,10,10,10,10,10,10,10,10,10,10,10,10,
10,10,10,10,10,10,10,10,10,10,1,1,1,1,1,1,1,1,1,1,1,1,1,1,1,1,1,1,1,25,25,25,25,1,1,1,1,1,1,1,1,1,1,1,1,1,1,1,1,1,1,1,1,1,1,1,1,1,1,1,1,1,1,1,1,1,1,1,1,1,1,1,1,1,1,1,1,1,1,1,1,1,1,1,1,1,1,1,1,1,1,1,1,1,1,1,1,1,1,1,1,1,1,1,1,1,1,1,10,10,10,10,10,10,10,10,10,10,10,10,
10,10,10,10,10,10,10,10,10,10,25,25,25,25,25,25,25,25,25,25,25,25,25,25,25,25,25,25,25,25,25,25,25,25,25,25,25,25,25,25,25,25,25,25,25,25,25,25,25,25,25,25,25,25,25,25,25,25,25,25,25,25,25,25,25,25,25,25,25,25,25,25,25,25,25,25,25,25,25,25,25,25,25,25,25,25,25,25,25,25,25,25,25,25,25,25,25,25,25,25,25,25,25,25,25,25,25,25,10,10,10,10,10,10,10,10,10,10,10,10,
10,10,10,10,10,10,10,10,10,10,25,25,25,25,25,25,25,25,25,25,25,25,25,25,25,25,25,25,25,25,25,25,25,25,25,25,25,25,25,25,25,25,25,25,25,25,25,25,25,25,25,25,25,25,25,25,25,25,25,25,25,25,25,25,25,25,25,25,25,25,25,25,25,25,25,25,25,25,25,25,25,25,25,25,25,25,25,25,25,25,25,25,25,25,25,25,25,25,25,25,25,25,25,25,25,25,25,25,10,10,10,10,10,10,10,10,10,10,10,10,
10,10,10,10,10,10,10,10,10,10,25,25,25,25,25,25,25,25,25,25,25,25,25,25,25,25,25,25,25,25,25,25,25,25,25,25,25,25,25,25,25,25,25,25,25,25,25,25,25,25,25,25,25,25,25,25,25,25,25,25,25,25,25,25,25,25,25,25,25,25,25,25,25,25,25,25,25,25,25,25,25,25,25,25,25,25,25,25,25,25,25,25,25,25,25,25,25,25,25,25,25,25,25,25,25,25,25,25,10,10,10,10,10,10,10,10,10,10,10,10,
10,10,10,10,10,10,10,10,10,10,25,25,25,25,25,25,25,25,25,25,25,25,25,25,25,25,25,25,25,25,25,25,25,25,25,25,25,25,25,25,25,25,25,25,25,25,25,25,25,25,25,25,25,25,25,25,25,25,25,25,25,25,25,25,25,25,25,25,25,25,25,25,25,25,25,25,25,25,25,25,25,25,25,25,25,25,25,25,25,25,25,25,25,25,25,25,25,25,25,25,25,25,25,25,25,25,25,25,10,10,10,10,10,10,10,10,10,10,10,10,
10,10,10,10,10,10,10,10,10,10,1,1,1,1,1,1,1,1,1,1,1,1,1,1,1,1,1,1,1,1,1,1,1,1,1,1,1,1,1,1,1,1,1,1,1,1,1,25,25,25,25,1,1,1,1,1,1,1,1,1,1,1,1,1,1,1,1,1,1,1,1,1,1,1,1,1,1,1,1,1,1,1,1,1,1,1,1,1,1,25,25,25,25,1,1,1,1,1,1,1,1,1,1,1,1,1,1,1,10,10,10,10,10,10,10,10,10,10,10,10,
10,10,10,10,10,10,10,10,10,10,1,1,1,1,1,1,1,1,1,1,1,1,1,1,1,1,1,1,1,1,1,1,1,1,1,1,1,1,1,1,1,1,1,1,1,1,1,25,25,25,25,1,1,1,1,1,1,1,1,1,1,1,1,1,1,1,1,1,1,1,1,1,1,1,1,1,1,1,1,1,1,1,1,1,1,1,1,1,1,25,25,25,25,1,1,1,1,1,1,1,1,1,1,1,1,1,1,1,10,10,10,10,10,10,10,10,10,10,10,10,
10,10,10,10,10,10,10,10,10,1,1,1,1,1,1,1,1,1,1,1,1,1,1,1,1,1,1,1,1,1,1,1,1,1,1,1,1,1,1,1,1,1,1,1,1,1,1,25,25,25,25,1,1,1,1,1,1,1,1,1,1,1,1,1,1,1,1,1,1,1,1,1,1,1,1,1,1,1,1,1,1,1,1,1,1,1,1,1,1,25,25,25,25,1,1,1,1,1,1,1,1,1,1,1,1,1,1,1,10,10,10,10,10,10,10,10,10,10,10,10,
10,10,10,10,10,10,10,10,10,1,1,1,1,1,1,1,1,1,1,1,1,1,1,1,1,1,1,1,1,1,1,1,1,1,1,1,1,1,1,1,1,1,1,1,1,1,1,25,25,25,25,1,1,1,1,1,1,1,1,1,1,1,1,1,1,1,1,1,1,1,1,1,1,1,1,1,1,1,1,1,1,1,1,1,1,1,1,1,1,25,25,25,25,1,1,1,1,1,1,1,1,1,1,1,1,1,1,1,10,10,10,10,10,10,10,10,10,10,10,10,
10,10,10,10,10,10,10,10,10,1,1,1,1,1,1,1,1,1,1,1,1,1,1,1,1,1,1,1,1,1,1,1,1,1,1,1,1,1,1,1,1,1,1,1,1,1,1,25,25,25,25,1,1,1,1,1,1,1,1,1,1,1,1,1,1,1,1,1,1,1,1,1,1,1,1,1,1,1,1,1,1,1,1,1,1,1,1,1,1,25,25,25,25,1,1,1,1,1,1,1,1,1,1,1,1,1,1,1,10,10,10,10,10,10,10,10,10,10,10,10,
10,10,10,10,10,10,10,10,10,1,1,1,1,1,1,1,1,1,1,1,1,1,1,1,1,1,1,1,1,1,1,1,1,1,1,1,1,1,1,1,1,1,1,1,1,1,1,25,25,25,25,1,1,1,1,1,1,1,1,1,1,1,1,1,1,1,1,1,1,1,1,1,1,1,1,1,1,1,1,1,1,1,1,1,1,1,1,1,1,25,25,25,25,1,1,1,1,1,1,1,1,1,1,1,1,1,1,1,10,10,10,10,10,10,10,10,10,10,10,10,
10,10,10,10,10,10,10,10,10,1,1,1,1,1,1,1,1,1,1,1,1,1,1,1,1,1,1,1,1,1,1,1,1,1,1,1,1,1,1,1,1,1,1,1,1,1,1,25,25,25,25,1,1,1,1,1,1,1,1,1,1,1,1,1,1,1,1,1,1,1,1,1,1,1,1,1,1,1,1,1,1,1,1,1,1,1,1,1,1,25,25,25,25,1,1,1,1,1,1,1,1,1,1,1,1,1,1,1,10,10,10,10,10,10,10,10,10,10,10,10,
10,10,10,10,10,10,10,10,10,10,1,1,1,1,1,1,1,1,1,1,1,1,1,1,1,1,1,1,1,1,1,1,1,1,1,1,1,1,1,1,1,1,1,1,1,1,1,25,25,25,25,1,1,1,1,1,1,1,1,1,1,1,1,1,1,1,1,1,1,1,1,1,1,1,1,1,1,1,1,1,1,1,1,1,1,1,1,1,1,25,25,25,25,1,1,1,1,1,1,1,1,1,1,1,1,1,1,1,10,10,10,10,10,10,10,10,10,10,10,10,
10,10,10,10,10,10,10,10,10,10,1,1,1,1,1,1,1,1,1,1,1,1,1,1,1,1,1,1,1,1,1,1,1,1,1,1,1,1,1,1,1,1,1,1,1,1,1,25,25,25,25,1,1,1,1,1,1,1,1,1,1,1,1,1,1,1,1,1,1,1,1,1,1,1,1,1,1,1,1,1,1,1,1,1,1,1,1,1,1,25,25,25,25,1,1,1,1,1,1,1,1,1,1,1,1,1,1,1,10,10,10,10,10,10,10,10,10,10,10,10,
10,10,10,10,10,10,10,10,10,10,1,1,1,1,1,1,1,1,1,1,1,1,1,1,1,1,1,1,1,1,1,1,1,1,1,1,1,1,1,1,1,1,1,1,1,1,1,25,25,25,25,1,1,1,1,1,1,1,1,1,1,1,1,1,1,1,1,1,1,1,1,1,1,1,1,1,1,1,1,1,1,1,1,1,1,1,1,1,1,25,25,25,25,1,1,1,1,1,1,1,1,1,1,1,1,1,1,1,10,10,10,10,10,10,10,10,10,10,10,10,
10,10,10,10,10,10,10,10,10,10,1,1,1,1,1,1,1,1,1,1,1,1,1,1,1,1,1,1,1,1,1,1,1,1,1,1,1,1,1,1,1,1,1,1,1,1,1,25,25,25,25,1,1,1,1,1,1,1,1,1,1,1,1,1,1,1,1,1,1,1,1,1,1,1,1,1,1,1,1,1,1,1,1,1,1,1,1,1,1,25,25,25,25,1,1,1,1,1,1,1,1,1,1,1,1,1,1,1,10,10,10,10,10,10,10,10,10,10,10,10,
10,10,10,10,10,10,10,10,10,10,1,1,1,1,1,1,1,1,1,1,1,1,1,1,1,1,1,1,1,1,1,1,1,1,1,1,1,1,1,1,1,1,1,1,1,1,1,25,25,25,25,1,1,1,1,1,1,1,1,1,1,1,1,1,1,1,1,1,1,1,1,1,1,1,1,1,1,1,1,1,1,1,1,1,1,1,1,1,1,25,25,25,25,1,1,1,1,1,1,1,1,1,1,1,1,1,1,1,10,10,10,10,10,10,10,10,10,10,10,10,
10,10,10,10,10,10,10,10,10,10,1,1,1,1,1,1,1,1,1,1,1,1,1,1,1,1,1,1,1,1,1,1,1,1,1,1,1,1,1,1,1,1,1,1,1,1,1,25,25,25,25,1,1,1,1,1,1,1,1,1,1,1,1,1,1,1,1,1,1,1,1,1,1,1,1,1,1,1,1,1,1,1,1,1,1,1,1,1,1,25,25,25,25,1,1,1,1,1,1,1,1,1,1,1,1,1,1,1,10,10,10,10,10,10,10,10,10,10,10,10,
10,10,10,10,10,10,10,10,10,10,1,1,1,1,1,1,1,1,1,1,1,1,1,1,1,1,1,1,1,1,1,1,1,1,1,1,1,1,1,1,1,1,1,1,1,1,1,25,25,25,25,1,1,1,1,1,1,1,1,1,1,1,1,1,1,1,1,1,1,1,1,1,1,1,1,1,1,1,1,1,1,1,1,1,1,1,1,1,1,25,25,25,25,1,1,1,1,1,1,1,1,1,1,1,1,1,1,1,10,10,10,10,10,10,10,10,10,10,10,10,
10,10,10,10,10,10,10,10,10,10,1,1,1,1,1,1,1,1,1,1,1,1,1,1,1,1,1,1,1,1,1,1,1,1,1,1,1,1,1,1,1,1,1,1,1,1,1,25,25,25,25,1,1,1,1,1,1,1,1,1,1,1,1,1,1,1,1,1,1,1,1,1,1,1,1,1,1,1,1,1,1,1,1,1,1,1,1,1,1,25,25,25,25,1,1,1,1,1,1,1,1,1,1,1,1,1,1,1,10,10,10,10,10,10,10,10,10,10,10,10,
10,10,10,10,10,10,10,10,10,10,1,1,1,1,1,1,1,1,1,1,1,1,1,1,1,1,1,1,1,1,1,1,1,1,1,1,1,1,1,1,1,1,1,1,1,1,1,25,25,25,25,1,1,1,1,1,1,1,1,1,1,1,1,1,1,1,1,1,1,1,1,1,1,1,1,1,1,1,1,1,1,1,1,1,1,1,1,1,1,25,25,25,25,1,1,1,1,1,1,1,1,1,1,1,1,1,1,1,10,10,10,10,10,10,10,10,10,10,10,10,
10,10,10,10,10,10,10,10,10,10,1,1,1,1,1,1,1,1,1,1,1,1,1,1,1,1,1,1,1,1,1,1,1,1,1,1,1,1,1,1,1,1,1,1,1,1,1,25,25,25,25,1,1,1,1,1,1,1,1,1,1,1,1,1,1,1,1,1,1,1,1,1,1,1,1,1,1,1,1,1,1,1,1,1,1,1,1,1,1,25,25,25,25,1,1,1,1,1,1,1,1,1,1,1,1,1,1,1,10,10,10,10,10,10,10,10,10,10,10,10,
10,10,10,10,10,10,10,10,10,10,1,1,1,1,1,1,1,1,1,1,1,1,1,1,1,1,1,1,1,1,1,1,1,1,1,1,1,1,1,1,1,1,1,1,1,1,1,25,25,25,25,1,1,1,1,1,1,1,1,1,1,1,1,1,1,1,1,1,1,1,1,1,1,1,1,1,1,1,1,1,1,1,1,1,1,1,1,1,1,25,25,25,25,1,1,1,1,1,1,1,1,1,1,1,1,1,1,1,10,10,10,10,10,10,10,10,10,10,10,10,
10,10,10,10,10,10,10,10,10,10,1,1,1,1,1,1,1,1,1,1,1,1,1,1,1,1,1,1,1,1,1,1,1,1,1,1,1,1,1,1,1,1,1,1,1,1,1,25,25,25,25,1,1,1,1,1,1,1,1,1,1,1,1,1,1,1,1,1,1,1,1,1,1,1,1,1,1,1,1,1,1,1,1,1,1,1,1,1,1,25,25,25,25,1,1,1,1,1,1,1,1,1,1,1,1,1,1,1,10,10,10,10,10,10,10,10,10,10,10,10,
10,10,10,10,10,10,10,10,10,10,1,1,1,1,1,1,1,1,1,1,1,1,1,1,1,1,1,1,1,1,1,1,1,1,1,1,1,1,1,1,1,1,1,1,1,1,1,25,25,25,25,1,1,1,1,1,1,1,1,1,1,1,1,1,1,1,1,1,1,1,1,1,1,1,1,1,1,1,1,1,1,1,1,1,1,1,1,1,1,25,25,25,25,1,1,1,1,1,1,1,1,1,1,1,1,1,1,1,10,10,10,10,10,10,10,10,10,10,10,10,
10,10,10,10,10,10,10,10,10,10,1,1,1,1,1,1,1,1,1,1,1,1,1,1,1,1,1,1,1,1,1,1,1,1,1,1,1,1,1,1,1,1,1,1,1,1,1,1,25,25,25,1,1,1,1,1,1,1,1,1,1,1,1,1,1,1,1,1,1,1,1,1,1,1,1,1,1,1,1,1,1,1,1,1,1,1,1,1,1,25,25,25,25,1,1,1,1,1,1,1,1,1,1,1,1,1,1,1,10,10,10,10,10,10,10,10,10,10,10,10,
10,10,10,10,10,10,10,10,10,10,1,1,1,1,1,1,1,1,1,1,1,1,1,1,1,1,1,1,1,1,1,1,1,1,1,1,1,1,1,1,1,1,1,1,1,1,1,25,25,25,25,1,1,1,1,1,1,1,1,1,1,1,1,1,1,1,1,1,1,1,1,1,1,1,1,1,1,1,1,1,1,1,1,1,1,1,1,1,1,25,25,25,25,1,1,1,1,1,1,1,1,1,1,1,1,1,1,1,10,10,10,10,10,10,10,10,10,10,10,10,
10,10,10,10,10,10,10,10,10,10,1,1,1,1,1,1,1,1,1,1,1,1,1,1,1,1,1,1,1,1,1,1,1,1,1,1,1,1,1,1,1,1,1,1,1,1,1,25,25,25,25,1,1,1,1,1,1,1,1,1,1,1,1,1,1,1,1,1,1,1,1,1,1,1,1,1,1,1,1,1,1,1,1,1,1,1,1,1,1,25,25,25,25,1,1,1,1,1,1,1,1,1,1,1,1,1,1,1,10,10,10,10,10,10,10,10,10,10,10,10,
10,10,10,10,10,10,10,10,10,10,1,1,1,1,1,1,1,1,1,1,1,1,1,1,1,1,1,1,1,1,1,1,1,1,1,1,1,1,1,1,1,1,1,1,1,1,1,25,25,25,25,1,1,1,1,1,1,1,1,1,1,1,1,1,1,1,1,1,1,1,1,1,1,1,1,1,1,1,1,1,1,1,1,1,1,1,1,1,1,25,25,25,25,1,1,1,1,1,1,1,1,1,1,1,1,1,1,1,10,10,10,10,10,10,10,10,10,10,10,10,
10,10,10,10,10,10,10,10,10,10,1,1,1,1,1,1,1,1,1,1,1,1,1,1,1,1,1,1,1,1,1,1,1,1,1,1,1,1,1,1,1,1,1,1,1,1,1,25,25,25,1,1,1,1,1,1,1,1,1,1,1,1,1,1,1,1,1,1,1,1,1,1,1,1,1,1,1,1,1,1,1,1,1,1,1,1,1,1,1,25,25,25,25,1,1,1,1,1,1,1,1,1,1,1,1,1,1,1,10,10,10,10,10,10,10,10,10,10,10,10,
10,10,10,10,10,10,10,10,10,10,10,1,1,1,1,1,1,1,1,1,1,1,1,1,1,1,1,1,1,1,1,1,1,1,1,1,1,1,1,1,1,1,1,1,1,1,1,25,25,25,1,1,1,1,1,1,1,1,1,1,1,1,1,1,1,1,1,1,1,1,1,1,1,1,1,1,1,1,1,1,1,1,1,1,1,1,1,1,1,25,25,25,25,1,1,1,1,1,1,1,1,1,1,1,1,1,1,1,10,10,10,10,10,10,10,10,10,10,10,10,
10,10,10,10,10,10,10,10,10,10,10,10,10,10,10,10,10,10,10,10,10,10,10,10,10,10,10,10,10,10,10,10,10,10,10,10,10,10,10,10,10,10,10,10,10,10,10,10,10,10,10,10,10,10,10,10,10,10,10,10,10,10,10,10,10,10,10,10,10,10,10,10,10,10,10,10,10,10,10,10,10,10,10,10,10,10,10,10,10,10,10,10,10,10,10,10,10,10,10,10,10,10,10,10,10,10,10,10,10,10,10,10,10,10,10,10,10,10,10,10,
10,10,10,10,10,10,10,10,10,10,10,10,10,10,10,10,10,10,10,10,10,10,10,10,10,10,10,10,10,10,10,10,10,10,10,10,10,10,10,10,10,10,10,10,10,10,10,10,10,10,10,10,10,10,10,10,10,10,10,10,10,10,10,10,10,10,10,10,10,10,10,10,10,10,10,10,10,10,10,10,10,10,10,10,10,10,10,10,10,10,10,10,10,10,10,10,10,10,10,10,10,10,10,10,10,10,10,10,10,10,10,10,10,10,10,10,10,10,10,10,
10,10,10,10,10,10,10,10,10,10,10,10,10,10,10,10,10,10,10,10,10,10,10,10,10,10,10,10,10,10,10,10,10,10,10,10,10,10,10,10,10,10,10,10,10,10,10,10,10,10,10,10,10,10,10,10,10,10,10,10,10,10,10,10,10,10,10,10,10,10,10,10,10,10,10,10,10,10,10,10,10,10,10,10,10,10,10,10,10,10,10,10,10,10,10,10,10,10,10,10,10,10,10,10,10,10,10,10,10,10,10,10,10,10,10,10,10,10,10,10,
10,10,10,10,10,10,10,10,10,10,10,10,10,10,10,10,10,10,10,10,10,10,10,10,10,10,10,10,10,10,10,10,10,10,10,10,10,10,10,10,10,10,10,10,10,10,10,10,10,10,10,10,10,10,10,10,10,10,10,10,10,10,10,10,10,10,10,10,10,10,10,10,10,10,10,10,10,10,10,10,10,10,10,10,10,10,10,10,10,10,10,10,10,10,10,10,10,10,10,10,10,10,10,10,10,10,10,10,10,10,10,10,10,10,10,10,10,10,10,10,
10,10,10,10,10,10,10,10,10,10,10,10,10,10,10,10,10,10,10,10,10,10,10,10,10,10,10,10,10,10,10,10,10,10,10,10,10,10,10,10,10,10,10,10,10,10,10,10,10,10,10,10,10,10,10,10,10,10,10,10,10,10,10,10,10,10,10,10,10,10,10,10,10,10,10,10,10,10,10,10,10,10,10,10,10,10,10,10,10,10,10,10,10,10,10,10,10,10,10,10,10,10,10,10,10,10,10,10,10,10,10,10,10,10,10,10,10,10,10,10,
10,10,10,10,10,10,10,10,10,10,10,10,10,10,10,10,10,10,10,10,10,10,10,10,10,10,10,10,10,10,10,10,10,10,10,10,10,10,10,10,10,10,10,10,10,10,10,10,10,10,10,10,10,10,10,10,10,10,10,10,10,10,10,10,10,10,10,10,10,10,10,10,10,10,10,10,10,10,10,10,10,10,10,10,10,10,10,10,10,10,10,10,10,10,10,10,10,10,10,10,10,10,10,10,10,10,10,10,10,10,10,10,10,10,10,10,10,10,10,10,
10,10,10,10,10,10,10,10,10,10,10,10,10,10,10,10,10,10,10,10,10,10,10,10,10,10,10,10,10,10,10,10,10,10,10,10,10,10,10,10,10,10,10,10,10,10,10,10,10,10,10,10,10,10,10,10,10,10,10,10,10,10,10,10,10,10,10,10,10,10,10,10,10,10,10,10,10,10,10,10,10,10,10,10,10,10,10,10,10,10,10,10,10,10,10,10,10,10,10,10,10,10,10,10,10,10,10,10,10,10,10,10,10,10,10,10,10,10,10,10,
10,10,10,10,10,10,10,10,10,10,10,10,10,10,10,10,10,10,10,10,10,10,10,10,10,10,10,10,10,10,10,10,10,10,10,10,10,10,10,10,10,10,10,10,10,10,10,10,10,10,10,10,10,10,10,10,10,10,10,10,10,10,10,10,10,10,10,10,10,10,10,10,10,10,10,10,10,10,10,10,10,10,10,10,10,10,10,10,10,10,10,10,10,10,10,10,10,10,10,10,10,10,10,10,10,10,10,10,10,10,10,10,10,10,10,10,10,10,10,10,
10,10,10,10,10,10,10,10,10,10,10,10,10,10,10,10,10,10,10,10,10,10,10,10,10,10,10,10,10,10,10,10,10,10,10,10,10,10,10,10,10,10,10,10,10,10,10,10,10,10,10,10,10,10,10,10,10,10,10,10,10,10,10,10,10,10,10,10,10,10,10,10,10,10,10,10,10,10,10,10,10,10,10,10,10,10,10,10,10,10,10,10,10,10,10,10,10,10,10,10,10,10,10,10,10,10,10,10,10,10,10,10,10,10,10,10,10,10,10,10,
10,10,10,10,10,10,10,10,10,10,10,10,10,10,10,10,10,10,10,10,10,10,10,10,10,10,10,10,10,10,10,10,10,10,10,10,10,10,10,10,10,10,10,10,10,10,10,10,10,10,10,10,10,10,10,10,10,10,10,10,10,10,10,10,10,10,10,10,10,10,10,10,10,10,10,10,10,10,10,10,10,10,10,10,10,10,10,10,10,10,10,10,10,10,10,10,10,10,10,10,10,10,10,10,10,10,10,10,10,10,10,10,10,10,10,10,10,10,10,10,
10,10,10,10,10,10,10,10,10,10,10,10,10,10,10,10,10,10,10,10,10,10,10,10,10,10,10,10,10,10,10,10,10,10,10,10,10,10,10,10,10,10,10,10,10,10,10,10,10,10,10,10,10,10,10,10,10,10,10,10,10,10,10,10,10,10,10,10,10,10,10,10,10,10,10,10,10,10,10,10,10,10,10,10,10,10,10,10,10,10,10,10,10,10,10,10,10,10,10,10,10,10,10,10,10,10,10,10,10,10,10,10,10,10,10,10,10,10,10,10
</data>
 </layer>
 <objectgroup id="2" name="Immagini" locked="1">
  <object id="107" gid="8" x="1699" y="7599" width="736" height="737"/>
  <object id="9" gid="3" x="1902" y="1756" width="736" height="737"/>
  <object id="41" gid="3" x="3259.58" y="1768.12" width="736" height="737"/>
  <object id="46" gid="3" x="4614.12" y="1783.27" width="736" height="737"/>
  <object id="51" gid="3" x="5976.24" y="1796.91" width="736" height="737"/>
  <object id="126" gid="8" x="3308.09" y="7614.15" width="736" height="737"/>
  <object id="132" gid="8" x="4917.18" y="7629.3" width="736" height="737"/>
  <object id="138" gid="8" x="6527.79" y="7642.94" width="736" height="737"/>
  <object id="144" gid="8" x="8133.85" y="7655.06" width="736" height="737"/>
  <object id="150" gid="8" x="9744.45" y="7668.7" width="736" height="737"/>
  <object id="156" gid="8" x="11353.5" y="7683.85" width="736" height="737"/>
  <object id="162" gid="8" x="12962.6" y="7699" width="736" height="737"/>
  <object id="56" gid="3" x="7336.85" y="1812.06" width="736" height="737"/>
  <object id="61" gid="3" x="8695.94" y="1822.67" width="736" height="737"/>
  <object id="66" gid="3" x="10058.1" y="1836.3" width="736" height="737"/>
  <object id="71" gid="3" x="11414.1" y="1849.94" width="736" height="737"/>
  <object id="76" gid="3" x="12773.2" y="1860.55" width="736" height="737"/>
  <object id="10" gid="3" x="2175" y="1759" width="736" height="737"/>
  <object id="40" gid="3" x="3532.58" y="1771.12" width="736" height="737"/>
  <object id="45" gid="3" x="4887.12" y="1786.27" width="736" height="737"/>
  <object id="50" gid="3" x="6249.24" y="1799.91" width="736" height="737"/>
  <object id="55" gid="3" x="7609.85" y="1815.06" width="736" height="737"/>
  <object id="60" gid="3" x="8968.94" y="1825.67" width="736" height="737"/>
  <object id="65" gid="3" x="10331.1" y="1839.3" width="736" height="737"/>
  <object id="70" gid="3" x="11687.1" y="1852.94" width="736" height="737"/>
  <object id="75" gid="3" x="13046.2" y="1863.55" width="736" height="737"/>
  <object id="78" gid="3" x="13862.9" y="1871.12" width="736" height="737"/>
  <object id="11" gid="3" x="2446" y="1760" width="736" height="737"/>
  <object id="39" gid="3" x="3803.58" y="1772.12" width="736" height="737"/>
  <object id="44" gid="3" x="5158.12" y="1787.27" width="736" height="737"/>
  <object id="49" gid="3" x="6520.24" y="1800.91" width="736" height="737"/>
  <object id="54" gid="3" x="7880.85" y="1816.06" width="736" height="737"/>
  <object id="59" gid="3" x="9239.94" y="1826.67" width="736" height="737"/>
  <object id="64" gid="3" x="10602.1" y="1840.3" width="736" height="737"/>
  <object id="69" gid="3" x="11958.1" y="1853.94" width="736" height="737"/>
  <object id="74" gid="3" x="13317.2" y="1864.55" width="736" height="737"/>
  <object id="12" gid="2" x="2719" y="1763" width="736" height="737"/>
  <object id="38" gid="2" x="4076.58" y="1775.12" width="736" height="737"/>
  <object id="43" gid="2" x="5431.12" y="1790.27" width="736" height="737"/>
  <object id="48" gid="2" x="6793.24" y="1803.91" width="736" height="737"/>
  <object id="53" gid="2" x="8153.85" y="1819.06" width="736" height="737"/>
  <object id="58" gid="2" x="9512.94" y="1829.67" width="736" height="737"/>
  <object id="63" gid="2" x="10875.1" y="1843.3" width="736" height="737"/>
  <object id="68" gid="2" x="12231.1" y="1856.94" width="736" height="737"/>
  <object id="73" gid="2" x="13590.2" y="1867.55" width="736" height="737"/>
  <object id="13" gid="4" x="1664.21" y="1733.33" width="736" height="737"/>
  <object id="14" gid="4" x="1664.21" y="1996.12" width="736" height="737"/>
  <object id="17" gid="4" x="1670.75" y="2502.87" width="736" height="737"/>
  <object id="18" gid="4" x="1670.18" y="2772.29" width="736" height="737"/>
  <object id="8" gid="2" x="1630" y="1752" width="736" height="737"/>
  <object id="42" gid="2" x="2987.58" y="1764.12" width="736" height="737"/>
  <object id="47" gid="2" x="4342.12" y="1779.27" width="736" height="737"/>
  <object id="52" gid="2" x="5704.24" y="1792.91" width="736" height="737"/>
  <object id="57" gid="2" x="7064.85" y="1808.06" width="736" height="737"/>
  <object id="62" gid="2" x="8423.94" y="1818.67" width="736" height="737"/>
  <object id="67" gid="2" x="9786.06" y="1832.3" width="736" height="737"/>
  <object id="72" gid="2" x="11142.1" y="1845.94" width="736" height="737"/>
  <object id="77" gid="2" x="12501.2" y="1856.55" width="736" height="737"/>
  <object id="20" gid="4" x="1675.64" y="3300.2" width="736" height="737"/>
  <object id="21" gid="4" x="1679.14" y="3565.38" width="736" height="737"/>
  <object id="22" gid="4" x="1680.66" y="3818.51" width="736" height="737"/>
  <object id="32" gid="4" x="1700.78" y="5701.34" width="736" height="737"/>
  <object id="24" gid="4" x="1688.11" y="4359.79" width="736" height="737"/>
  <object id="31" gid="4" x="1702.78" y="5970.1" width="736" height="737"/>
  <object id="37" gid="4" x="1711.87" y="7033.74" width="736" height="737"/>
  <object id="25" gid="4" x="1689.1" y="4630.3" width="736" height="737"/>
  <object id="30" gid="4" x="1705.76" y="6237.87" width="736" height="737"/>
  <object id="26" gid="4" x="1692.08" y="4898.07" width="736" height="737"/>
  <object id="35" gid="4" x="1717.84" y="7569.28" width="736" height="737"/>
  <object id="27" gid="4" x="1693.08" y="5163.85" width="736" height="737"/>
  <object id="28" gid="4" x="1709.74" y="6771.42" width="736" height="737"/>
  <object id="86" gid="6" x="13871.7" y="1862.64" width="736" height="737"/>
  <object id="81" gid="5" x="13868.7" y="2126.27" width="736" height="737"/>
  <object id="82" gid="5" x="13873.2" y="2394.45" width="736" height="737"/>
  <object id="83" gid="6" x="13874.8" y="2659.61" width="736" height="737"/>
  <object id="84" gid="6" x="13879.3" y="2927.79" width="736" height="737"/>
  <object id="85" gid="5" x="13880.8" y="3192.94" width="736" height="737"/>
  <object id="92" gid="6" x="13883.8" y="3462.64" width="736" height="737"/>
  <object id="98" gid="6" x="13897.5" y="5067.18" width="736" height="737"/>
  <object id="91" gid="5" x="13883.8" y="3729.3" width="736" height="737"/>
  <object id="97" gid="5" x="13897.5" y="5333.85" width="736" height="737"/>
  <object id="90" gid="5" x="13888.4" y="3997.48" width="736" height="737"/>
  <object id="96" gid="5" x="13902" y="5602.03" width="736" height="737"/>
  <object id="89" gid="6" x="13889.9" y="4262.64" width="736" height="737"/>
  <object id="95" gid="6" x="13903.5" y="5867.18" width="736" height="737"/>
  <object id="88" gid="6" x="13894.5" y="4530.82" width="736" height="737"/>
  <object id="94" gid="6" x="13908.1" y="6135.36" width="736" height="737"/>
  <object id="87" gid="5" x="13896" y="4795.97" width="736" height="737"/>
  <object id="93" gid="5" x="13909.6" y="6400.52" width="736" height="737"/>
  <object id="104" gid="6" x="13909.6" y="6661.12" width="736" height="737"/>
  <object id="103" gid="5" x="13909.6" y="6927.79" width="736" height="737"/>
  <object id="102" gid="5" x="13914.2" y="7195.97" width="736" height="737"/>
  <object id="101" gid="6" x="13915.7" y="7461.12" width="736" height="737"/>
  <object id="100" gid="6" x="13915.7" y="7727.79" width="736" height="737"/>
  <object id="108" gid="7" x="1970.21" y="7606.58" width="736" height="737"/>
  <object id="109" gid="7" x="2235.36" y="7608.09" width="736" height="737"/>
  <object id="110" gid="8" x="2502.03" y="7608.09" width="736" height="737"/>
  <object id="112" gid="8" x="2771.73" y="7611.12" width="736" height="737"/>
  <object id="114" gid="7" x="3038.39" y="7611.12" width="736" height="737"/>
  <object id="125" gid="7" x="3579.3" y="7621.73" width="736" height="737"/>
  <object id="131" gid="7" x="5188.39" y="7636.88" width="736" height="737"/>
  <object id="137" gid="7" x="6799" y="7650.52" width="736" height="737"/>
  <object id="143" gid="7" x="8405.06" y="7662.64" width="736" height="737"/>
  <object id="149" gid="7" x="10015.7" y="7676.27" width="736" height="737"/>
  <object id="155" gid="7" x="11624.8" y="7691.42" width="736" height="737"/>
  <object id="161" gid="7" x="13233.8" y="7706.58" width="736" height="737"/>
  <object id="124" gid="7" x="3844.45" y="7623.24" width="736" height="737"/>
  <object id="130" gid="7" x="5453.55" y="7638.39" width="736" height="737"/>
  <object id="136" gid="7" x="7064.15" y="7652.03" width="736" height="737"/>
  <object id="142" gid="7" x="8670.21" y="7664.15" width="736" height="737"/>
  <object id="148" gid="7" x="10280.8" y="7677.79" width="736" height="737"/>
  <object id="154" gid="7" x="11889.9" y="7692.94" width="736" height="737"/>
  <object id="160" gid="7" x="13499" y="7708.09" width="736" height="737"/>
  <object id="163" gid="7" x="13765.7" y="7708.09" width="736" height="737"/>
  <object id="164" gid="7" x="13944.5" y="7711.12" width="736" height="737"/>
  <object id="123" gid="8" x="4111.12" y="7623.24" width="736" height="737"/>
  <object id="129" gid="8" x="5720.21" y="7638.39" width="736" height="737"/>
  <object id="135" gid="8" x="7330.82" y="7652.03" width="736" height="737"/>
  <object id="141" gid="8" x="8936.88" y="7664.15" width="736" height="737"/>
  <object id="147" gid="8" x="10547.5" y="7677.79" width="736" height="737"/>
  <object id="153" gid="8" x="12156.6" y="7692.94" width="736" height="737"/>
  <object id="122" gid="8" x="4380.82" y="7626.27" width="736" height="737"/>
  <object id="128" gid="8" x="5989.91" y="7641.42" width="736" height="737"/>
  <object id="134" gid="8" x="7600.52" y="7655.06" width="736" height="737"/>
  <object id="140" gid="8" x="9206.58" y="7667.18" width="736" height="737"/>
  <object id="146" gid="8" x="10817.2" y="7680.82" width="736" height="737"/>
  <object id="152" gid="8" x="12426.3" y="7695.97" width="736" height="737"/>
  <object id="121" gid="7" x="4647.48" y="7626.27" width="736" height="737"/>
  <object id="127" gid="7" x="6256.58" y="7641.42" width="736" height="737"/>
  <object id="133" gid="7" x="7867.18" y="7655.06" width="736" height="737"/>
  <object id="139" gid="7" x="9473.24" y="7667.18" width="736" height="737"/>
  <object id="145" gid="7" x="11083.8" y="7680.82" width="736" height="737"/>
  <object id="151" gid="7" x="12692.9" y="7695.97" width="736" height="737"/>
  <object id="192" gid="13" x="13951.2" y="7759.2" width="343" height="468"/>
  <object id="166" gid="9" x="1668.06" y="2253.15" width="736" height="737"/>
  <object id="167" gid="9" x="1674.42" y="3037.82" width="736" height="737"/>
  <object id="168" gid="9" x="1685.03" y="4086.12" width="736" height="737"/>
  <object id="169" gid="9" x="1715.09" y="7299.94" width="736" height="737"/>
  <object id="170" gid="9" x="1697.94" y="5433.7" width="736" height="737"/>
  <object id="171" gid="9" x="1709.09" y="6502.79" width="736" height="737"/>
  <object id="172" gid="11" x="1473.03" y="1023.94" width="180" height="200"/>
  <object id="173" gid="11" x="976.061" y="2520.91" width="180" height="200"/>
  <object id="174" gid="11" x="5709.39" y="914.848" width="180" height="200"/>
  <object id="175" gid="11" x="7088.18" y="1093.64" width="180" height="200"/>
  <object id="176" gid="11" x="14208" y="2304" width="180" height="200"/>
  <object id="177" gid="11" x="14123" y="4167.88" width="180" height="200"/>
  <object id="178" gid="11" x="13594.2" y="7987.58" width="180" height="200"/>
  <object id="179" gid="11" x="11950.3" y="8001.21" width="180" height="200"/>
  <object id="180" gid="11" x="2688" y="7808" width="180" height="200"/>
  <object id="181" gid="12" x="14643.8" y="7751.78" width="343" height="238"/>
  <object id="182" gid="12" x="13110.5" y="8060.87" width="343" height="238"/>
  <object id="183" gid="12" x="14149.9" y="6882.08" width="343" height="238"/>
  <object id="184" gid="12" x="14277.1" y="5663.9" width="343" height="238"/>
  <object id="185" gid="12" x="14133.2" y="3553.3" width="343" height="238"/>
  <object id="186" gid="12" x="4090.77" y="922.992" width="343" height="238"/>
  <object id="187" gid="12" x="4190.77" y="568.447" width="343" height="238"/>
  <object id="188" gid="12" x="896.826" y="3626.02" width="343" height="238"/>
  <object id="189" gid="12" x="686.22" y="4218.45" width="343" height="238"/>
  <object id="190" gid="12" x="978.644" y="5507.84" width="343" height="238"/>
  <object id="191" gid="12" x="708.947" y="6577.54" width="343" height="238"/>
  <object id="193" gid="13" x="14336" y="6528" width="343" height="468"/>
  <object id="194" gid="13" x="10496" y="8192" width="343" height="468"/>
  <object id="195" gid="13" x="6656" y="8064" width="343" height="468"/>
  <object id="196" gid="13" x="1280" y="7680" width="343" height="468"/>
  <object id="197" gid="13" x="896" y="5248" width="343" height="468"/>
  <object id="198" gid="13" x="2304" y="1024" width="343" height="468"/>
  <object id="200" gid="14" x="1536" y="4224" width="180" height="200"/>
  <object id="201" gid="14" x="1603.33" y="4814.85" width="180" height="200"/>
  <object id="202" gid="14" x="1716.97" y="1980" width="180" height="200"/>
  <object id="203" gid="14" x="2527.58" y="2654.24" width="180" height="200"/>
  <object id="204" gid="14" x="2694.24" y="4681.52" width="180" height="200"/>
  <object id="205" gid="14" x="3582.12" y="0" width="180" height="200"/>
  <object id="206" gid="14" x="2112.42" y="2645.15" width="180" height="200"/>
  <object id="207" gid="14" x="2142.73" y="5560.3" width="180" height="200"/>
  <object id="208" gid="14" x="2751.82" y="1890.61" width="180" height="200"/>
  <object id="209" gid="14" x="3860.91" y="2842.12" width="180" height="200"/>
  <object id="210" gid="14" x="3974.55" y="2843.64" width="180" height="200"/>
  <object id="211" gid="14" x="3368.48" y="6364.85" width="180" height="200"/>
  <object id="212" gid="14" x="3476.06" y="6287.58" width="180" height="200"/>
  <object id="213" gid="14" x="4608" y="5504" width="180" height="200"/>
  <object id="214" gid="14" x="4736" y="5504" width="180" height="200"/>
  <object id="215" gid="14" x="5632" y="4992" width="180" height="200"/>
  <object id="216" gid="14" x="5760" y="4992" width="180" height="200"/>
  <object id="217" gid="14" x="5760" y="5120" width="180" height="200"/>
  <object id="218" gid="14" x="5632" y="5120" width="180" height="200"/>
  <object id="219" gid="14" x="5171.52" y="2973.94" width="180" height="200"/>
  <object id="220" gid="14" x="5913.94" y="3080" width="180" height="200"/>
  <object id="221" gid="14" x="5945.76" y="2199.7" width="180" height="200"/>
  <object id="222" gid="14" x="5282.12" y="2251.21" width="180" height="200"/>
  <object id="223" gid="14" x="8324.55" y="3426.97" width="180" height="200"/>
  <object id="224" gid="14" x="8648.79" y="5272.42" width="180" height="200"/>
  <object id="225" gid="14" x="8748.79" y="6014.85" width="180" height="200"/>
  <object id="226" gid="14" x="5741.21" y="6798.18" width="180" height="200"/>
  <object id="227" gid="14" x="5913.94" y="6813.33" width="180" height="200"/>
  <object id="228" gid="14" x="5798.79" y="6995.15" width="180" height="200"/>
  <object id="229" gid="14" x="5956.36" y="7007.27" width="180" height="200"/>
  <object id="233" gid="14" x="12544" y="2304" width="180" height="200"/>
  <object id="234" gid="14" x="12672" y="2304" width="180" height="200"/>
  <object id="235" gid="14" x="12672" y="2176" width="180" height="200"/>
  <object id="236" gid="14" x="12544" y="2176" width="180" height="200"/>
  <object id="237" gid="14" x="13440" y="7168" width="180" height="200"/>
  <object id="238" gid="14" x="13312" y="7168" width="180" height="200"/>
  <object id="239" gid="14" x="13312" y="7040" width="180" height="200"/>
  <object id="240" gid="14" x="13312" y="7040" width="180" height="200"/>
  <object id="241" gid="14" x="13440" y="7040" width="180" height="200"/>
  <object id="244" gid="15" x="1920" y="1920" width="392" height="278"/>
  <object id="245" gid="15" x="3893.85" y="2014.45" width="392" height="278"/>
  <object id="246" gid="15" x="4001.42" y="2015.97" width="392" height="278"/>
  <object id="247" gid="15" x="4101.42" y="2025.06" width="392" height="278"/>
  <object id="248" gid="15" x="8064" y="2048" width="392" height="278"/>
  <object id="249" gid="15" x="8192" y="2048" width="392" height="278"/>
  <object id="250" gid="15" x="8484.76" y="3393.24" width="392" height="278"/>
  <object id="251" gid="15" x="6112.03" y="6947.79" width="392" height="278"/>
  <object id="252" gid="15" x="6262.03" y="6967.48" width="392" height="278"/>
  <object id="253" gid="15" x="7198.39" y="6540.21" width="392" height="278"/>
  <object id="254" gid="15" x="7581.73" y="6338.7" width="392" height="278"/>
  <object id="255" gid="15" x="6307.48" y="5940.21" width="392" height="278"/>
  <object id="256" gid="15" x="1851.42" y="6729.61" width="392" height="278"/>
  <object id="257" gid="15" x="13612" y="7102.33" width="392" height="278"/>
  <object id="258" gid="15" x="12866.6" y="2265.97" width="392" height="278"/>
  <object id="259" gid="15" x="10584.8" y="2662.94" width="392" height="278"/>
  <object id="260" gid="15" x="10704.5" y="2670.52" width="392" height="278"/>
  <object id="261" gid="15" x="10298.4" y="5185.67" width="392" height="278"/>
  <object id="262" gid="15" x="10424.2" y="5193.24" width="392" height="278"/>
  <object id="265" gid="16" x="1689.46" y="1765.08" width="175" height="400"/>
  <object id="267" gid="16" x="1603.58" y="3923.69" width="175" height="400"/>
  <object id="268" gid="16" x="3062.67" y="1791.87" width="175" height="400"/>
  <object id="269" gid="16" x="3144.49" y="1794.9" width="175" height="400"/>
  <object id="270" gid="16" x="3224.8" y="1805.51" width="175" height="400"/>
  <object id="271" gid="16" x="3494.49" y="6402.48" width="175" height="400"/>
  <object id="272" gid="16" x="1926.31" y="6716.11" width="175" height="400"/>
  <object id="273" gid="16" x="6142.98" y="3075.2" width="175" height="400"/>
  <object id="274" gid="16" x="6091.46" y="2241.87" width="175" height="400"/>
  <object id="275" gid="16" x="5473.28" y="2429.75" width="175" height="400"/>
  <object id="276" gid="16" x="5362.67" y="2849.45" width="175" height="400"/>
  <object id="277" gid="16" x="8249.04" y="2102.48" width="175" height="400"/>
  <object id="278" gid="16" x="10456.6" y="2416.11" width="175" height="400"/>
  <object id="279" gid="16" x="10750.6" y="2703.99" width="175" height="400"/>
  <object id="280" gid="16" x="12943" y="2311.57" width="175" height="400"/>
  <object id="281" gid="16" x="13182.4" y="7272.17" width="175" height="400"/>
  <object id="282" gid="16" x="11970.3" y="6278.23" width="175" height="400"/>
  <object id="283" gid="16" x="12086.9" y="6288.84" width="175" height="400"/>
  <object id="284" gid="16" x="3162.67" y="4479.75" width="175" height="400"/>
  <object id="285" gid="16" x="3309.64" y="4484.3" width="175" height="400"/>
  <object id="286" gid="17" x="2531.73" y="1952.33" width="392" height="278"/>
  <object id="287" gid="17" x="3224.15" y="1950.82" width="392" height="278"/>
  <object id="288" gid="17" x="5722.64" y="5403.85" width="392" height="278"/>
  <object id="289" gid="17" x="5737.79" y="5540.21" width="392" height="278"/>
  <object id="290" gid="17" x="4725.67" y="5685.67" width="392" height="278"/>
  <object id="291" gid="17" x="4678.7" y="5399.3" width="392" height="278"/>
  <object id="292" gid="17" x="10460.5" y="6684.15" width="392" height="278"/>
  <object id="293" gid="17" x="10419.6" y="6531.12" width="392" height="278"/>
  <object id="294" gid="17" x="10475.7" y="6838.7" width="392" height="278"/>
  <object id="295" gid="17" x="7768.09" y="4764.45" width="392" height="278"/>
  <object id="296" gid="17" x="7795.36" y="4900.82" width="392" height="278"/>
  <object id="297" gid="17" x="13257.5" y="3232.64" width="392" height="278"/>
  <object id="298" gid="17" x="13265.1" y="3322.03" width="392" height="278"/>
  <object id="299" gid="17" x="13337.8" y="4776.58" width="392" height="278"/>
  <object id="300" gid="17" x="13348.4" y="4875.06" width="392" height="278"/>
  <object id="301" gid="17" x="11478.7" y="2090.21" width="392" height="278"/>
  <object id="302" gid="17" x="11390.8" y="1941.73" width="392" height="278"/>
  <object id="303" gid="17" x="7255.97" y="2464.45" width="392" height="278"/>
  <object id="304" gid="17" x="7160.52" y="2293.24" width="392" height="278"/>
  <object id="305" gid="18" x="2806.36" y="6908.79" width="180" height="200"/>
  <object id="306" gid="18" x="2916.97" y="6919.39" width="180" height="200"/>
  <object id="307" gid="18" x="4480" y="6656" width="180" height="200"/>
  <object id="308" gid="18" x="4352" y="6656" width="180" height="200"/>
  <object id="309" gid="18" x="4352" y="6528" width="180" height="200"/>
  <object id="310" gid="18" x="4480" y="6528" width="180" height="200"/>
  <object id="311" gid="18" x="5760" y="6656" width="180" height="200"/>
  <object id="313" gid="18" x="5888" y="6656" width="180" height="200"/>
  <object id="314" gid="18" x="7682.12" y="6390.61" width="180" height="200"/>
  <object id="315" gid="18" x="7665.45" y="6273.94" width="180" height="200"/>
  <object id="316" gid="18" x="7283.64" y="6601.21" width="180" height="200"/>
  <object id="317" gid="18" x="7251.82" y="6505.76" width="180" height="200"/>
  <object id="318" gid="18" x="6400" y="6016" width="180" height="200"/>
  <object id="319" gid="18" x="6400" y="5888" width="180" height="200"/>
  <object id="320" gid="18" x="12021.5" y="6463.33" width="180" height="200"/>
  <object id="321" gid="18" x="12173" y="6475.45" width="180" height="200"/>
  <object id="322" gid="18" x="13274.5" y="4967.88" width="180" height="200"/>
  <object id="323" gid="18" x="13400.3" y="4981.52" width="180" height="200"/>
  <object id="324" gid="18" x="13129.1" y="3058.79" width="180" height="200"/>
  <object id="325" gid="18" x="13259.4" y="3067.88" width="180" height="200"/>
  <object id="331" gid="19" x="1939.95" y="6850.96" width="167" height="300"/>
  <object id="332" gid="19" x="2000.55" y="6850.96" width="167" height="300"/>
  <object id="333" gid="19" x="3558.13" y="6541.87" width="167" height="300"/>
  <object id="334" gid="19" x="2259.64" y="5610.05" width="167" height="300"/>
  <object id="335" gid="19" x="1723.28" y="4861.57" width="167" height="300"/>
  <object id="336" gid="19" x="4605.1" y="6713.08" width="167" height="300"/>
  <object id="337" gid="19" x="4591.46" y="6629.75" width="167" height="300"/>
  <object id="338" gid="19" x="6346.01" y="7093.39" width="167" height="300"/>
  <object id="339" gid="19" x="6333.89" y="7014.6" width="167" height="300"/>
  <object id="340" gid="19" x="4883.89" y="5725.2" width="167" height="300"/>
  <object id="341" gid="19" x="4877.83" y="5561.57" width="167" height="300"/>
  <object id="342" gid="19" x="5592.98" y="2494.9" width="167" height="300"/>
  <object id="343" gid="19" x="5473.28" y="2905.51" width="167" height="300"/>
  <object id="344" gid="19" x="6258.13" y="3132.78" width="167" height="300"/>
  <object id="345" gid="19" x="4186.92" y="2137.33" width="167" height="300"/>
  <object id="346" gid="19" x="4180.86" y="2046.42" width="167" height="300"/>
  <object id="347" gid="19" x="4102.07" y="2900.96" width="167" height="300"/>
  <object id="348" gid="19" x="8391.46" y="3557.02" width="167" height="300"/>
  <object id="349" gid="19" x="8456.61" y="3564.6" width="167" height="300"/>
  <object id="350" gid="19" x="10597.5" y="6599.45" width="167" height="300"/>
  <object id="351" gid="19" x="8870.25" y="6078.23" width="167" height="300"/>
  <object id="352" gid="19" x="8779.34" y="5338.84" width="167" height="300"/>
  <object id="353" gid="19" x="9980.86" y="4416.11" width="167" height="300"/>
  <object id="354" gid="19" x="10044.5" y="4425.2" width="167" height="300"/>
  <object id="355" gid="19" x="7942.98" y="2114.6" width="167" height="300"/>
  <object id="356" gid="19" x="7927.83" y="2014.6" width="167" height="300"/>
  <object id="357" gid="19" x="13061.2" y="2372.17" width="167" height="300"/>
  <object id="358" gid="19" x="12591.5" y="2435.81" width="167" height="300"/>
  <object id="359" gid="19" x="12653.6" y="2434.3" width="167" height="300"/>
  <object id="360" gid="19" x="13233.9" y="7047.93" width="167" height="300"/>
  <object id="361" gid="19" x="13252.1" y="7181.27" width="167" height="300"/>
  <object id="362" gid="19" x="12299" y="6546.42" width="167" height="300"/>
  <object id="363" gid="19" x="12294.5" y="6460.05" width="167" height="300"/>
  <object id="364" gid="20" x="10879.3" y="2747.93" width="167" height="300"/>
  <object id="365" gid="20" x="9982.37" y="4505.51" width="167" height="300"/>
  <object id="366" gid="20" x="10053.6" y="4513.08" width="167" height="300"/>
  <object id="367" gid="20" x="10617.2" y="6852.48" width="167" height="300"/>
  <object id="368" gid="20" x="10682.4" y="6653.99" width="167" height="300"/>
  <object id="369" gid="20" x="8889.95" y="6173.69" width="167" height="300"/>
  <object id="370" gid="20" x="8814.19" y="6164.6" width="167" height="300"/>
  <object id="371" gid="20" x="8799.04" y="5434.3" width="167" height="300"/>
  <object id="372" gid="20" x="4677.83" y="6707.02" width="167" height="300"/>
  <object id="373" gid="20" x="4961.16" y="5738.84" width="167" height="300"/>
  <object id="374" gid="20" x="4947.52" y="5576.72" width="167" height="300"/>
  <object id="375" gid="20" x="2180.86" y="5707.02" width="167" height="300"/>
  <object id="377" gid="20" x="1671.77" y="4955.51" width="167" height="300"/>
  <object id="378" gid="20" x="1668.73" y="4297.93" width="167" height="300"/>
  <object id="379" gid="20" x="1742.98" y="4023.69" width="167" height="300"/>
  <object id="380" gid="20" x="2068.73" y="6855.51" width="167" height="300"/>
  <object id="381" gid="20" x="12377.8" y="6528.23" width="167" height="300"/>
  <object id="382" gid="20" x="13321.8" y="7323.69" width="167" height="300"/>
  <object id="383" gid="20" x="8977.83" y="2103.99" width="167" height="300"/>
  <object id="384" gid="20" x="9033.89" y="2108.54" width="167" height="300"/>
  <object id="385" gid="20" x="9088.43" y="2108.54" width="167" height="300"/>
  <object id="386" gid="20" x="11470.3" y="3381.27" width="167" height="300"/>
  <object id="387" gid="20" x="11520.3" y="3385.81" width="167" height="300"/>
  <object id="388" gid="20" x="11574.8" y="3391.87" width="167" height="300"/>
  <object id="389" gid="21" x="10546" y="2820.66" width="167" height="300"/>
  <object id="390" gid="21" x="10611.2" y="2816.11" width="167" height="300"/>
  <object id="391" gid="21" x="6186.92" y="2264.6" width="167" height="300"/>
  <object id="392" gid="21" x="5415.7" y="2466.11" width="167" height="300"/>
  <object id="393" gid="21" x="6082.37" y="3096.42" width="167" height="300"/>
  <object id="395" gid="21" x="5317.22" y="2879.75" width="167" height="300"/>
  <object id="396" gid="21" x="3755.1" y="2066.11" width="167" height="300"/>
  <object id="397" gid="21" x="3067.22" y="1929.75" width="167" height="300"/>
  <object id="398" gid="21" x="1628.68" y="1790.12" width="167" height="300"/>
  <object id="400" gid="21" x="1550.55" y="3931.27" width="167" height="300"/>
  <object id="401" gid="21" x="1709.64" y="4923.69" width="167" height="300"/>
  <object id="402" gid="21" x="1729.34" y="6788.84" width="167" height="300"/>
  <object id="403" gid="21" x="2232.37" y="5667.63" width="167" height="300"/>
  <object id="404" gid="21" x="4264.19" y="6666.11" width="167" height="300"/>
  <object id="405" gid="21" x="4252.07" y="6563.08" width="167" height="300"/>
  <object id="406" gid="21" x="4514.19" y="5482.78" width="167" height="300"/>
  <object id="407" gid="21" x="3570.25" y="6426.72" width="167" height="300"/>
  <object id="408" gid="21" x="4435.4" y="4507.02" width="167" height="300"/>
  <object id="409" gid="21" x="4486.92" y="4510.05" width="167" height="300"/>
  <object id="410" gid="21" x="7333.89" y="5396.42" width="167" height="300"/>
  <object id="411" gid="21" x="7383.89" y="5388.84" width="167" height="300"/>
  <object id="412" gid="21" x="7638.43" y="4879.75" width="167" height="300"/>
  <object id="413" gid="21" x="8589.95" y="5316.11" width="167" height="300"/>
  <object id="414" gid="21" x="8712.67" y="6096.42" width="167" height="300"/>
  <object id="415" gid="21" x="10086.9" y="4497.93" width="167" height="300"/>
  <object id="416" gid="21" x="13499" y="5019.14" width="167" height="300"/>
  <object id="417" gid="21" x="13202.1" y="4982.78" width="167" height="300"/>
  <object id="418" gid="21" x="13120.3" y="3300.96" width="167" height="300"/>
  <object id="419" gid="21" x="13080.9" y="3170.66" width="167" height="300"/>
  <object id="420" gid="22" x="10926.3" y="2810.05" width="167" height="300"/>
  <object id="421" gid="22" x="11411.2" y="3270.66" width="167" height="300"/>
  <object id="422" gid="22" x="11486.9" y="3267.63" width="167" height="300"/>
  <object id="423" gid="22" x="6192.98" y="2240.36" width="167" height="300"/>
  <object id="424" gid="22" x="2661.16" y="2705.51" width="167" height="300"/>
  <object id="425" gid="22" x="2224.8" y="2705.51" width="167" height="300"/>
  <object id="426" gid="22" x="2289.95" y="3779.75" width="167" height="300"/>
  <object id="427" gid="22" x="2338.43" y="3773.69" width="167" height="300"/>
  <object id="428" gid="22" x="2786.92" y="4676.72" width="167" height="300"/>
  <object id="429" gid="22" x="9396.01" y="5697.93" width="167" height="300"/>
  <object id="430" gid="22" x="9521.77" y="5705.51" width="167" height="300"/>
  <object id="431" gid="22" x="8947.52" y="1994.9" width="167" height="300"/>
  <object id="432" gid="22" x="9002.07" y="1994.9" width="167" height="300"/>
  <object id="433" gid="22" x="12802.1" y="2431.27" width="167" height="300"/>
  <object id="434" gid="23" x="13371.8" y="3322.17" width="167" height="300"/>
  <object id="435" gid="23" x="13367.2" y="3247.93" width="167" height="300"/>
  <object id="436" gid="23" x="13467.2" y="4899.45" width="167" height="300"/>
  <object id="437" gid="23" x="13453.6" y="4816.11" width="167" height="300"/>
  <object id="438" gid="23" x="13186.9" y="4846.42" width="167" height="300"/>
  <object id="439" gid="23" x="13164.2" y="4741.87" width="167" height="300"/>
  <object id="440" gid="23" x="9388.43" y="5753.99" width="167" height="300"/>
  <object id="441" gid="23" x="9515.7" y="5753.99" width="167" height="300"/>
  <object id="442" gid="23" x="6492.98" y="6049.45" width="167" height="300"/>
  <object id="443" gid="23" x="6480.86" y="5958.54" width="167" height="300"/>
  <object id="444" gid="23" x="5850.55" y="5140.36" width="167" height="300"/>
  <object id="445" gid="23" x="5852.07" y="5053.99" width="167" height="300"/>
  <object id="446" gid="23" x="3042.98" y="2735.81" width="167" height="300"/>
  <object id="447" gid="23" x="3086.92" y="2734.3" width="167" height="300"/>
  <object id="448" gid="23" x="3136.92" y="2738.84" width="167" height="300"/>
  <object id="449" gid="23" x="1956.61" y="2003.99" width="167" height="300"/>
  <object id="450" gid="23" x="1955.1" y="1926.72" width="167" height="300"/>
  <object id="451" gid="23" x="2812.67" y="1978.23" width="167" height="300"/>
  <object id="452" gid="23" x="3294.49" y="2017.63" width="167" height="300"/>
  <object id="453" gid="23" x="3249.04" y="2014.6" width="167" height="300"/>
  <object id="454" gid="23" x="4215.7" y="2120.66" width="167" height="300"/>
  <object id="455" gid="23" x="4215.7" y="2060.05" width="167" height="300"/>
  <object id="456" gid="23" x="5620.25" y="2491.87" width="167" height="300"/>
  <object id="457" gid="23" x="6283.89" y="3119.14" width="167" height="300"/>
  <object id="458" gid="24" x="10802.1" y="2625.2" width="167" height="300"/>
  <object id="459" gid="24" x="10097.5" y="4450.96" width="167" height="300"/>
  <object id="460" gid="24" x="8536.92" y="3490.36" width="167" height="300"/>
  <object id="461" gid="24" x="8541.46" y="3425.2" width="167" height="300"/>
  <object id="462" gid="24" x="9124.8" y="2047.93" width="167" height="300"/>
  <object id="463" gid="24" x="2099.04" y="2716.11" width="167" height="300"/>
  <object id="464" gid="24" x="2288.43" y="3817.63" width="167" height="300"/>
  <object id="465" gid="24" x="2361.16" y="3829.75" width="167" height="300"/>
  <object id="466" gid="24" x="3180.86" y="2743.39" width="167" height="300"/>
  <object id="467" gid="24" x="2833.89" y="1896.42" width="167" height="300"/>
  <object id="468" gid="24" x="4123.28" y="2885.81" width="167" height="300"/>
  <object id="469" gid="24" x="9397.52" y="2878.23" width="167" height="300"/>
  <object id="470" gid="24" x="9464.19" y="2878.23" width="167" height="300"/>
  <object id="471" gid="24" x="11959.6" y="2879.75" width="167" height="300"/>
  <object id="472" gid="24" x="11999" y="2876.72" width="167" height="300"/>
  <object id="473" gid="24" x="13229.3" y="5428.23" width="167" height="300"/>
  <object id="474" gid="24" x="13265.7" y="5422.17" width="167" height="300"/>
  <object id="475" gid="18" x="9856" y="3072" width="180" height="200"/>
  <object id="476" gid="18" x="9984" y="3072" width="180" height="200"/>
  <object id="477" gid="18" x="9984" y="2944" width="180" height="200"/>
  <object id="478" gid="18" x="9856" y="2944" width="180" height="200"/>
  <object id="479" gid="14" x="9728" y="3072" width="180" height="200"/>
  <object id="480" gid="14" x="9728" y="2944" width="180" height="200"/>
  <object id="481" gid="14" x="9600" y="3072" width="180" height="200"/>
  <object id="482" gid="14" x="9600" y="2944" width="180" height="200"/>
  <object id="483" gid="14" x="11520" y="4864" width="180" height="200"/>
  <object id="484" gid="14" x="11648" y="4864" width="180" height="200"/>
  <object id="485" gid="16" x="11520" y="4992" width="175" height="400"/>
  <object id="486" gid="16" x="11648" y="4992" width="175" height="400"/>
  <object id="487" gid="16" x="9600" y="2816" width="175" height="400"/>
  <object id="488" gid="16" x="9728" y="2816" width="175" height="400"/>
  <object id="489" gid="16" x="13184" y="5120" width="175" height="400"/>
  <object id="490" gid="16" x="13184" y="5248" width="175" height="400"/>
  <object id="491" gid="16" x="13056" y="2944" width="175" height="400"/>
  <object id="492" gid="16" x="13184" y="2944" width="175" height="400"/>
  <object id="493" gid="16" x="13312" y="2944" width="175" height="400"/>
  <object id="586" gid="14" x="3578.67" y="3925.33" width="180" height="200"/>
 </objectgroup>
 <objectgroup id="3" name="Ostacoli" locked="1">
  <properties>
   <property name="collision" type="bool" value="true"/>
  </properties>
  <object id="494" name="WestWall" x="1371.52" y="7228.48">
   <properties>
    <property name="collision" type="bool" value="true"/>
   </properties>
   <polygon points="0,0 -45.4545,-5827.27 -560.606,-6336.36 -437.879,-10.6061"/>
  </object>
  <object id="496" name="NorthWall" x="1318.48" y="1408.79">
   <properties>
    <property name="collision" type="bool" value="true"/>
   </properties>
   <polygon points="0,0 12315.2,127.273 12083.3,-531.818 -606.061,-557.576"/>
  </object>
  <object id="497" name="EastWall" x="13440" y="1408">
   <properties>
    <property name="collision" type="bool" value="true"/>
   </properties>
   <polygon points="0,0 433.03,155.333 667.879,217.455 680,6429.58 54.2424,5891.7"/>
  </object>
  <object id="498" name="SouthWall" x="1060.91" y="7205.76">
   <properties>
    <property name="collision" type="bool" value="true"/>
   </properties>
   <polygon points="0,0 12497,109.091 13018.2,648.485 275.758,463.636"/>
  </object>
  <object id="499" x="1909.39" y="1957.27">
   <properties>
    <property name="collision" type="bool" value="true"/>
   </properties>
   <polygon points="0,0 2.27374e-13,-145.455 -68.1818,-168.182 -74.2424,-210.606 -175.758,-303.03 -242.424,-309.091 -537.879,-595.455 -628.788,-613.636 -627.273,-530.303 -413.636,-313.636 -439.394,-312.121 -430.303,-278.788 -360.606,-209.091 -236.364,-193.939 -227.273,-100 -159.091,-28.7879 -116.667,-4.54545"/>
  </object>
  <object id="500" x="1694.24" y="1966.36">
   <properties>
    <property name="collision" type="bool" value="true"/>
   </properties>
   <polygon points="0,0 3.0303,-93.9394 -84.8485,-175.758 -169.697,-181.818 -166.667,-93.9394 -101.515,-25.7576 -74.2424,1.51515"/>
  </object>
  <object id="501" x="2165.45" y="2634.55">
   <properties>
    <property name="collision" type="bool" value="true"/>
   </properties>
   <polygon points="0,0 3.0303,-39.3939 -40.9091,-56.0606 -33.3333,-75.7576 -60.6061,-103.03 -74.2424,-101.515 -100.455,-123.545 -107.455,-124.545 -148.455,-167.545 -243.455,-180.545 -243.455,-124.545 -270.455,-149.545 -292.455,-123.545 -158.455,10.4545 -127.455,15.4545 -127.455,-4.54545 -71.4545,-8.54545 -76.4545,-47.5455 -58.4545,-45.5455 -47.4545,-12.5455"/>
  </object>
  <object id="502" x="2424" y="2636">
   <properties>
    <property name="collision" type="bool" value="true"/>
   </properties>
   <polygon points="0,0 84,4 84,-64 108,-48 121,-37 132,-8 170,-6 170,-46 138,-58 139,-75 116,-100 101,-105 83,-123 63,-127 61,-109 4,-164 -83,-173 -76,-80"/>
  </object>
  <object id="503" x="2348" y="1900">
   <properties>
    <property name="collision" type="bool" value="true"/>
   </properties>
   <polygon points="0,0 193,11 195,-55 175,-91 105,-157 80,-160 -98,-174 -94,-106 -79,-81"/>
  </object>
  <object id="504" x="2647" y="1873">
   <properties>
    <property name="collision" type="bool" value="true"/>
   </properties>
   <polygon points="0,0 47,1 70,50 110,54 110,-6 94,-22 88,-20 86,-62 104,-44 125,-41 124,-64 35,-151 33,-161 -22,-214 -48,-188 -20,-160 -88,-176 -81,-83"/>
  </object>
  <object id="505" x="3160" y="1968">
   <properties>
    <property name="collision" type="bool" value="true"/>
   </properties>
   <polygon points="0,0 89,3 76,-128 58,-158 52,-164 65,-177 59,-239 42,-258 27,-259 12,-276 12,-288 -253,-555 -499,-577 -492,-496 -220,-228 -212,-180 -254,-190 -244,-148 -180,-88 -180,-80 -142,-74 -143,-85 -140,-88 -122,-70 -38,-70"/>
  </object>
  <object id="506" x="3678" y="2034">
   <properties>
    <property name="collision" type="bool" value="true"/>
   </properties>
   <polygon points="0,0 27,-15 33,-25 63,5 143,13 153,-13 181,11 261,15 261,7 282,18 352,20 361,3 391,33 483,37 484,-84 470,-98 447,-95 438,-106 428,-108 421,-125 368,-176 343,-171 281,-241 247,-263 175,-267 174,-258 147,-271 73,-277 78,-250 63,-259 37,-277 -32,-280 -21,-95 -46,-118 -81,-115 -76,-84"/>
  </object>
  <object id="508" x="5333" y="2431">
   <properties>
    <property name="collision" type="bool" value="true"/>
   </properties>
   <polygon points="0,0 32,0 28,-16 123,-3 133,-13 152,0 183,-3 195,9 237,11 230,-58 191,-63 181,-73 129,-125 81,-129 -180,-396 -265,-399 -257,-319 -234,-298 -240,-292 -165,-207 -139,-209 -43,-109 -76,-116 -71,-81"/>
  </object>
  <object id="509" x="5839" y="2185">
   <properties>
    <property name="collision" type="bool" value="true"/>
   </properties>
   <polygon points="0,0 87,1 81,-37 117,-5 129,-1 147,17 152,32 164,44 230,54 254,42 250,18 272,44 297,43 290,-58 256,-72 259,-87 237,-113 216,-116 199,-135 187,-135 182,-118 158,-126 165,-105 -73,-343 -153,-343 -146,-262 -49,-167 -87,-177 -74,-82"/>
  </object>
  <object id="510" x="6239" y="3073">
   <properties>
    <property name="collision" type="bool" value="true"/>
   </properties>
   <polygon points="0,0 -3,-61 -23,-81 -47,-81 -55,-89 -84,-96 -115,-133 -158,-134 -415,-389 -502,-402 -494,-318 -287,-117 -316,-124 -313,-99 -247,-33 -244,-20 -211,-13 -203,-25 -199,-25 -185,-11 -112,0 -103,-13"/>
  </object>
  <object id="511" x="5904" y="3068">
   <properties>
    <property name="collision" type="bool" value="true"/>
   </properties>
   <polygon points="0,0 -8,-92 -90,-166 -176,-176 -168,-84 -97,-11"/>
  </object>
  <object id="512" x="2958" y="2690">
   <properties>
    <property name="collision" type="bool" value="true"/>
   </properties>
   <polygon points="0,0 121,3 127,-23 140,-12 158,-14 157,-33 74,-114 63,-139 10,-182 -5,-151 26,-118 56,-100 65,-89 -54,-90"/>
  </object>
  <object id="513" x="3746" y="2818">
   <properties>
    <property name="collision" type="bool" value="true"/>
   </properties>
   <polygon points="0,0 94,10 98,-18 125,7 212,8 211,-15 236,12 279,17 279,1 312,4 310,-18 231,-99 221,-121 171,-167 151,-139 127,-159 36,-168 38,-138 17,-153 -75,-169 -72,-80"/>
  </object>
  <object id="514" x="5160" y="2960">
   <properties>
    <property name="collision" type="bool" value="true"/>
   </properties>
   <polygon points="0,0 -8,-92 -90,-170 -174,-174 -173,-87 -110,-22 -94,-6"/>
  </object>
  <object id="515" x="5164" y="2764">
   <properties>
    <property name="collision" type="bool" value="true"/>
   </properties>
   <polygon points="0,0 61,63 66,74 99,77 102,58 120,76 175,81 191,69 239,73 227,-3 175,-51 140,-48 -126,-314 -208,-320 -199,-237 11,-31 -10,-34"/>
  </object>
  <object id="516" x="7071" y="2413">
   <properties>
    <property name="collision" type="bool" value="true"/>
   </properties>
   <polygon points="0,0 195,9 192,-68 183,-87 107,-159 101,-225 89,-249 13,-329 -12,-336 -192,-344 -186,-270 -172,-252 -98,-178 -93,-107 -76,-76"/>
  </object>
  <object id="518" x="7757" y="1831">
   <properties>
    <property name="collision" type="bool" value="true"/>
   </properties>
   <polygon points="0,0 18,162 63,209 122,210 143,229 172,248 237,247 238,198 273,231 296,240 364,248 367,217 405,259 467,265 485,251 484,192 459,165 456,172 435,153 441,147 357,59 352,44 284,-24 265,-33 175,-123 87,-127 94,-46 58,-50 61,15 33,-9"/>
  </object>
  <object id="519" x="8274" y="3490">
   <properties>
    <property name="collision" type="bool" value="true"/>
   </properties>
   <polygon points="0,0 105,7 106,-62 140,-64 145,-101 179,-67 198,-70 191,-91 142,-142 139,-175 188,-128 206,-130 205,-153 130,-222 134,-262 57,-337 32,-356 -40,-356 -29,-223 -49,-247 -136,-252 -128,-160 -66,-98 -56,-80 -51,-53"/>
  </object>
  <object id="520" x="8850" y="2046">
   <properties>
    <property name="collision" type="bool" value="true"/>
   </properties>
   <polygon points="0,0 153,3 162,-18 146,-54 145,-65 162,-54 161,-81 145,-93 142,-106 118,-130 88,-144 91,-159 53,-181 57,-197 37,-217 22,-222 -1,-239 -19,-245 -18,-226 -38,-222 -58,-242 -75,-241 -76,-224 -90,-226 -87,-209 -71,-193 -59,-193 -38,-170 -35,-169 -31,-145 -45,-131 -44,-96 -33,-91 -36,-60"/>
  </object>
  <object id="521" x="9046" y="1990">
   <properties>
    <property name="collision" type="bool" value="true"/>
   </properties>
   <polygon points="0,0 12,-4 16,-28 -67,-109 -79,-133 -125,-175 -130,-162 -118,-150 -125,-143 -142,-162 -149,-155 -115,-117 -113,-111 -92,-100"/>
  </object>
  <object id="522" x="9489" y="3051">
   <properties>
    <property name="collision" type="bool" value="true"/>
   </properties>
   <polygon points="0,0 93,3 92,-44 136,0 223,5 225,-37 256,0 345,3 349,-41 380,-8 475,1 474,-86 426,-130 474,-126 469,-221 397,-289 302,-294 306,-254 264,-292 229,-293 231,-319 -94,-638 -175,-637 -160,-584 -212,-632 -294,-638 -282,-554 -24,-296 -79,-297 -72,-204 -34,-170 -86,-178 -73,-83"/>
  </object>
  <object id="523" x="9338" y="2818">
   <properties>
    <property name="collision" type="bool" value="true"/>
   </properties>
   <polygon points="0,0 -2,-26 -93,-115 -101,-131 -148,-172 -157,-167 -143,-153 -146,-142 -164,-156 -165,-139 -129,-103 -107,-93 -22,-2"/>
  </object>
  <object id="524" x="9382" y="2818">
   <properties>
    <property name="collision" type="bool" value="true"/>
   </properties>
   <polygon points="0,0 20,0 20,-24 -77,-119 -79,-129 -124,-172 -133,-167 -117,-147 -125,-143 -140,-156 -145,-147 -96,-96 -83,-93"/>
  </object>
  <object id="525" x="10460" y="2780">
   <properties>
    <property name="collision" type="bool" value="true"/>
   </properties>
   <polygon points="0,0 30,6 39,-39 60,-16 67,-3 95,1 99,-15 103,-19 96,-84 175,-75 177,-121 198,-94 257,-77 289,-93 333,-89 346,-82 363,-47 396,-48 403,-79 363,-103 367,-107 365,-121 347,-139 329,-145 333,-153 343,-151 335,-183 321,-193 320,-204 300,-220 282,-222 280,-240 188,-332 184,-344 145,-381 133,-377 143,-367 139,-359 122,-374 113,-365 131,-347 137,-341 160,-316 166,-318 251,-231 250,-226 253,-181 236,-196 238,-206 -29,-471 -54,-474 -57,-491 -329,-767 -413,-771 -404,-684 -135,-421 -113,-411 -106,-378 -124,-380 -109,-175 -41,-107 -70,-102 -71,-73"/>
  </object>
  <object id="526" x="11300" y="2040">
   <properties>
    <property name="collision" type="bool" value="true"/>
   </properties>
   <polygon points="0,0 191,9 190,-58 179,-83 102,-158 101,-209 85,-237 10,-310 -9,-307 -191,-325 -182,-250 -173,-231 -106,-162 -100,-116 -85,-87"/>
  </object>
  <object id="527" x="11918" y="2818">
   <properties>
    <property name="collision" type="bool" value="true"/>
   </properties>
   <polygon points="0,0 17,-5 13,-33 -70,-114 -76,-128 -124,-172 -135,-169 -119,-153 -123,-141 -137,-155 -145,-155 -161,-171 -175,-165 -159,-149 -164,-144 -186,-162 -183,-141 -143,-97 -128,-96 -39,-5 -24,-4 -23,-21"/>
  </object>
  <object id="528" x="11495" y="3329">
   <properties>
    <property name="collision" type="bool" value="true"/>
   </properties>
   <polygon points="0,0 -1,-31 -11,-49 -12,-64 3,-59 1,-81 -13,-91 -19,-109 -45,-131 -71,-133 -73,-175 -102,-186 -106,-210 -125,-231 -139,-229 -169,-259 -182,-254 -179,-237 -198,-238 -192,-220 -220,-228 -247,-253 -257,-251 -259,-237 -276,-232 -272,-216 -258,-202 -248,-204 -229,-187 -211,-181 -202,-170 -198,-146 -191,-101 -190,-74 -161,-15"/>
  </object>
  <object id="529" x="12485" y="2375">
   <properties>
    <property name="collision" type="bool" value="true"/>
   </properties>
   <polygon points="0,0 100.333,-5.66667 89.6667,-91 141,-86.3333 159.667,-78.3333 159.667,-83.6667 183.667,-62.3333 196.333,-56.3333 205.667,-47 215,-19 251,-20.3333 252.333,-53.6667 225.667,-69.6667 216.333,-79 217,-93 247.667,-78.3333 312.333,-76.3333 314.333,-131.667 322.333,-123.667 340.333,-120.333 356.333,-104.333 357,-94.3333 372.333,-75 440.333,-65.6667 451,-79 467,-68.3333 505,-69 501,-139.667 480.333,-159 473.667,-157.667 470.333,-170.333 445.667,-191 436.333,-187 433.667,-184.333 426.333,-182.333 419,-191 405.667,-193.667 409,-189 402.333,-187.667 399.667,-198.333 131,-463 53.6667,-465.667 66.3333,-382.333 0.333333,-388.333 2.33333,-339.667 -41.6667,-381 -127.667,-383 -122.333,-300.333 -83,-259.667 -80.3333,-254.333 -127,-261 -121,-165.667 -65,-112.333 -66.3333,-76.3333 -59,-67.6667 -55,-53"/>
  </object>
  <object id="530" x="13323.3" y="3274">
   <properties>
    <property name="collision" type="bool" value="true"/>
   </properties>
   <polygon points="0,0 -8.66667,-138 -24.6667,-154 -48.6667,-154 -56.6667,-162 -61.3333,-162.667 -73.3333,-182.667 -110.667,-220 -78.6667,-222.667 -85.3333,-314.667 -136,-360 -136.667,-383.333 -130,-384.667 -118,-372.667 -112.667,-359.333 -94.6667,-340 -34,-334 -12,-345.333 -16.6667,-404.667 -34.6667,-426.667 -48.6667,-431.333 -65.3333,-446.667 -65.3333,-460 -332,-726.667 -414,-732.667 -412.667,-702 -404,-692 -401.333,-670.667 -404.667,-670 -458.667,-722.667 -478.667,-724 -540,-729.333 -534.667,-673.333 -588,-726.667 -667.333,-730 -664,-653.333 -397.333,-386.667 -380.667,-382 -378.667,-317.333 -332.667,-272.667 -322,-262 -352,-272 -348,-236 -359.333,-246 -400.667,-250 -395.333,-218 -341.333,-165.333 -335.333,-115.333 -360,-122.667 -355.333,-90 -290.667,-24 -293.333,-18.6667 -283.333,-10 -256,-8 -252,-14.6667 -245.333,-8 -44.6667,7.33333 -45.3333,-2.66667"/>
  </object>
  <object id="531" x="1309.33" y="3706.67">
   <properties>
    <property name="collision" type="bool" value="true"/>
   </properties>
   <polygon points="0,0 83.3333,82 87.3333,107.333 155.333,175.333 156.667,184.667 185.333,188 186,176.667 194,176.667 196.667,192.667 214,207.333 277.333,213.333 299.333,252.667 348,260 354.667,250.667 351.333,150 338,136.667 326.667,137.333 316,126.667 268.667,120.667 268.667,118 259.333,119.333 239.333,99.3333 238.667,86.6667 -28.6667,-182"/>
  </object>
  <object id="532" x="2300.67" y="3763.33">
   <properties>
    <property name="collision" type="bool" value="true"/>
   </properties>
   <polygon points="0,0 -2,-19.3333 -52.6667,-67.3333 -30,-66 -29.3333,-104 -56.6667,-114 -62,-119.333 -57.3333,-121.333 -61.3333,-141.333 -84.6667,-163.333 -99.3333,-162 -119.333,-182 -130.667,-178.667 -130,-160.667 -148,-161.333 -151.333,-158 -169.333,-177.333 -184.667,-175.333 -181.333,-157.333 -199.333,-158 -212.667,-171.333 -222,-167.333 -210.667,-154.667 -221.333,-149.333 -235.333,-162 -237.333,-149.333 -220,-132 -202,-112.667 -184,-101.333 -93.3333,-10.6667 -73.3333,-9.33333 -75.3333,-31.3333 -108,-60 -76.6667,-56.6667 -20.6667,2"/>
  </object>
  <object id="534" x="1586" y="4240.67">
   <properties>
    <property name="collision" type="bool" value="true"/>
   </properties>
   <polygon points="0,0 6,-6 4,-36 -3.33333,-47.3333 -4.66667,-67.3333 6,-62 6,-86 -0.666667,-92.6667 -4,-92 -12,-100 -12.6667,-110 -36,-132 -91.3333,-138 -152.667,-199.333 -244,-206.667 -226.667,-109.333 -159.333,-40.6667 -64,-32 -52,-6.66667"/>
  </object>
  <object id="535" x="3565.33" y="3909.33">
   <properties>
    <property name="collision" type="bool" value="true"/>
   </properties>
   <polygon points="0,0 -4,-89.3333 -15.3333,-99.3333 -18.6667,-98.6667 -82.6667,-160 -169.333,-169.333 -164.667,-80.6667 -95.3333,-11.3333 -90.6667,9.09495e-13"/>
  </object>
  <object id="536" x="3298" y="4483.33">
   <properties>
    <property name="collision" type="bool" value="true"/>
   </properties>
   <polygon points="0,0 10.6667,-13.3333 6.66667,-76 -16.6667,-100.667 -24,-98.6667 -42.6667,-117.333 -45.3333,-130.667 -308,-393.333 -388.667,-398 -384.667,-327.333 -460.667,-403.333 -542,-404.667 -531.333,-322 -222.667,-20 -210.667,-8 -151.333,-6 -138.667,-18.6667 -142,-79.3333 -116.667,-54 -104,-53.3333 -86,-34 -90.6667,-29.3333 -74,-11.3333"/>
  </object>
  <object id="537" x="2680" y="4664">
   <properties>
    <property name="collision" type="bool" value="true"/>
   </properties>
   <polygon points="0,0 -2.66667,-66.6667 43.3333,-62 45.3333,-98.6667 9.33333,-113.333 2.66667,-120 8.66667,-118 6.66667,-137.333 -16,-160 -28,-153.333 -48.6667,-175.333 -63.3333,-179.333 -62,-162 -83.3333,-162 -172.667,-168.667 -167.333,-83.3333 -98,-14 -98,-6"/>
  </object>
  <object id="538" x="4388" y="4449.33">
   <properties>
    <property name="collision" type="bool" value="true"/>
   </properties>
   <polygon points="0,0 12.6667,11.3333 13.3333,18.6667 20,25.3333 44.6667,27.3333 50.6667,24 47.3333,14 49.3333,9.33333 50,-36.6667 20,-46.6667 -17.3333,-84 -58,-86 -56,-72 -65.3333,-81.3333 -109.333,-85.3333 -103.333,-54 -47.3333,2 -38,8.66667 -37.3333,16 -26,23.3333 -7.33333,23.3333 -3.33333,11.3333"/>
  </object>
  <object id="539" x="1665.33" y="4870.67">
   <properties>
    <property name="collision" type="bool" value="true"/>
   </properties>
   <polygon points="0,0 -6.66667,-46.6667 -37.3333,-56 -72,-88 -81.3333,-89.3333 -81.3333,-105.333 -63.3333,-83.3333 -44.6667,-78 -41.3333,-84 -20.6667,-72.6667 -16,-80 -14,-140.667 -38,-162 -45.3333,-162.667 -48,-168 -50.6667,-176 -73.3333,-196 -84.6667,-192.667 -84.6667,-187.333 -89.3333,-188 -96.6667,-194 -108.667,-195.333 -112.667,-191.333 -156,-233.333 -248.667,-244.667 -242,-155.333 -176.667,-90 -177.333,-81.3333 -162,-78 -161.333,-68 -157.333,-64 -154.667,-29.3333 -124.667,20.6667 -117.333,26.6667 -80.6667,30 -72.6667,22 -72,-8 -80.6667,-20.6667 -81.3333,-33.3333 -46,0.666667 -42,10 -33.3333,17.3333 -10,18 -8.66667,6"/>
  </object>
  <object id="540" x="2181.33" y="5621.33">
   <properties>
    <property name="collision" type="bool" value="true"/>
   </properties>
   <polygon points="0,0 6,-3.33333 3.33333,-51.3333 -27.3333,-60.6667 -59.3333,-90 -55.3333,-99.3333 -38,-82 -22,-79.3333 -20.6667,-86 -6,-76.6667 0.666667,-78 6,-83.3333 4,-89.3333 12,-86.6667 9.33333,-94.6667 2.66667,-101.333 3.33333,-128.667 9.33333,-124 7.33333,-135.333 0.666667,-139.333 0,-146.667 -19.3333,-164.667 -26,-166 -33.3333,-174.667 -31.3333,-179.333 -53.3333,-197.333 -65.3333,-196 -63.3333,-187.333 -70,-194 -91.3333,-196.667 -134.667,-238.667 -228,-244 -216.667,-154 -173.333,-112 -169.333,-65.3333 -158,-58 -160,-26.6667 -132.667,20.6667 -121.333,28 -90,26 -79.3333,20.6667 -78,-7.33333 -84,-17.3333 -88,-42.6667 -80,-37.3333 -81.3333,-49.3333 -38.6667,-6.66667 -32,8 -5.33333,10.6667"/>
  </object>
  <object id="541" x="4537.33" y="5630.67">
   <properties>
    <property name="collision" type="bool" value="true"/>
   </properties>
   <polygon points="0,0 198,12.6667 198.667,-6.66667 209.333,-1.33333 216.667,10 232.667,26 244,28 246.667,14.6667 258.667,26.6667 268,25.3333 272.667,15.3333 276.667,16.6667 293.333,45.3333 340,52 345.333,44 344,16 336,2.66667 337.333,-14.6667 342.667,-14.6667 343.333,-39.3333 338.667,-40 326.667,-52 323.333,-62 306,-79.3333 256.667,-86 258,-52.6667 243.333,-62 235.333,-70 236,-73.3333 218.667,-90.6667 204,-92 203.333,-86 196.667,-87.3333 188.667,-95.3333 176.667,-88.6667 123.333,-144.667 177.333,-140 184,-138.667 184,-178.667 196,-169.333 204.667,-167.333 211.333,-152.667 222.667,-140 240.667,-134 240.667,-147.333 254.667,-137.333 266.667,-136 278.667,-118.667 323.333,-110 330,-119.333 329.333,-150.667 322.667,-165.333 324,-180 333.333,-176 332,-204 326,-203.333 314.667,-213.333 314,-220.667 294.667,-241.333 240.667,-246 242.667,-221.333 233.333,-230.667 232,-237.333 206,-256.667 198,-254 198,-248.667 192,-248 182.667,-257.333 168.667,-256.667 169.333,-252 168.667,-240.667 134,-272.667 153.333,-273.333 152.667,-339.333 136.667,-368.667 60,-444 44.6667,-444.667 -138.667,-456 -134,-388.667 -117.333,-360 -70,-311.333 -114.667,-312 -113.333,-268 -139.333,-290 -182,-295.333 -180,-268 -109.333,-194.667 -107.333,-188.667 -76,-182.667 -74.6667,-189.333 -51.3333,-167.333 -91.3333,-172.667 -88.6667,-103.333 -72.6667,-76.6667"/>
  </object>
  <object id="542" x="5752" y="5496">
   <properties>
    <property name="collision" type="bool" value="true"/>
   </properties>
   <polygon points="0,0 -4.66667,-64.6667 -17.3333,-89.3333 -63.3333,-136.667 -20,-134.667 -20,-201.333 -31.3333,-227.333 -104.667,-300.667 -122.667,-304 -310.667,-318.667 -307.333,-250 -295.333,-227.333 -245.333,-176 -293.333,-181.333 -291.333,-116.667 -274.667,-88 -204.667,-16.6667 -19.3333,0.666667"/>
  </object>
  <object id="543" x="5656.67" y="5103.33">
   <properties>
    <property name="collision" type="bool" value="true"/>
   </properties>
   <polygon points="0,0 88.6667,4.66667 84,-54.6667 96.6667,-32.6667 98,-15.3333 140.667,-12.6667 138.667,-74.6667 126.667,-86.6667 98.6667,-90.6667 98,-95.3333 68,-100 39.3333,-130 86.6667,-126.667 87.3333,-135.333 98,-116.667 101.333,-104 138,-100.667 140.667,-159.333 126.667,-174.667 103.333,-175.333 98.6667,-181.333 84,-182.667 81.3333,-220 72.6667,-227.333 68,-228 6.66667,-289.333 -83.3333,-298 -81.3333,-252 -122.667,-290.667 -211.333,-298 -203.333,-207.333 -165.333,-170.667 -210.667,-170.667 -204,-81.3333 -137.333,-14.6667 -135.333,-6 -42,2 -44.6667,-48.6667"/>
  </object>
  <object id="544" x="6444" y="6001.33">
   <properties>
    <property name="collision" type="bool" value="true"/>
   </properties>
   <polygon points="0,0 -4,-62.6667 -17.3333,-76 -45.3333,-80 -52,-89.3333 -66.6667,-90.6667 -106.667,-133.333 -72.6667,-127.333 -69.3333,-128 -61.3333,-112 -62,-103.333 -50,-91.3333 -18,-88.6667 -20,-153.333 -30.6667,-164 -52.6667,-166 -59.3333,-172.667 -65.3333,-222.667 -74,-224.667 -140,-292 -230,-300.667 -226.667,-242.667 -286.667,-300 -316,-318.667 -385.333,-318.667 -368.667,-116.667 -298.667,-48 -265.333,-30.6667 -201.333,-28 -202,-59.3333 -157.333,-16 -159.333,-11.3333 -154,-8.66667 -57.3333,-4 -61.3333,-40 -50,-19.3333 -49.3333,-12 -42.6667,-2.66667"/>
  </object>
  <object id="545" x="7246" y="5351.33">
   <properties>
    <property name="collision" type="bool" value="true"/>
   </properties>
   <polygon points="0,0 10.6667,10.6667 34.6667,13.3333 39.3333,6 34.6667,-2.66667 36.6667,-4.66667 41.3333,-22.6667 52,-12 53.3333,-5.33333 60.6667,0.666667 81.3333,1.33333 88,-2.66667 85.3333,-8 88.6667,-11.3333 86,-64.6667 51.3333,-78 43.3333,-86 43.3333,-88.6667 31.3333,-100.667 28,-100 25.3333,-102.667 -15.3333,-107.333 -15.3333,-88.6667 -24.6667,-95.3333 -66.6667,-98.6667 -66,-72.6667 -8,-16"/>
  </object>
  <object id="546" x="7550.67" y="4836">
   <properties>
    <property name="collision" type="bool" value="true"/>
   </properties>
   <polygon points="0,0 8.66667,7.33333 33.3333,9.33333 38.6667,4 36.6667,-4.66667 41.3333,-6.66667 57.3333,9.33333 237.333,21.3333 256.667,23.3333 255.333,-42 240,-72 195.333,-115.333 228.667,-114 226,-183.333 213.333,-208 138.667,-282.667 126,-280.667 -62.6667,-294.667 -58.6667,-229.333 -48,-208 -0.666667,-159.333 -38,-162 -30,-98 -65.3333,-100 -64,-72 -12.6667,-19.3333"/>
  </object>
  <object id="547" x="8544.67" y="5255.33">
   <properties>
    <property name="collision" type="bool" value="true"/>
   </properties>
   <polygon points="0,0 85.3333,2.66667 88.6667,28.6667 91.3333,31.3333 92.6667,62 121.333,113.333 131.333,119.333 166,119.333 173.333,114.667 173.333,82.6667 166,68.6667 165.333,53.3333 172.667,54 173.333,32 157.333,18.6667 161.333,1.33333 164,4 166.667,1.33333 160,-8 156,-38.6667 162,-34 162.667,-40 156,-46.6667 156.667,-52.6667 139.333,-70 128,-74.6667 125.333,-82.6667 106.667,-101.333 91.3333,-102 89.3333,-97.3333 86,-96.6667 65.3333,-105.333 6,-163.333 -82.6667,-168 -78,-84.6667 -110,-84.6667 -108.667,-56.6667 -41.3333,12 -42,18 -35.3333,22 -7.33333,23.3333 -8,10.6667 -0.666667,11.3333"/>
  </object>
  <object id="548" x="10042" y="4448.67">
   <properties>
    <property name="collision" type="bool" value="true"/>
   </properties>
   <polygon points="0,0 -4.66667,-51.3333 -37.3333,-61.3333 -69.3333,-93.3333 -70,-103.333 -68,-105.333 -34.6667,-72 -33.3333,-68 -9.33333,-62.6667 -8,-82.6667 -66.6667,-141.333 -67.3333,-146 -77.3333,-157.333 -78,-162 -93.3333,-176 -103.333,-179.333 -104.667,-188.667 -120.667,-204.667 -129.333,-206.667 -146,-224.667 -155.333,-220.667 -142,-207.333 -147.333,-207.333 -165.333,-210.667 -172,-206.667 -170.667,-200 -165.333,-192 -176,-205.333 -189.333,-216 -205.333,-218.667 -204,-212 -208.667,-210 -218,-219.333 -230.667,-222.667 -227.333,-215.333 -235.333,-212.667 -228,-204 -224.667,-178 -232.667,-180.667 -230.667,-172 -224,-165.333 -223.333,-152.667 -210.667,-136 -229.333,-138.667 -224.667,-92.6667 -220.667,-91.3333 -219.333,-58 -190,-7.33333 -145.333,1.33333 -136,-2.66667 -141.333,-40 -122.667,-5.33333 -112.667,3.33333 -77.3333,5.33333 -69.3333,-9.09495e-13 -70.6667,-28 -44.6667,-3.33333 -39.3333,7.33333 -35.3333,11.3333 -9.33333,12"/>
  </object>
  <object id="549" x="10365.3" y="5226.67">
   <properties>
    <property name="collision" type="bool" value="true"/>
   </properties>
   <polygon points="0,0 -17.3333,-201.333 -88.6667,-271.333 -118.667,-286.667 -187.333,-295.333 -184.667,-250 -218.667,-282.667 -248.667,-295.333 -314.667,-301.333 -300,-100 -223.333,-24.6667 -200,-13.3333 -133.333,-8 -134.667,-54.6667 -102,-20.6667 -68.6667,-3.33333"/>
  </object>
  <object id="550" x="11648.7" y="4978">
   <properties>
    <property name="collision" type="bool" value="true"/>
   </properties>
   <polygon points="0,0 -4.66667,-64.6667 -24.6667,-82 -36,-84 -56,-104 -52.6667,-112.667 -72.6667,-132.667 -14.6667,-126.667 -22,-223.333 -30,-231.333 -35.3333,-231.333 -99.3333,-292.667 -189.333,-301.333 -185.333,-254.667 -224.667,-292.667 -234.667,-296 -323.333,-383.333 -400,-384 -394.667,-328 -449.333,-380 -526.667,-385.333 -522.667,-309.333 -256.667,-42 -247.333,-46 -232.667,-31.3333 -229.333,-16 -212.667,2 -148,9.33333 -132,-4 -133.333,-45.3333 -128,-40 -118.667,-41.3333 -102.667,-25.3333 -100.667,-14 -80.6667,6 -18.6667,10.6667"/>
  </object>
  <object id="551" x="13184.7" y="5359.33">
   <properties>
    <property name="collision" type="bool" value="true"/>
   </properties>
   <polygon points="0,0 22.6667,1.33333 18,-23.3333 9.33333,-28 -70.6667,-108 -70.6667,-116 -17.3333,-116 -3.33333,-130 -6,-188.667 -25.3333,-209.333 -33.3333,-209.333 -56,-229.333 -57.3333,-244 -18,-243.333 -2,-254 -6.66667,-316 -25.3333,-334.667 -37.3333,-338.667 -57.3333,-358.667 -58,-371.333 -321.333,-636 -401.333,-641.333 -395.333,-559.333 -340.667,-504.667 -395.333,-511.333 -400.667,-506 -394.667,-432 -130.667,-170.667 -114.667,-165.333 -105.333,-156 -102,-146 -118.667,-161.333 -128,-160 -110,-143.333 -120,-138.667 -128,-146.667 -130,-144.667 -120.667,-135.333 -122,-134 -141.333,-152 -143.333,-144.667 -154.667,-157.333 -164,-156 -148,-137.333 -156.667,-134 -162.667,-138.667 -164,-137.333 -154.667,-128 -158,-127.333 -176.667,-146 -174.667,-129.333 -156.667,-112.667 -158,-111.333 -142,-95.3333 -133.333,-90.6667 -124.667,-86 -42,-3.33333 -42,2 -16.6667,6 -16.6667,-12.6667 -22.6667,-20 -103.333,-96.6667 -85.3333,-88"/>
  </object>
  <object id="552" x="13286.7" y="4956">
   <properties>
    <property name="collision" type="bool" value="true"/>
   </properties>
   <polygon points="0,0 96,8 96.6667,-14 124,12 124.667,16.6667 135.333,27.3333 158,28.6667 163.333,23.3333 160,16 164.667,14 163.333,-35.3333 130.667,-45.3333 102,-75.3333 97.3333,-76 94,-83.3333 84.6667,-84.6667 46,-123.333 72,-122.667 74,-140.667 83.3333,-123.333 84,-113.333 90.6667,-106.667 126,-102 126,-168.667 116,-180 90.6667,-181.333 78.6667,-193.333 114.667,-186.667 110.667,-252 101.333,-261.333 74.6667,-266.667 66.6667,-274.667 59.3333,-275.333 62.6667,-286.667 47.3333,-314 -26.6667,-389.333 -42.6667,-389.333 -229.333,-405.333 -224.667,-348.667 -257.333,-350.667 -218,-280.667 -220,-273.333 -214.667,-268 -214.667,-246.667 -236.667,-248.667 -198,-178 -195.333,-116.667 -240,-120 -237.333,-90.6667 -173.333,-26.6667 -169.333,-17.3333 -164,-14.6667 -136.667,-7.33333 -131.333,-12.6667 -135.333,-22 -130.667,-21.3333 -118,-7.33333 -26.6667,-5.33333 -28,-33.3333"/>
  </object>
  <object id="553" x="1644" y="6748">
   <properties>
    <property name="collision" type="bool" value="true"/>
   </properties>
   <polygon points="0,0 9.33333,4 32.6667,4.66667 31.3333,-10 41.3333,-9.33333 75.3333,10 138.667,13.3333 141.333,-5.33333 178.667,32 196,36 198,28.6667 210,35.3333 221.333,37.3333 223.333,27.3333 229.333,24 239.333,32.6667 253.333,37.3333 260,30.6667 272,34.6667 280.667,26 295.333,46 338,51.3333 346.667,45.3333 344.667,12.6667 336.667,-0.666667 336,-18.6667 344,-16 344,-37.3333 326.667,-54.6667 326.667,-60 309.333,-80 280,-82.6667 277.333,-109.333 256,-130.667 248,-130.667 228,-150.667 227.333,-160.667 -39.3333,-430 -114,-432.667 -119.333,-427.333 -110.667,-353.333 -36,-278.667 -40,-277.333 -27.3333,-98 -72,-104 -69.3333,-74.6667 -8.66667,-15.3333"/>
  </object>
  <object id="554" x="2691.33" y="6884.67">
   <properties>
    <property name="collision" type="bool" value="true"/>
   </properties>
   <polygon points="0,0 99.3333,10 97.3333,-12 109.333,-9.09495e-13 112.667,10 212,20 205.333,-72 194,-76.6667 126.667,-145.333 38.6667,-150.667 40.6667,-134 20.6667,-154 -69.3333,-160 -66,-75.3333 -0.666667,-12.6667"/>
  </object>
  <object id="555" x="3261.33" y="6346.67">
   <properties>
    <property name="collision" type="bool" value="true"/>
   </properties>
   <polygon points="0,0 90.6667,5.33333 89.3333,-14.6667 106,0.666667 108.667,-2 122,8.66667 118.667,12 126,20.6667 129.333,46.6667 122,46 120.667,52.6667 127.333,59.3333 135.333,80.6667 179.333,124.667 223.333,128.667 224,114.667 230.667,116 227.333,108.667 222,103.333 220,76 228,78.6667 226.667,69.3333 219.333,66 214.667,54.6667 228,41.3333 254,44.6667 258.667,40 256.667,31.3333 262,31.3333 260,-17.3333 228.667,-28.6667 198,-59.3333 190,-59.3333 180,-70.6667 200.667,-70 196,-166.667 184.667,-176.667 182.667,-174.667 116.667,-239.333 28,-246.667 28.6667,-223.333 -88.6667,-340.667 -160,-346.667 -169.333,-337.333 -164,-265.333 -65.3333,-169.333 -81.3333,-172 -72,-80 -8.66667,-18"/>
  </object>
  <object id="556" x="4108.67" y="6550">
   <properties>
    <property name="collision" type="bool" value="true"/>
   </properties>
   <polygon points="0,0 68,68 69.3333,74.6667 76,81.3333 104.667,82 105.333,68 109.333,69.3333 108.667,54 128,72 126.667,78.6667 224.667,87.3333 224.667,42 258.667,74.6667 260,84 356.667,91.3333 356,65.3333 362,67.3333 368,82.6667 379.333,92.6667 392.667,95.3333 395.333,84.6667 411.333,95.3333 419.333,92.6667 420,81.3333 427.333,82 420,70.6667 420,62.6667 436,89.3333 444.667,94 480.667,98 489.333,92 488,61.3333 482.667,53.3333 480.667,31.3333 488.667,36.6667 490,8.66667 483.333,7.33333 474,-2 474.667,-10.6667 452.667,-31.3333 408.667,-38 414.667,-38.6667 411.333,-46 406.667,-49.3333 404.667,-58 378,-79.3333 378,-82 352.667,-107.333 350.667,-129.333 340,-134.667 272.667,-203.333 184.667,-208.667 190,-160.667 146,-202 54.6667,-206.667 64,-120 110.667,-73.3333 96.6667,-78 96,-85.3333 60,-97.3333 32.6667,-126 -8.66667,-130 -9.33333,-102.667 57.3333,-33.3333 58.6667,-8 39.3333,-26 -7.33333,-32.6667"/>
  </object>
  <object id="557" x="5693.33" y="6978.67">
   <properties>
    <property name="collision" type="bool" value="true"/>
   </properties>
   <polygon points="0,0 91.3333,4.66667 85.3333,-90.6667 75.3333,-102 72.6667,-99.3333 6,-166 -80,-170.667 -76,-81.3333"/>
  </object>
  <object id="558" x="5729.33" y="6782.67">
   <properties>
    <property name="collision" type="bool" value="true"/>
   </properties>
   <polygon points="0,0 -8,-90.6667 -14.6667,-97.3333 -18.6667,-96 -69.3333,-146.667 -2,-142 1.33333,-68 72,0 72,5.33333 141.333,13.3333 146,59.3333 127.333,46 38,34 53.3333,130.667 110.667,190.667 115.333,202 209.333,209.333 209.333,164 220.667,176.667 246,191.333 322,200.667 318,186 313.333,140 372,198.667 404,217.333 470,218 470,207.333 481.333,212 486,218 484.667,227.333 498,240.667 517.333,245.333 518,234 530,243.333 539.333,242 539.333,228.667 542.667,233.333 546.667,229.333 540.667,219.333 537.333,190.667 545.333,196 541.333,184 534,178 534.667,172 527.333,166 524.667,150 536,154.667 536.667,146 528,136 526,111.333 533.333,114.667 534.667,110.667 529.333,105.333 523.333,92.6667 512,82.6667 499.333,74 496.667,66 476,46.6667 462,44.6667 464.667,52.6667 456,50.6667 455.333,19.3333 383.333,-52.6667 353.333,-70.6667 284,-73.3333 291.333,-16.6667 232.667,-72.6667 205.333,-88 139.333,-94 92.6667,-143.333 143.333,-140.667 137.333,-236 128,-240 61.3333,-306.667 -30.6667,-316 -24.6667,-266 -65.3333,-305.333 -155.333,-314 -150,-226 -91.3333,-167.333 -176.667,-172.667 -168.667,-82 -98,-14 -96.6667,-4.66667"/>
  </object>
  <object id="559" x="7062" y="6570">
   <properties>
    <property name="collision" type="bool" value="true"/>
   </properties>
   <polygon points="0,0 73.3333,4 71.3333,-39.3333 110,-0.666667 109.333,8 110.667,9.33333 205.333,16 199.333,-76.6667 193.333,-78.6667 175.333,-98 173.333,-170.667 158.667,-177.333 92.6667,-242 7.33333,-250 -14.6667,-270.667 -44,-289.333 -112,-290.667 -98,-110 -96.6667,-84.6667 -16,-8"/>
  </object>
  <object id="560" x="7449.33" y="6369.33">
   <properties>
    <property name="collision" type="bool" value="true"/>
   </properties>
   <polygon points="0,0 70,4.66667 69.3333,-8 62,-70 119.333,-10 117.333,-5.33333 128.667,2 218.667,5.33333 213.333,-82.6667 206,-91.3333 201.333,-92 183.333,-111.333 195.333,-112.667 196.667,-204.667 186.667,-208 118,-275.333 28,-281.333 32,-221.333 -18.6667,-272 -45.3333,-285.333 -117.333,-288 -102,-106 -100.667,-91.3333 -25.3333,-14.6667"/>
  </object>
  <object id="561" x="8812" y="6110.67">
   <properties>
    <property name="collision" type="bool" value="true"/>
   </properties>
   <polygon points="0,0 -2.66667,-34.6667 -9.33333,-41.3333 -13.3333,-64 0,-58.6667 -0.666667,-82 -20,-97.3333 -15.3333,-102 -16,-112 -11.3333,-111.333 -11.3333,-119.333 -19.3333,-127.333 -20.6667,-152.667 -12,-148 -10,-152.667 -19.3333,-162 -20,-166.667 -40,-186.667 -48,-192 -51.3333,-199.333 -76.6667,-222 -81.3333,-217.333 -82.6667,-213.333 -91.3333,-212.667 -99.3333,-220.667 -106.667,-221.333 -162.667,-277.333 -249.333,-281.333 -244.667,-192.667 -180,-129.333 -180.667,-128.667 -183.333,-126 -210.667,-154.667 -256.667,-159.333 -252.667,-131.333 -187.333,-66 -187.333,-60.6667 -180.667,-54 -153.333,-46.6667 -133.333,-16 -126,-10 -86.6667,-1.33333 -79.3333,-8.66667 -79.3333,-43.3333 -74,-40.6667 -56,-5.33333 -45.3333,5.33333"/>
  </object>
  <object id="562" x="9470" y="5708.67">
   <properties>
    <property name="collision" type="bool" value="true"/>
   </properties>
   <polygon points="0,0 -7.33333,-67.3333 -17.3333,-76 -8,-77.3333 -11.3333,-119.333 -45.3333,-130.667 -49.3333,-134.667 -46,-135.333 -45.3333,-152 -66,-174 -81.3333,-174.667 -110.667,-201.333 -124.667,-198 -120.667,-178 -138.667,-178.667 -135.333,-160.667 -120.667,-146 -98.6667,-138.667 -80,-120 -66.6667,-117.333 -60,-110.667 -56,-90.6667 -88.6667,-90 -49.3333,-22.6667 -48,-10.6667 -42,-3.33333"/>
  </object>
  <object id="563" x="9342" y="5711.33">
   <properties>
    <property name="collision" type="bool" value="true"/>
   </properties>
   <polygon points="0,0 -5.33333,-66.6667 -20,-81.3333 -19.3333,-87.3333 -9.33333,-86.6667 -9.33333,-126.667 -40,-138.667 -49.3333,-145.333 -42,-144.667 -46,-164.667 -64,-184 -79.3333,-184.667 -102,-204.667 -118.667,-204 -116.667,-190 -131.333,-186 -130.667,-168 -116,-153.333 -100.667,-152.667 -80,-133.333 -66.6667,-130.667 -60,-124 -51.3333,-90 -88,-93.3333 -51.3333,-28.6667 -53.3333,-16 -43.3333,-7.33333"/>
  </object>
  <object id="564" x="10284.7" y="6782">
   <properties>
    <property name="collision" type="bool" value="true"/>
   </properties>
   <polygon points="0,0 201.333,14.6667 205.333,5.33333 246,15.3333 252.667,3.33333 252,-30.6667 242.667,-40 242,-58 252,-52 255.333,-74 235.333,-91.3333 235.333,-99.3333 216.667,-118 160.667,-126 162,-103.333 123.333,-144.667 189.333,-141.333 186.667,-205.333 170.667,-234.667 104,-301.333 148,-292 148.667,-298 166,-283.333 178,-279.333 181.333,-266.667 194,-252.667 210.667,-250.667 214.667,-257.333 229.333,-250.667 237.333,-250.667 236.667,-242 263.333,-194 277.333,-184 315.333,-184.667 320,-192 317.333,-226.667 311.333,-234 308.667,-255.333 319.333,-250 320,-274.667 312,-277.333 300.667,-287.333 298.667,-296 278,-318 234.667,-320 225.333,-329.333 210,-338 203.333,-350 178.667,-370.667 170,-364.667 162.667,-362.667 154.667,-370.667 146.667,-368 145.333,-366.667 146,-362 132.667,-386 54,-462 37.3333,-464 -143.333,-475.333 -141.333,-408 -129.333,-385.333 -66,-320.667 -106,-326 -102,-255.333 -86.6667,-230.667 -21.3333,-165.333 -89.3333,-169.333 -86,-103.333 -66.6667,-69.3333"/>
  </object>
  <object id="565" x="11912.7" y="6444.67">
   <properties>
    <property name="collision" type="bool" value="true"/>
   </properties>
   <polygon points="0,0 95.3333,3.33333 91.3333,-56.6667 146,-2 151.333,8.66667 247.333,16.6667 246,4.66667 252,6.66667 258.667,21.3333 272,34.6667 287.333,35.3333 287.333,24.6667 298,32.6667 311.333,32.6667 311.333,19.3333 321.333,22.6667 320.667,15.3333 303.333,0.666667 306.667,-16 316,-12 328,10.6667 336,18.6667 377.333,25.3333 385.333,14.6667 383.333,-12.6667 375.333,-26 373.333,-45.3333 386.667,-37.3333 387.333,-62 380,-65.3333 366.667,-78.6667 365.333,-88 350.667,-102.667 310.667,-108 305.333,-113.333 302,-123.333 287.333,-138 277.333,-141.333 273.333,-150.667 247.333,-175.333 242,-170 243.333,-160.667 236,-164 231.333,-170 212.667,-175.333 215.333,-167.333 208,-168 208.667,-160.667 217.333,-156 218.667,-130.667 207.333,-135.333 210.667,-122.667 216.667,-120.667 220.667,-98 236,-86.6667 238.667,-81.3333 232.667,-83.3333 224,-88 165.333,-146.667 72.6667,-155.333 75.3333,-99.3333 10.6667,-162.667 -80,-168 -73.3333,-81.3333 -7.33333,-16.6667"/>
  </object>
  <object id="566" x="12088" y="6274.67">
   <properties>
    <property name="collision" type="bool" value="true"/>
   </properties>
   <polygon points="0,0 -8.66667,-66 -27.3333,-84.6667 -37.3333,-85.3333 -54,-100.667 -55.3333,-115.333 -322,-382 -394,-387.333 -401.333,-377.333 -400,-354.667 -439.333,-392.667 -509.333,-394.667 -518.667,-385.333 -514,-320.667 -248,-53.3333 -234,-54 -218.667,-37.3333 -221.333,-32 -222,-28.6667 -197.333,-5.33333 -137.333,-1.33333 -118.667,-12 -120.667,-42 -114.667,-40 -101.333,-26.6667 -102.667,-14.6667 -84,4 -19.3333,8.66667"/>
  </object>
  <object id="567" x="13125.3" y="7136">
   <properties>
    <property name="collision" type="bool" value="true"/>
   </properties>
   <polygon points="0,0 -266,-262 -344.667,-268.667 -348,-249.333 -341.333,-184 -76.6667,76.6667 -56,82.6667 -42.6667,96 -42.6667,106.667 -25.3333,124 40.6667,132.667 54,122 54,106 58.6667,114.667 72,128 110.667,129.333 120.667,124.667 117.333,93.3333 108.667,80.6667 108.667,62 118,68.6667 120,40 112,40 104,32 97.3333,12 167.333,16.6667 168.667,-32.6667 202,0.666667 202,8.66667 298,16.6667 297.333,-46.6667 328,-16 358,-3.33333 400,-2.66667 394.667,-218.667 338,-271.333 308.667,-290 238.667,-297.333 244,-249.333 217.333,-276 128,-282.667 131.333,-235.333 91.3333,-275.333 -4,-286.667 -2,-251.333 -8.66667,-266 -29.3333,-277.333 -34,-272.667 -31.3333,-267.333 -39.3333,-267.333 -50,-278 -64,-277.333 -62.6667,-273.333 -70.6667,-273.333 -66,-264.667 -58,-259.333 -58,-238 -70,-236.667 -65.3333,-225.333 -54.6667,-220 -53.3333,-202.667 -40.6667,-188.667 -26,-184.667 -24.6667,-175.333 -10.6667,-160 -1.33333,-156 0,-136 -8.66667,-140.667 -18,-136.667 -22.6667,-134.667 -30,-140.667 -44,-142.667 -44,-140 -48.6667,-138 -46,-130 -41.3333,-126.667 -40.6667,-100.667 -48,-101.333 -45.3333,-93.3333 -38,-90 -36,-73.3333 -18,-51.3333 -6.66667,-52 -4.66667,-40.6667 8.66667,-27.3333 22.6667,-22.6667 30,-24.6667 29.3333,-32 36,-30.6667 40.6667,-24.6667 49.3333,-22.6667 68.6667,-4.66667 26.6667,-5.33333 30.6667,38.6667 22,36.6667 0.666667,18"/>
  </object>
 </objectgroup>
 <objectgroup id="4" name="Object" locked="1">
  <properties>
   <property name="collectible" type="bool" value="true"/>
   <property name="interaction_radius" type="int" value="80"/>
  </properties>
  <object id="568" name="larva1" x="3166.42" y="2295.64">
   <properties>
    <property name="id" value="level_2_potion"/>
    <property name="interaction_radius" type="float" value="80"/>
   </properties>
   <point/>
  </object>
  <object id="576" name="lampadina1" x="4352" y="5632">
   <properties>
    <property name="id" value="level_2_bomb"/>
    <property name="interaction_radius" type="float" value="80"/>
   </properties>
   <point/>
  </object>
  <object id="577" name="siero1" x="7936" y="5760">
   <properties>
    <property name="id" value="level_2_buff"/>
    <property name="interaction_radius" type="float" value="80"/>
   </properties>
   <point/>
  </object>
  <object id="578" name="lampadina2" x="10298.8" y="2737.58">
   <properties>
    <property name="id" value="level_2_bomb"/>
    <property name="interaction_radius" type="float" value="80"/>
   </properties>
   <point/>
  </object>
  <object id="579" name="larva2" x="11629.1" y="6261.82">
   <properties>
    <property name="id" value="level_2_potion"/>
    <property name="interaction_radius" type="float" value="80"/>
   </properties>
   <point/>
  </object>
  <object id="580" name="siero2" x="10071.5" y="4292.12">
   <properties>
    <property name="id" value="level_2_buff"/>
    <property name="interaction_radius" type="float" value="80"/>
   </properties>
   <point/>
  </object>
 </objectgroup>
 <objectgroup id="5" name="Enemy" locked="1">
  <object id="569" name="Enemy1" x="3050.3" y="4107.27">
   <properties>
    <property name="enemies_number" type="int" value="3"/>
    <property name="enemy_type" value="alieno_sciame"/>
   </properties>
   <point/>
  </object>
  <object id="581" name="enemy2" x="5760" y="2560">
   <properties>
    <property name="enemies_number" type="int" value="2"/>
    <property name="enemy_type" value="alieno_guardiano"/>
   </properties>
   <point/>
  </object>
  <object id="582" name="enemy3" x="6142.73" y="6596.67">
   <properties>
    <property name="enemies_number" type="int" value="3"/>
    <property name="enemy_type" value="alieno_base"/>
   </properties>
   <point/>
  </object>
  <object id="583" name="BOSS" x="12800" y="3840">
   <properties>
    <property name="enemy_type" value="boss_livello_2"/>
   </properties>
   <point/>
  </object>
 </objectgroup>
 <objectgroup id="8" name="NPC" locked="1">
  <object id="574" name="NPC" x="3932.42" y="2126.48">
   <properties>
    <property name="enemies_number" type="int" value="4"/>
    <property name="id" value="SmallPotion"/>
   </properties>
   <point/>
  </object>
  <object id="584" name="NPC" x="8487.33" y="3531.33">
   <point/>
  </object>
 </objectgroup>
 <objectgroup id="6" name="checkpoint" locked="1">
  <object id="585" name="checkpoint" x="6397.27" y="1317.88">
   <polyline points="0,0 175.758,6290.91"/>
  </object>
 </objectgroup>
 <objectgroup id="7" name="Spawn" locked="1">
  <object id="572" name="SpawnPlayer" x="1792" y="3840">
   <point/>
  </object>
  <object id="573" name="Spawn" x="1792" y="3968">
   <point/>
  </object>
 </objectgroup>
</map>
