<?xml version="1.0" encoding="UTF-8"?>
<map version="1.10" tiledversion="1.12.1" orientation="isometric" renderorder="right-down" width="60" height="30" tilewidth="256" tileheight="128" infinite="0" nextlayerid="10" nextobjectid="15">
 <tileset firstgid="1" name="terreno" tilewidth="256" tileheight="512" tilecount="4" columns="0">
  <grid orientation="orthogonal" width="1" height="1"/>
  <tile id="0">
   <image source="Isometric/dirt_E.png" width="256" height="512"/>
  </tile>
  <tile id="1">
   <image source="Isometric/dirt_N.png" width="256" height="512"/>
  </tile>
  <tile id="2">
   <image source="Isometric/dirt_S.png" width="256" height="512"/>
  </tile>
  <tile id="3">
   <image source="Isometric/dirt_W.png" width="256" height="512"/>
  </tile>
 </tileset>
 <tileset firstgid="5" name="casa" tilewidth="256" tileheight="512" tilecount="194" columns="0">
  <grid orientation="orthogonal" width="1" height="1"/>
  <tile id="0">
   <image source="Isometric/ladderStandBroken_S.png" width="256" height="512"/>
  </tile>
  <tile id="1">
   <image source="Isometric/planksHigh_E.png" width="256" height="512"/>
  </tile>
  <tile id="2">
   <image source="Isometric/planksHole_N.png" width="256" height="512"/>
  </tile>
  <tile id="3">
   <image source="Isometric/sacksCrate_E.png" width="256" height="512"/>
  </tile>
  <tile id="4">
   <image source="Isometric/roofSingleWall_S.png" width="256" height="512"/>
  </tile>
  <tile id="5">
   <image source="Isometric/roof_E.png" width="256" height="512"/>
  </tile>
  <tile id="6">
   <image source="Isometric/woodWallDiagional_S.png" width="256" height="512"/>
  </tile>
  <tile id="7">
   <image source="Isometric/woodWallDoorClosed_S.png" width="256" height="512"/>
  </tile>
  <tile id="8">
   <image source="Isometric/woodWallWindowGlass_N.png" width="256" height="512"/>
  </tile>
  <tile id="9">
   <image source="Isometric/woodWallCorner_E.png" width="256" height="512"/>
  </tile>
  <tile id="10">
   <image source="Isometric/woodWallCorner_N.png" width="256" height="512"/>
  </tile>
  <tile id="11">
   <image source="Isometric/woodWallCorner_S.png" width="256" height="512"/>
  </tile>
  <tile id="12">
   <image source="Isometric/woodWallCorner_W.png" width="256" height="512"/>
  </tile>
  <tile id="13">
   <image source="Isometric/woodWallDiagional_W.png" width="256" height="512"/>
  </tile>
  <tile id="14">
   <image source="Isometric/hay_E.png" width="256" height="512"/>
  </tile>
  <tile id="15">
   <image source="Isometric/hay_N.png" width="256" height="512"/>
  </tile>
  <tile id="16">
   <image source="Isometric/hay_S.png" width="256" height="512"/>
  </tile>
  <tile id="17">
   <image source="Isometric/hay_W.png" width="256" height="512"/>
  </tile>
  <tile id="18">
   <image source="Isometric/hayBales_E.png" width="256" height="512"/>
  </tile>
  <tile id="19">
   <image source="Isometric/hayBales_N.png" width="256" height="512"/>
  </tile>
  <tile id="20">
   <image source="Isometric/hayBales_S.png" width="256" height="512"/>
  </tile>
  <tile id="21">
   <image source="Isometric/hayBales_W.png" width="256" height="512"/>
  </tile>
  <tile id="22">
   <image source="Isometric/hayBalesStacked_E.png" width="256" height="512"/>
  </tile>
  <tile id="23">
   <image source="Isometric/hayBalesStacked_N.png" width="256" height="512"/>
  </tile>
  <tile id="24">
   <image source="Isometric/hayBalesStacked_S.png" width="256" height="512"/>
  </tile>
  <tile id="25">
   <image source="Isometric/hayBalesStacked_W.png" width="256" height="512"/>
  </tile>
  <tile id="26">
   <image source="Isometric/ladderStand_E.png" width="256" height="512"/>
  </tile>
  <tile id="27">
   <image source="Isometric/ladderStand_N.png" width="256" height="512"/>
  </tile>
  <tile id="28">
   <image source="Isometric/ladderStand_S.png" width="256" height="512"/>
  </tile>
  <tile id="29">
   <image source="Isometric/ladderStand_W.png" width="256" height="512"/>
  </tile>
  <tile id="30">
   <image source="Isometric/ladderStandBroken_E.png" width="256" height="512"/>
  </tile>
  <tile id="31">
   <image source="Isometric/ladderStandBroken_N.png" width="256" height="512"/>
  </tile>
  <tile id="32">
   <image source="Isometric/ladderStandBroken_S.png" width="256" height="512"/>
  </tile>
  <tile id="33">
   <image source="Isometric/ladderStandBroken_W.png" width="256" height="512"/>
  </tile>
  <tile id="34">
   <image source="Isometric/ladderStraight_E.png" width="256" height="512"/>
  </tile>
  <tile id="35">
   <image source="Isometric/ladderStraight_N.png" width="256" height="512"/>
  </tile>
  <tile id="36">
   <image source="Isometric/ladderStraight_S.png" width="256" height="512"/>
  </tile>
  <tile id="37">
   <image source="Isometric/ladderStraight_W.png" width="256" height="512"/>
  </tile>
  <tile id="38">
   <image source="Isometric/planks_E.png" width="256" height="512"/>
  </tile>
  <tile id="39">
   <image source="Isometric/planks_N.png" width="256" height="512"/>
  </tile>
  <tile id="40">
   <image source="Isometric/planks_S.png" width="256" height="512"/>
  </tile>
  <tile id="41">
   <image source="Isometric/planks_W.png" width="256" height="512"/>
  </tile>
  <tile id="42">
   <image source="Isometric/planksCornerLeft_E.png" width="256" height="512"/>
  </tile>
  <tile id="43">
   <image source="Isometric/planksCornerLeft_N.png" width="256" height="512"/>
  </tile>
  <tile id="44">
   <image source="Isometric/planksCornerLeft_S.png" width="256" height="512"/>
  </tile>
  <tile id="45">
   <image source="Isometric/planksCornerLeft_W.png" width="256" height="512"/>
  </tile>
  <tile id="46">
   <image source="Isometric/planksCornerRight_E.png" width="256" height="512"/>
  </tile>
  <tile id="47">
   <image source="Isometric/planksCornerRight_N.png" width="256" height="512"/>
  </tile>
  <tile id="48">
   <image source="Isometric/planksCornerRight_S.png" width="256" height="512"/>
  </tile>
  <tile id="49">
   <image source="Isometric/planksCornerRight_W.png" width="256" height="512"/>
  </tile>
  <tile id="50">
   <image source="Isometric/planksHigh_E.png" width="256" height="512"/>
  </tile>
  <tile id="51">
   <image source="Isometric/planksHigh_N.png" width="256" height="512"/>
  </tile>
  <tile id="52">
   <image source="Isometric/planksHigh_S.png" width="256" height="512"/>
  </tile>
  <tile id="53">
   <image source="Isometric/planksHigh_W.png" width="256" height="512"/>
  </tile>
  <tile id="54">
   <image source="Isometric/planksHighOld_E.png" width="256" height="512"/>
  </tile>
  <tile id="55">
   <image source="Isometric/planksHighOld_N.png" width="256" height="512"/>
  </tile>
  <tile id="56">
   <image source="Isometric/planksHighOld_S.png" width="256" height="512"/>
  </tile>
  <tile id="57">
   <image source="Isometric/planksHighOld_W.png" width="256" height="512"/>
  </tile>
  <tile id="58">
   <image source="Isometric/planksHighSlope_E.png" width="256" height="512"/>
  </tile>
  <tile id="59">
   <image source="Isometric/planksHighSlope_N.png" width="256" height="512"/>
  </tile>
  <tile id="60">
   <image source="Isometric/planksHighSlope_S.png" width="256" height="512"/>
  </tile>
  <tile id="61">
   <image source="Isometric/planksHighSlope_W.png" width="256" height="512"/>
  </tile>
  <tile id="62">
   <image source="Isometric/planksHole_E.png" width="256" height="512"/>
  </tile>
  <tile id="63">
   <image source="Isometric/planksHole_N.png" width="256" height="512"/>
  </tile>
  <tile id="64">
   <image source="Isometric/planksHole_S.png" width="256" height="512"/>
  </tile>
  <tile id="65">
   <image source="Isometric/planksHole_W.png" width="256" height="512"/>
  </tile>
  <tile id="66">
   <image source="Isometric/planksOld_E.png" width="256" height="512"/>
  </tile>
  <tile id="67">
   <image source="Isometric/planksOld_N.png" width="256" height="512"/>
  </tile>
  <tile id="68">
   <image source="Isometric/planksOld_S.png" width="256" height="512"/>
  </tile>
  <tile id="69">
   <image source="Isometric/planksOld_W.png" width="256" height="512"/>
  </tile>
  <tile id="70">
   <image source="Isometric/planksSide_E.png" width="256" height="512"/>
  </tile>
  <tile id="71">
   <image source="Isometric/planksSide_N.png" width="256" height="512"/>
  </tile>
  <tile id="72">
   <image source="Isometric/planksSide_S.png" width="256" height="512"/>
  </tile>
  <tile id="73">
   <image source="Isometric/planksSide_W.png" width="256" height="512"/>
  </tile>
  <tile id="74">
   <image source="Isometric/planksSideVertical_E.png" width="256" height="512"/>
  </tile>
  <tile id="75">
   <image source="Isometric/planksSideVertical_N.png" width="256" height="512"/>
  </tile>
  <tile id="76">
   <image source="Isometric/planksSideVertical_S.png" width="256" height="512"/>
  </tile>
  <tile id="77">
   <image source="Isometric/planksSideVertical_W.png" width="256" height="512"/>
  </tile>
  <tile id="78">
   <image source="Isometric/roof_E.png" width="256" height="512"/>
  </tile>
  <tile id="79">
   <image source="Isometric/roof_N.png" width="256" height="512"/>
  </tile>
  <tile id="80">
   <image source="Isometric/roof_S.png" width="256" height="512"/>
  </tile>
  <tile id="81">
   <image source="Isometric/roof_W.png" width="256" height="512"/>
  </tile>
  <tile id="82">
   <image source="Isometric/roofCorner_E.png" width="256" height="512"/>
  </tile>
  <tile id="83">
   <image source="Isometric/roofCorner_N.png" width="256" height="512"/>
  </tile>
  <tile id="84">
   <image source="Isometric/roofCorner_S.png" width="256" height="512"/>
  </tile>
  <tile id="85">
   <image source="Isometric/roofCorner_W.png" width="256" height="512"/>
  </tile>
  <tile id="86">
   <image source="Isometric/roofInnerCorner_E.png" width="256" height="512"/>
  </tile>
  <tile id="87">
   <image source="Isometric/roofInnerCorner_N.png" width="256" height="512"/>
  </tile>
  <tile id="88">
   <image source="Isometric/roofInnerCorner_S.png" width="256" height="512"/>
  </tile>
  <tile id="89">
   <image source="Isometric/roofInnerCorner_W.png" width="256" height="512"/>
  </tile>
  <tile id="90">
   <image source="Isometric/roofSingle_E.png" width="256" height="512"/>
  </tile>
  <tile id="91">
   <image source="Isometric/roofSingle_N.png" width="256" height="512"/>
  </tile>
  <tile id="92">
   <image source="Isometric/roofSingle_S.png" width="256" height="512"/>
  </tile>
  <tile id="93">
   <image source="Isometric/roofSingle_W.png" width="256" height="512"/>
  </tile>
  <tile id="94">
   <image source="Isometric/roofSingleWall_E.png" width="256" height="512"/>
  </tile>
  <tile id="95">
   <image source="Isometric/roofSingleWall_N.png" width="256" height="512"/>
  </tile>
  <tile id="96">
   <image source="Isometric/roofSingleWall_S.png" width="256" height="512"/>
  </tile>
  <tile id="97">
   <image source="Isometric/roofSingleWall_W.png" width="256" height="512"/>
  </tile>
  <tile id="98">
   <image source="Isometric/sack_E.png" width="256" height="512"/>
  </tile>
  <tile id="99">
   <image source="Isometric/sack_N.png" width="256" height="512"/>
  </tile>
  <tile id="100">
   <image source="Isometric/sack_S.png" width="256" height="512"/>
  </tile>
  <tile id="101">
   <image source="Isometric/sack_W.png" width="256" height="512"/>
  </tile>
  <tile id="102">
   <image source="Isometric/sacksCrate_E.png" width="256" height="512"/>
  </tile>
  <tile id="103">
   <image source="Isometric/sacksCrate_N.png" width="256" height="512"/>
  </tile>
  <tile id="104">
   <image source="Isometric/sacksCrate_S.png" width="256" height="512"/>
  </tile>
  <tile id="105">
   <image source="Isometric/sacksCrate_W.png" width="256" height="512"/>
  </tile>
  <tile id="106">
   <image source="Isometric/woodWall_E.png" width="256" height="512"/>
  </tile>
  <tile id="107">
   <image source="Isometric/woodWall_N.png" width="256" height="512"/>
  </tile>
  <tile id="108">
   <image source="Isometric/woodWall_S.png" width="256" height="512"/>
  </tile>
  <tile id="109">
   <image source="Isometric/woodWall_W.png" width="256" height="512"/>
  </tile>
  <tile id="110">
   <image source="Isometric/woodWallCorner_E.png" width="256" height="512"/>
  </tile>
  <tile id="111">
   <image source="Isometric/woodWallCorner_N.png" width="256" height="512"/>
  </tile>
  <tile id="112">
   <image source="Isometric/woodWallCorner_S.png" width="256" height="512"/>
  </tile>
  <tile id="113">
   <image source="Isometric/woodWallCorner_W.png" width="256" height="512"/>
  </tile>
  <tile id="114">
   <image source="Isometric/woodWallCross_E.png" width="256" height="512"/>
  </tile>
  <tile id="115">
   <image source="Isometric/woodWallCross_N.png" width="256" height="512"/>
  </tile>
  <tile id="116">
   <image source="Isometric/woodWallCross_S.png" width="256" height="512"/>
  </tile>
  <tile id="117">
   <image source="Isometric/woodWallCross_W.png" width="256" height="512"/>
  </tile>
  <tile id="118">
   <image source="Isometric/woodWallDiagional_E.png" width="256" height="512"/>
  </tile>
  <tile id="119">
   <image source="Isometric/woodWallDiagional_N.png" width="256" height="512"/>
  </tile>
  <tile id="120">
   <image source="Isometric/woodWallDiagional_S.png" width="256" height="512"/>
  </tile>
  <tile id="121">
   <image source="Isometric/woodWallDiagional_W.png" width="256" height="512"/>
  </tile>
  <tile id="122">
   <image source="Isometric/woodWallDoorClosed_E.png" width="256" height="512"/>
  </tile>
  <tile id="123">
   <image source="Isometric/woodWallDoorClosed_N.png" width="256" height="512"/>
  </tile>
  <tile id="124">
   <image source="Isometric/woodWallDoorClosed_S.png" width="256" height="512"/>
  </tile>
  <tile id="125">
   <image source="Isometric/woodWallDoorClosed_W.png" width="256" height="512"/>
  </tile>
  <tile id="126">
   <image source="Isometric/woodWallDoorOpen_E.png" width="256" height="512"/>
  </tile>
  <tile id="127">
   <image source="Isometric/woodWallDoorOpen_N.png" width="256" height="512"/>
  </tile>
  <tile id="128">
   <image source="Isometric/woodWallDoorOpen_S.png" width="256" height="512"/>
  </tile>
  <tile id="129">
   <image source="Isometric/woodWallDoorOpen_W.png" width="256" height="512"/>
  </tile>
  <tile id="130">
   <image source="Isometric/woodWallDoorway_E.png" width="256" height="512"/>
  </tile>
  <tile id="131">
   <image source="Isometric/woodWallDoorway_N.png" width="256" height="512"/>
  </tile>
  <tile id="132">
   <image source="Isometric/woodWallDoorway_S.png" width="256" height="512"/>
  </tile>
  <tile id="133">
   <image source="Isometric/woodWallDoorway_W.png" width="256" height="512"/>
  </tile>
  <tile id="134">
   <image source="Isometric/woodWallEmpty_E.png" width="256" height="512"/>
  </tile>
  <tile id="135">
   <image source="Isometric/woodWallEmpty_N.png" width="256" height="512"/>
  </tile>
  <tile id="136">
   <image source="Isometric/woodWallEmpty_S.png" width="256" height="512"/>
  </tile>
  <tile id="137">
   <image source="Isometric/woodWallEmpty_W.png" width="256" height="512"/>
  </tile>
  <tile id="138">
   <image source="Isometric/woodWallEmptyCross_E.png" width="256" height="512"/>
  </tile>
  <tile id="139">
   <image source="Isometric/woodWallEmptyCross_N.png" width="256" height="512"/>
  </tile>
  <tile id="140">
   <image source="Isometric/woodWallEmptyCross_S.png" width="256" height="512"/>
  </tile>
  <tile id="141">
   <image source="Isometric/woodWallEmptyCross_W.png" width="256" height="512"/>
  </tile>
  <tile id="142">
   <image source="Isometric/woodWallEmptyDiagonal_E.png" width="256" height="512"/>
  </tile>
  <tile id="143">
   <image source="Isometric/woodWallEmptyDiagonal_N.png" width="256" height="512"/>
  </tile>
  <tile id="144">
   <image source="Isometric/woodWallEmptyDiagonal_S.png" width="256" height="512"/>
  </tile>
  <tile id="145">
   <image source="Isometric/woodWallEmptyDiagonal_W.png" width="256" height="512"/>
  </tile>
  <tile id="146">
   <image source="Isometric/woodWallEmptyOpen_E.png" width="256" height="512"/>
  </tile>
  <tile id="147">
   <image source="Isometric/woodWallEmptyOpen_N.png" width="256" height="512"/>
  </tile>
  <tile id="148">
   <image source="Isometric/woodWallEmptyOpen_S.png" width="256" height="512"/>
  </tile>
  <tile id="149">
   <image source="Isometric/woodWallEmptyOpen_W.png" width="256" height="512"/>
  </tile>
  <tile id="150">
   <image source="Isometric/woodWallGateClosed_E.png" width="256" height="512"/>
  </tile>
  <tile id="151">
   <image source="Isometric/woodWallGateClosed_N.png" width="256" height="512"/>
  </tile>
  <tile id="152">
   <image source="Isometric/woodWallGateClosed_S.png" width="256" height="512"/>
  </tile>
  <tile id="153">
   <image source="Isometric/woodWallGateClosed_W.png" width="256" height="512"/>
  </tile>
  <tile id="154">
   <image source="Isometric/woodWallGateOpen_E.png" width="256" height="512"/>
  </tile>
  <tile id="155">
   <image source="Isometric/woodWallGateOpen_N.png" width="256" height="512"/>
  </tile>
  <tile id="156">
   <image source="Isometric/woodWallGateOpen_S.png" width="256" height="512"/>
  </tile>
  <tile id="157">
   <image source="Isometric/woodWallGateOpen_W.png" width="256" height="512"/>
  </tile>
  <tile id="158">
   <image source="Isometric/woodWallGateway_E.png" width="256" height="512"/>
  </tile>
  <tile id="159">
   <image source="Isometric/woodWallGateway_N.png" width="256" height="512"/>
  </tile>
  <tile id="160">
   <image source="Isometric/woodWallGateway_S.png" width="256" height="512"/>
  </tile>
  <tile id="161">
   <image source="Isometric/woodWallGateway_W.png" width="256" height="512"/>
  </tile>
  <tile id="162">
   <image source="Isometric/woodWallHole_E.png" width="256" height="512"/>
  </tile>
  <tile id="163">
   <image source="Isometric/woodWallHole_N.png" width="256" height="512"/>
  </tile>
  <tile id="164">
   <image source="Isometric/woodWallHole_S.png" width="256" height="512"/>
  </tile>
  <tile id="165">
   <image source="Isometric/woodWallHole_W.png" width="256" height="512"/>
  </tile>
  <tile id="166">
   <image source="Isometric/woodWallHoleCross_E.png" width="256" height="512"/>
  </tile>
  <tile id="167">
   <image source="Isometric/woodWallHoleCross_N.png" width="256" height="512"/>
  </tile>
  <tile id="168">
   <image source="Isometric/woodWallHoleCross_S.png" width="256" height="512"/>
  </tile>
  <tile id="169">
   <image source="Isometric/woodWallHoleCross_W.png" width="256" height="512"/>
  </tile>
  <tile id="170">
   <image source="Isometric/woodWallHoleDiagonal_E.png" width="256" height="512"/>
  </tile>
  <tile id="171">
   <image source="Isometric/woodWallHoleDiagonal_N.png" width="256" height="512"/>
  </tile>
  <tile id="172">
   <image source="Isometric/woodWallHoleDiagonal_S.png" width="256" height="512"/>
  </tile>
  <tile id="173">
   <image source="Isometric/woodWallHoleDiagonal_W.png" width="256" height="512"/>
  </tile>
  <tile id="174">
   <image source="Isometric/woodWallRoofLeft_E.png" width="256" height="512"/>
  </tile>
  <tile id="175">
   <image source="Isometric/woodWallRoofLeft_N.png" width="256" height="512"/>
  </tile>
  <tile id="176">
   <image source="Isometric/woodWallRoofLeft_S.png" width="256" height="512"/>
  </tile>
  <tile id="177">
   <image source="Isometric/woodWallRoofLeft_W.png" width="256" height="512"/>
  </tile>
  <tile id="178">
   <image source="Isometric/woodWallRoofRight_E.png" width="256" height="512"/>
  </tile>
  <tile id="179">
   <image source="Isometric/woodWallRoofRight_N.png" width="256" height="512"/>
  </tile>
  <tile id="180">
   <image source="Isometric/woodWallRoofRight_S.png" width="256" height="512"/>
  </tile>
  <tile id="181">
   <image source="Isometric/woodWallRoofRight_W.png" width="256" height="512"/>
  </tile>
  <tile id="182">
   <image source="Isometric/woodWallSupport_E.png" width="256" height="512"/>
  </tile>
  <tile id="183">
   <image source="Isometric/woodWallSupport_N.png" width="256" height="512"/>
  </tile>
  <tile id="184">
   <image source="Isometric/woodWallSupport_S.png" width="256" height="512"/>
  </tile>
  <tile id="185">
   <image source="Isometric/woodWallSupport_W.png" width="256" height="512"/>
  </tile>
  <tile id="186">
   <image source="Isometric/woodWallWindow_E.png" width="256" height="512"/>
  </tile>
  <tile id="187">
   <image source="Isometric/woodWallWindow_N.png" width="256" height="512"/>
  </tile>
  <tile id="188">
   <image source="Isometric/woodWallWindow_S.png" width="256" height="512"/>
  </tile>
  <tile id="189">
   <image source="Isometric/woodWallWindow_W.png" width="256" height="512"/>
  </tile>
  <tile id="190">
   <image source="Isometric/woodWallWindowGlass_E.png" width="256" height="512"/>
  </tile>
  <tile id="191">
   <image source="Isometric/woodWallWindowGlass_N.png" width="256" height="512"/>
  </tile>
  <tile id="192">
   <image source="Isometric/woodWallWindowGlass_S.png" width="256" height="512"/>
  </tile>
  <tile id="193">
   <image source="Isometric/woodWallWindowGlass_W.png" width="256" height="512"/>
  </tile>
 </tileset>
 <tileset firstgid="199" name="verdure" tilewidth="256" tileheight="512" tilecount="24" columns="0">
  <grid orientation="orthogonal" width="1" height="1"/>
  <tile id="0">
   <image source="Isometric/chimneyBase_E.png" width="256" height="512"/>
  </tile>
  <tile id="1">
   <image source="Isometric/chimneyBase_N.png" width="256" height="512"/>
  </tile>
  <tile id="2">
   <image source="Isometric/chimneyBase_S.png" width="256" height="512"/>
  </tile>
  <tile id="3">
   <image source="Isometric/chimneyBase_W.png" width="256" height="512"/>
  </tile>
  <tile id="4">
   <image source="Isometric/chimneyTop_E.png" width="256" height="512"/>
  </tile>
  <tile id="5">
   <image source="Isometric/chimneyTop_N.png" width="256" height="512"/>
  </tile>
  <tile id="6">
   <image source="Isometric/chimneyTop_S.png" width="256" height="512"/>
  </tile>
  <tile id="7">
   <image source="Isometric/chimneyTop_W.png" width="256" height="512"/>
  </tile>
  <tile id="8">
   <image source="Isometric/corn_E.png" width="256" height="512"/>
   <objectgroup draworder="index" id="2">
    <object id="1" x="121.053" y="305.263">
     <properties>
      <property name="collision" type="bool" value="true"/>
     </properties>
     <polygon points="0,0 -96.8421,72.6316 -68.4211,131.579 -4.21053,175.789 80,142.105 96.8421,118.947 81.0526,98.9474 91.5789,84.2105 101.053,69.4737 85.2632,33.6842 70.5263,22.1053 58.9474,34.7368 57.8947,50.5263 37.8947,31.5789"/>
    </object>
   </objectgroup>
  </tile>
  <tile id="9">
   <image source="Isometric/corn_N.png" width="256" height="512"/>
  </tile>
  <tile id="10">
   <image source="Isometric/corn_S.png" width="256" height="512"/>
  </tile>
  <tile id="11">
   <image source="Isometric/corn_W.png" width="256" height="512"/>
  </tile>
  <tile id="12">
   <image source="Isometric/cornDouble_E.png" width="256" height="512"/>
  </tile>
  <tile id="13">
   <image source="Isometric/cornDouble_N.png" width="256" height="512"/>
  </tile>
  <tile id="14">
   <image source="Isometric/cornDouble_S.png" width="256" height="512"/>
  </tile>
  <tile id="15">
   <image source="Isometric/cornDouble_W.png" width="256" height="512"/>
  </tile>
  <tile id="16">
   <image source="Isometric/cornYoung_E.png" width="256" height="512"/>
  </tile>
  <tile id="17">
   <image source="Isometric/cornYoung_N.png" width="256" height="512"/>
  </tile>
  <tile id="18">
   <image source="Isometric/cornYoung_S.png" width="256" height="512"/>
  </tile>
  <tile id="19">
   <image source="Isometric/cornYoung_W.png" width="256" height="512"/>
  </tile>
  <tile id="20">
   <image source="Isometric/cornYoungDouble_E.png" width="256" height="512"/>
  </tile>
  <tile id="21">
   <image source="Isometric/cornYoungDouble_N.png" width="256" height="512"/>
  </tile>
  <tile id="22">
   <image source="Isometric/cornYoungDouble_S.png" width="256" height="512"/>
  </tile>
  <tile id="23">
   <image source="Isometric/cornYoungDouble_W.png" width="256" height="512"/>
  </tile>
 </tileset>
 <tileset firstgid="223" name="strada" tilewidth="0" tileheight="0" tilecount="0" columns="0">
  <grid orientation="orthogonal" width="1" height="1"/>
 </tileset>
 <layer id="1" name="terreno" width="60" height="30">
  <data encoding="csv">
1,1,1,1,1,1,1,1,1,1,1,1,1,1,1,1,1,1,1,1,1,1,1,1,1,1,1,1,1,1,1,1,1,1,1,1,1,1,1,1,1,1,1,1,1,1,1,1,1,1,1,1,1,1,1,1,1,1,1,1,
1,1,1,1,1,1,1,1,1,1,1,1,1,1,1,1,1,1,1,1,1,1,1,1,1,1,1,1,1,1,1,1,1,1,1,1,1,1,1,1,1,1,1,1,1,1,1,1,1,1,1,1,1,1,1,1,1,1,1,1,
1,1,1,1,1,1,1,1,1,1,1,1,1,1,1,1,1,1,1,1,1,1,1,1,1,1,1,1,1,1,1,1,1,1,1,1,1,1,1,1,1,1,1,1,1,1,1,1,1,1,1,1,1,1,1,1,1,1,1,1,
1,1,1,1,1,1,1,1,1,1,1,1,1,1,1,1,1,1,1,1,1,1,1,1,1,1,1,1,1,1,1,1,1,1,1,1,1,1,1,1,1,1,1,1,1,1,1,1,1,1,1,1,1,1,1,1,1,1,1,1,
1,1,1,1,1,1,1,1,1,1,1,1,1,1,1,1,1,1,1,1,1,1,1,1,1,1,1,1,1,1,1,1,1,1,1,1,1,1,1,1,1,1,1,1,1,1,1,1,1,1,1,1,1,1,1,1,1,1,1,1,
1,1,1,1,1,1,1,1,1,1,1,1,1,1,1,1,1,1,1,1,1,1,1,1,1,1,1,1,1,1,1,1,1,1,1,1,1,1,1,1,1,1,1,1,1,1,1,1,1,1,1,1,1,1,1,1,1,1,1,1,
1,1,1,1,1,1,1,1,1,1,1,1,1,1,1,1,1,1,1,1,1,1,1,1,1,1,1,1,1,1,1,1,1,1,1,1,1,1,1,1,1,1,1,1,1,1,1,1,1,1,1,1,1,1,1,1,1,1,1,1,
1,1,1,1,1,1,1,1,1,1,1,1,1,1,1,1,1,1,1,1,1,1,1,1,1,1,1,1,1,1,1,1,1,1,1,1,1,1,1,1,1,1,1,1,1,1,1,1,1,1,1,1,1,1,1,1,1,1,1,1,
1,1,1,1,1,1,1,1,1,1,1,1,1,1,1,1,1,1,1,1,1,1,1,1,1,1,1,1,1,1,1,1,1,1,1,1,1,1,1,1,1,1,1,1,1,1,1,1,1,1,1,1,1,1,1,1,1,1,1,1,
1,1,1,1,1,1,1,1,1,1,1,1,1,1,1,1,1,1,1,1,1,1,1,1,1,1,1,1,1,1,1,1,1,1,1,1,1,1,1,1,1,1,1,1,1,1,1,1,1,1,1,1,1,1,1,1,1,1,1,1,
1,1,1,1,1,1,1,1,1,1,1,1,1,1,1,1,1,1,1,1,1,1,1,1,1,1,1,1,1,1,1,1,1,1,1,1,1,1,1,1,1,1,1,1,1,1,1,1,1,1,1,1,1,1,1,1,1,1,1,1,
1,1,1,1,1,1,1,1,1,1,1,1,1,1,1,1,1,1,1,1,1,1,1,1,1,1,1,1,1,1,1,1,1,1,1,1,1,1,1,1,1,1,1,1,1,1,1,1,1,1,1,1,1,1,1,1,1,1,1,1,
1,1,1,1,1,1,1,1,1,1,1,1,1,1,1,1,1,1,1,1,1,1,1,1,1,1,1,1,1,1,1,1,1,1,1,1,1,1,1,1,1,1,1,1,1,1,1,1,1,1,1,1,1,1,1,1,1,1,1,1,
1,1,1,1,1,1,1,1,1,1,1,1,1,1,1,1,1,1,1,1,1,1,1,1,1,1,1,1,1,1,1,1,1,1,1,1,1,1,1,1,1,1,1,1,1,1,1,1,1,1,1,1,1,1,1,1,1,1,1,1,
1,1,1,1,1,1,1,1,1,1,1,1,1,1,1,1,1,1,1,1,1,1,1,1,1,1,1,1,1,1,1,1,1,1,1,1,1,1,1,1,1,1,1,1,1,1,1,1,1,1,1,1,1,1,1,1,1,1,1,1,
1,1,1,1,1,1,1,1,1,1,1,1,1,1,1,1,1,1,1,1,1,1,1,1,1,1,1,1,1,1,1,1,1,1,1,1,1,1,1,1,1,1,1,1,1,1,1,1,1,1,1,1,1,1,1,1,1,1,1,1,
1,1,1,1,1,1,1,1,1,1,1,1,1,1,1,1,1,1,1,1,1,1,1,1,1,1,1,1,1,1,1,1,1,1,1,1,1,1,1,1,1,1,1,1,1,1,1,1,1,1,1,1,1,1,1,1,1,1,1,1,
1,1,1,1,1,1,1,1,1,1,1,1,1,1,1,1,1,1,1,1,1,1,1,1,1,1,1,1,1,1,1,1,1,1,1,1,1,1,1,1,1,1,1,1,1,1,1,1,1,1,1,1,1,1,1,1,1,1,1,1,
1,1,1,1,1,1,1,1,1,1,1,1,1,1,1,1,1,1,1,1,1,1,1,1,1,1,1,1,1,1,1,1,1,1,1,1,1,1,1,1,1,1,1,1,1,1,1,1,1,1,1,1,1,1,1,1,1,1,1,1,
1,1,1,1,1,1,1,1,1,1,1,1,1,1,1,1,1,1,1,1,1,1,1,1,1,1,1,1,1,1,1,1,1,1,1,1,1,1,1,1,1,1,1,1,1,1,1,1,1,1,1,1,1,1,1,1,1,1,1,1,
1,1,1,1,1,1,1,1,1,1,1,1,1,1,1,1,1,1,1,1,1,1,1,1,1,1,1,1,1,1,1,1,1,1,1,1,1,1,1,1,1,1,1,1,1,1,1,1,1,1,1,1,1,1,1,1,1,1,1,1,
1,1,1,1,1,1,1,1,1,1,1,1,1,1,1,1,1,1,1,1,1,1,1,1,1,1,1,1,1,1,1,1,1,1,1,1,1,1,1,1,1,1,1,1,1,1,1,1,1,1,1,1,1,1,1,1,1,1,1,1,
1,1,1,1,1,1,1,1,1,1,1,1,1,1,1,1,1,1,1,1,1,1,1,1,1,1,1,1,1,1,1,1,1,1,1,1,1,1,1,1,1,1,1,1,1,1,1,1,1,1,1,1,1,1,1,1,1,1,1,1,
1,1,1,1,1,1,1,1,1,1,1,1,1,1,1,1,1,1,1,1,1,1,1,1,1,1,1,1,1,1,1,1,1,1,1,1,1,1,1,1,1,1,1,1,1,1,1,1,1,1,1,1,1,1,1,1,1,1,1,1,
1,1,1,1,1,1,1,1,1,1,1,1,1,1,1,1,1,1,1,1,1,1,1,1,1,1,1,1,1,1,1,1,1,1,1,1,1,1,1,1,1,1,1,1,1,1,1,1,1,1,1,1,1,1,1,1,1,1,1,1,
1,1,1,1,1,1,1,1,1,1,1,1,1,1,1,1,1,1,1,1,1,1,1,1,1,1,1,1,1,1,1,1,1,1,1,1,1,1,1,1,1,1,1,1,1,1,1,1,1,1,1,1,1,1,1,1,1,1,1,1,
1,1,1,1,1,1,1,1,1,1,1,1,1,1,1,1,1,1,1,1,1,1,1,1,1,1,1,1,1,1,1,1,1,1,1,1,1,1,1,1,1,1,1,1,1,1,1,1,1,1,1,1,1,1,1,1,1,1,1,1,
1,1,1,1,1,1,1,1,1,1,1,1,1,1,1,1,1,1,1,1,1,1,1,1,1,1,1,1,1,1,1,1,1,1,1,1,1,1,1,1,1,1,1,1,1,1,1,1,1,1,1,1,1,1,1,1,1,1,1,1,
1,1,1,1,1,1,1,1,1,1,1,1,1,1,1,1,1,1,1,1,1,1,1,1,1,1,1,1,1,1,1,1,1,1,1,1,1,1,1,1,1,1,1,1,1,1,1,1,1,1,1,1,1,1,1,1,1,1,1,1,
1,1,1,1,1,1,1,1,1,1,1,1,1,1,1,1,1,1,1,1,1,1,1,1,1,1,1,1,1,1,1,1,1,1,1,1,1,1,1,1,1,1,1,1,1,1,1,1,1,1,1,1,1,1,1,1,1,1,1,1
</data>
 </layer>
 <layer id="2" name="oggetti" width="60" height="30">
  <data encoding="csv">
208,208,208,208,208,208,208,208,0,0,0,0,0,0,0,0,0,0,0,0,0,0,0,0,0,0,0,0,0,0,0,0,0,0,0,0,0,0,0,0,0,0,0,0,0,0,0,0,0,0,0,0,0,0,0,0,0,0,0,0,
208,208,208,208,208,208,208,208,0,0,0,0,0,0,0,0,0,0,0,0,0,0,0,0,0,0,0,0,0,0,0,0,0,0,0,0,0,0,0,0,0,0,0,0,0,0,0,0,0,0,0,0,0,0,0,0,0,0,0,0,
208,208,208,208,208,208,208,208,0,0,0,0,0,0,0,0,0,0,0,0,0,0,0,0,0,0,0,0,0,0,0,0,0,0,0,0,0,0,0,0,0,0,0,0,0,0,0,0,0,0,0,0,0,0,0,0,0,0,0,0,
208,208,208,208,208,208,208,208,0,0,0,0,0,0,0,0,0,0,0,0,0,0,0,0,0,0,0,0,0,0,0,0,0,0,0,0,0,0,0,0,0,0,0,0,0,0,0,0,0,0,0,0,0,0,0,0,0,0,0,0,
208,208,208,208,208,208,208,208,0,0,0,0,0,0,0,0,0,0,0,0,0,0,0,0,0,0,0,0,0,0,0,0,0,0,0,0,0,0,0,0,0,0,0,0,0,0,0,0,0,0,0,0,0,0,0,0,0,0,0,0,
208,208,208,208,208,208,208,208,0,0,0,0,0,0,0,0,0,0,0,0,0,0,0,0,0,0,0,0,0,0,0,0,0,0,0,0,0,0,0,0,0,0,0,0,0,0,0,0,0,0,0,0,0,0,0,0,0,0,0,0,
208,208,208,208,208,208,208,208,0,0,0,0,0,0,0,0,0,0,0,0,0,0,0,0,0,0,0,0,0,0,0,0,0,0,0,0,0,0,0,0,0,0,0,0,0,0,0,0,0,0,0,0,0,0,0,0,0,0,0,0,
208,208,208,208,208,208,208,208,0,0,0,0,0,0,0,0,0,0,0,0,0,0,0,0,0,0,0,0,0,0,0,0,0,0,0,0,0,0,0,0,0,0,0,0,0,0,0,0,0,0,0,0,0,0,0,0,0,0,0,0,
208,208,208,208,208,208,208,208,0,0,0,0,0,0,0,0,0,0,0,0,0,0,0,0,0,0,0,0,0,0,0,0,0,0,0,0,0,0,0,0,0,0,0,0,0,0,0,0,0,0,0,0,0,0,0,0,0,0,0,0,
208,208,208,208,208,208,208,208,0,0,0,0,0,0,0,0,0,0,0,0,0,0,0,0,0,0,0,0,0,0,0,0,0,0,0,0,0,0,0,0,0,0,0,0,0,0,0,0,0,0,0,0,0,0,0,0,0,0,0,0,
6,7,6,6,58,0,0,0,0,0,0,0,0,0,0,0,0,0,0,0,0,0,0,0,0,0,0,0,0,0,0,0,0,0,0,0,0,0,0,0,0,0,0,0,0,0,0,0,0,0,0,0,0,0,0,0,0,0,0,0,
6,6,6,6,58,0,0,0,0,27,0,0,0,0,0,0,0,0,0,0,0,0,0,0,0,0,0,0,0,0,0,0,0,0,0,0,0,0,0,0,0,0,0,0,0,0,0,0,0,0,0,0,0,0,0,0,0,0,0,0,
6,6,6,6,70,0,0,0,0,0,0,0,0,0,0,0,0,0,0,0,0,0,0,0,0,0,0,0,0,0,0,0,0,0,0,0,0,0,0,0,0,0,0,0,0,0,0,0,0,0,0,0,0,0,0,0,0,0,0,0,
6,6,6,6,58,63,0,207,0,0,0,0,0,0,0,0,0,0,0,0,0,0,0,0,0,0,0,0,0,0,0,0,0,0,0,0,0,0,0,0,0,0,0,0,0,0,0,0,0,0,0,0,0,0,0,0,0,0,0,0,
43,6,6,6,58,63,0,207,0,0,0,0,0,0,0,0,0,0,0,0,0,0,0,0,0,0,0,0,0,0,0,0,0,0,0,0,0,0,0,0,0,0,0,0,0,0,0,0,0,0,0,0,0,0,0,0,0,0,0,0,
6,6,6,6,58,63,0,207,0,27,0,0,0,0,0,0,0,0,0,0,0,0,0,0,0,0,0,0,0,0,0,0,0,0,0,0,0,0,0,0,0,0,0,0,0,0,0,0,0,0,0,0,0,0,0,0,0,0,0,0,
7,6,6,6,58,63,0,207,0,0,0,0,0,0,0,0,0,0,0,0,0,0,0,0,0,0,0,0,0,0,0,0,0,0,0,0,0,0,0,0,0,0,0,0,0,0,0,0,0,0,0,0,0,0,0,0,0,0,0,0,
6,6,6,6,58,0,0,207,0,0,0,0,0,0,0,0,0,0,0,0,0,0,0,0,0,0,0,0,0,0,0,0,0,0,0,0,0,0,0,0,0,0,0,0,0,0,0,0,0,0,0,0,0,0,0,0,0,0,0,0,
6,6,7,6,58,0,0,0,0,0,0,0,0,0,0,0,0,0,0,0,0,0,0,0,0,0,0,0,0,0,0,0,0,0,0,0,0,0,0,0,0,0,0,0,0,0,0,0,0,0,0,0,0,0,0,0,0,0,0,0,
6,6,6,6,58,0,0,0,0,27,0,0,0,0,0,0,0,0,0,0,0,0,0,0,0,0,0,0,0,0,0,0,0,0,0,0,0,0,0,0,0,0,0,0,0,0,0,0,0,0,0,0,0,0,0,0,0,0,0,0,
208,208,208,208,208,208,208,208,0,0,0,0,0,0,0,0,0,0,0,0,0,0,0,0,0,0,0,0,0,0,0,0,0,0,0,0,0,0,0,0,0,0,0,0,0,0,0,0,0,0,0,0,0,0,0,0,0,0,0,0,
208,208,208,208,208,208,208,208,0,0,0,0,0,0,0,0,0,0,0,0,0,0,0,0,0,0,0,0,0,0,0,0,0,0,0,0,0,0,0,0,0,0,0,0,0,0,0,0,0,0,0,0,0,0,0,0,0,0,0,0,
208,208,208,208,208,208,208,208,0,0,0,0,0,0,0,0,0,0,0,0,0,0,0,0,0,0,0,0,0,0,0,0,0,0,0,0,0,0,0,0,0,0,0,0,0,0,0,0,0,0,0,0,0,0,0,0,0,0,0,0,
208,208,208,208,208,208,208,208,0,0,0,0,0,0,0,0,0,0,0,0,0,0,0,0,0,0,0,0,0,0,0,0,0,0,0,0,0,0,0,0,0,0,0,0,0,0,0,0,0,0,0,0,0,0,0,0,0,0,0,0,
208,208,208,208,208,208,208,208,0,0,0,0,0,0,0,0,0,0,0,0,0,0,0,0,0,0,0,0,0,0,0,0,0,0,0,0,0,0,0,0,0,0,0,0,0,0,0,0,0,0,0,0,0,0,0,0,0,0,0,0,
208,208,208,208,208,208,208,208,0,0,0,0,0,0,0,0,0,0,0,0,0,0,0,0,0,0,0,0,0,0,0,0,0,0,0,0,0,0,0,0,0,0,0,0,0,0,0,0,0,0,0,0,0,0,0,0,0,0,0,0,
208,208,208,208,208,208,208,208,0,0,0,0,0,0,0,0,0,0,0,0,0,0,0,0,0,0,0,0,0,0,0,0,0,0,0,0,0,0,0,0,0,0,0,0,0,0,0,0,0,0,0,0,0,0,0,0,0,0,0,0,
208,208,208,208,208,208,208,208,0,0,0,0,0,0,0,0,0,0,0,0,0,0,0,0,0,0,0,0,0,0,0,0,0,0,0,0,0,0,0,0,0,0,0,0,0,0,0,0,0,0,0,0,0,0,0,0,0,0,0,0,
208,208,208,208,0,208,208,208,0,0,0,0,0,0,0,0,0,0,0,0,0,0,0,0,0,0,0,0,0,0,0,0,0,0,0,0,0,0,0,0,0,0,0,0,0,0,0,0,0,0,0,0,0,0,0,0,0,0,0,0,
208,208,208,208,208,208,208,208,0,0,0,0,0,0,0,0,0,0,0,0,0,0,0,0,0,0,0,0,0,0,0,0,0,0,0,0,0,0,0,0,0,0,0,0,0,0,0,0,0,0,0,0,0,0,0,0,0,0,0,0
</data>
 </layer>
 <layer id="3" name="oggetti1" width="60" height="30">
  <data encoding="csv">
0,0,0,0,0,0,0,0,0,0,0,0,0,0,0,0,0,0,0,0,0,0,0,0,0,0,0,0,0,0,0,0,0,0,0,0,0,0,0,0,0,0,0,0,0,0,0,0,0,0,0,0,0,0,0,0,0,0,0,0,
0,0,0,0,0,0,0,0,0,0,0,0,0,0,0,0,0,0,0,0,0,0,0,0,0,0,0,0,0,0,0,0,0,0,0,0,0,0,0,0,0,0,0,0,0,0,0,0,0,0,0,0,0,0,0,0,0,0,0,0,
0,0,0,0,0,0,0,0,0,0,0,0,0,0,0,0,0,0,0,0,0,0,0,0,0,0,0,0,0,0,0,0,0,0,0,0,0,0,0,0,0,0,0,0,0,0,0,0,0,0,0,0,0,0,0,0,0,0,0,0,
0,0,0,0,0,0,0,0,0,0,0,0,0,0,0,0,0,0,0,0,0,0,0,0,0,0,0,0,0,0,0,0,0,0,0,0,0,0,0,0,0,0,0,0,0,0,0,0,0,0,0,0,0,0,0,0,0,0,0,0,
0,0,0,0,0,0,0,0,0,0,0,0,0,0,0,0,0,0,0,0,0,0,0,0,0,0,0,0,0,0,0,0,0,0,0,0,0,0,0,0,0,0,0,0,0,0,0,0,0,0,0,0,0,0,0,0,0,0,0,0,
0,0,0,0,0,0,0,0,0,0,0,0,0,0,0,0,0,0,0,0,0,0,0,0,0,0,0,0,0,0,0,0,0,0,0,0,0,0,0,0,0,0,0,0,0,0,0,0,0,0,0,0,0,0,0,0,0,0,0,0,
0,0,0,0,0,0,0,0,0,0,0,0,0,0,0,0,0,0,0,0,0,0,0,0,0,0,0,0,0,0,0,0,0,0,0,0,0,0,0,0,0,0,0,0,0,0,0,0,0,0,0,0,0,0,0,0,0,0,0,0,
0,0,0,0,0,0,0,0,0,0,0,0,0,0,0,0,0,0,0,0,0,0,0,0,0,0,0,0,0,0,0,0,0,0,0,0,0,0,0,0,0,0,0,0,0,0,0,0,0,0,0,0,0,0,0,0,0,0,0,0,
0,0,0,0,0,0,0,0,0,0,0,0,0,0,0,0,0,0,0,0,0,0,0,0,0,0,0,0,0,0,0,0,0,0,0,0,0,0,0,0,0,0,0,0,0,0,0,0,0,0,0,0,0,0,0,0,0,0,0,0,
0,0,0,0,0,0,0,0,0,0,0,0,0,0,0,0,0,0,0,0,0,0,0,0,0,0,0,0,0,0,0,0,0,0,0,0,0,0,0,0,0,0,0,0,0,0,0,0,0,0,0,0,0,0,0,0,0,0,0,0,
0,0,124,0,0,0,0,0,0,0,0,0,0,0,0,0,0,0,0,0,0,0,0,0,0,0,0,0,0,0,0,0,0,0,0,0,0,0,0,0,0,0,0,0,0,0,0,0,0,0,0,0,0,0,0,0,0,0,0,0,
0,0,18,0,0,0,0,0,0,0,0,0,0,0,0,0,0,0,0,0,0,0,0,0,0,0,0,0,0,0,0,0,0,0,0,0,0,0,0,0,0,0,0,0,0,0,0,0,0,0,0,0,0,0,0,0,0,0,0,0,
0,0,18,0,0,0,0,0,0,0,0,0,0,0,0,0,0,0,0,0,0,0,0,0,0,0,0,0,0,0,0,0,0,0,0,0,0,0,0,0,0,0,0,0,0,0,0,0,0,0,0,0,0,0,0,0,0,0,0,0,
0,0,158,0,0,0,0,0,0,0,0,0,0,0,0,0,0,0,0,0,0,0,0,0,0,0,0,0,0,0,0,0,0,0,0,0,0,0,0,0,0,0,0,0,0,0,0,0,0,0,0,0,0,0,0,0,0,0,0,0,
169,120,18,0,0,0,0,0,0,0,0,0,0,0,0,0,0,0,0,0,0,0,0,0,0,0,0,0,0,0,0,0,0,0,0,0,0,0,0,0,0,0,0,0,0,0,0,0,0,0,0,0,0,0,0,0,0,0,0,0,
177,0,18,0,0,0,0,0,0,0,0,0,0,0,0,0,0,0,0,0,0,0,0,0,0,0,0,0,0,0,0,0,0,0,0,0,0,0,0,0,0,0,0,0,0,0,0,0,0,0,0,0,0,0,0,0,0,0,0,0,
0,11,12,0,0,0,0,0,0,0,0,0,0,0,0,0,0,0,0,0,0,0,0,0,0,0,0,0,0,0,0,0,0,0,0,0,0,0,0,0,0,0,0,0,0,0,0,0,0,0,0,0,0,0,0,0,0,0,0,0,
0,0,0,0,0,0,0,0,0,0,0,0,0,0,0,0,0,0,0,0,0,0,0,0,0,0,0,0,0,0,0,0,0,0,0,0,0,0,0,0,0,0,0,0,0,0,0,0,0,0,0,0,0,0,0,0,0,0,0,0,
0,0,0,0,0,0,0,0,0,0,0,0,0,0,0,0,0,0,0,0,0,0,0,0,0,0,0,0,0,0,0,0,0,0,0,0,0,0,0,0,0,0,0,0,0,0,0,0,0,0,0,0,0,0,0,0,0,0,0,0,
0,0,0,0,0,0,0,0,0,0,0,0,0,0,0,0,0,0,0,0,0,0,0,0,0,0,0,0,0,0,0,0,0,0,0,0,0,0,0,0,0,0,0,0,0,0,0,0,0,0,0,0,0,0,0,0,0,0,0,0,
0,0,0,0,0,0,0,0,0,0,0,0,0,0,0,0,0,0,0,0,0,0,0,0,0,0,0,0,0,0,0,0,0,0,0,0,0,0,0,0,0,0,0,0,0,0,0,0,0,0,0,0,0,0,0,0,0,0,0,0,
0,0,0,0,0,0,0,0,0,0,0,0,0,0,0,0,0,0,0,0,0,0,0,0,0,0,0,0,0,0,0,0,0,0,0,0,0,0,0,0,0,0,0,0,0,0,0,0,0,0,0,0,0,0,0,0,0,0,0,0,
0,0,0,0,0,0,0,0,0,0,0,0,0,0,0,0,0,0,0,0,0,0,0,0,0,0,0,0,0,0,0,0,0,0,0,0,0,0,0,0,0,0,0,0,0,0,0,0,0,0,0,0,0,0,0,0,0,0,0,0,
0,0,0,0,0,0,0,0,0,0,0,0,0,0,0,0,0,0,0,0,0,0,0,0,0,0,0,0,0,0,0,0,0,0,0,0,0,0,0,0,0,0,0,0,0,0,0,0,0,0,0,0,0,0,0,0,0,0,0,0,
0,0,0,0,0,0,0,0,0,0,0,0,0,0,0,0,0,0,0,0,0,0,0,0,0,0,0,0,0,0,0,0,0,0,0,0,0,0,0,0,0,0,0,0,0,0,0,0,0,0,0,0,0,0,0,0,0,0,0,0,
0,0,0,0,0,0,0,0,0,0,0,0,0,0,0,0,0,0,0,0,0,0,0,0,0,0,0,0,0,0,0,0,0,0,0,0,0,0,0,0,0,0,0,0,0,0,0,0,0,0,0,0,0,0,0,0,0,0,0,0,
0,0,0,0,0,0,0,0,0,0,0,0,0,0,0,0,0,0,0,0,0,0,0,0,0,0,0,0,0,0,0,0,0,0,0,0,0,0,0,0,0,0,0,0,0,0,0,0,0,0,0,0,0,0,0,0,0,0,0,0,
0,0,0,0,0,0,0,0,0,0,0,0,0,0,0,0,0,0,0,0,0,0,0,0,0,0,0,0,0,0,0,0,0,0,0,0,0,0,0,0,0,0,0,0,0,0,0,0,0,0,0,0,0,0,0,0,0,0,0,0,
0,0,0,0,0,0,0,0,0,0,0,0,0,0,0,0,0,0,0,0,0,0,0,0,0,0,0,0,0,0,0,0,0,0,0,0,0,0,0,0,0,0,0,0,0,0,0,0,0,0,0,0,0,0,0,0,0,0,0,0,
0,0,0,0,0,0,0,0,0,0,0,0,0,0,0,0,0,0,0,0,0,0,0,0,0,0,0,0,0,0,0,0,0,0,0,0,0,0,0,0,0,0,0,0,0,0,0,0,0,0,0,0,0,0,0,0,0,0,0,0
</data>
 </layer>
 <layer id="4" name="oggetti2" width="60" height="30">
  <data encoding="csv">
0,0,0,0,0,0,0,0,0,0,0,0,0,0,0,0,0,0,0,0,0,0,0,0,0,0,0,0,0,0,0,0,0,0,0,0,0,0,0,0,0,0,0,0,0,0,0,0,0,0,0,0,0,0,0,0,0,0,0,0,
0,0,0,0,0,0,0,0,0,0,0,0,0,0,0,0,0,0,0,0,0,0,0,0,0,0,0,0,0,0,0,0,0,0,0,0,0,0,0,0,0,0,0,0,0,0,0,0,0,0,0,0,0,0,0,0,0,0,0,0,
0,0,0,0,0,0,0,0,0,0,0,0,0,0,0,0,0,0,0,0,0,0,0,0,0,0,0,0,0,0,0,0,0,0,0,0,0,0,0,0,0,0,0,0,0,0,0,0,0,0,0,0,0,0,0,0,0,0,0,0,
0,0,0,0,0,0,0,0,0,0,0,0,0,0,0,0,0,0,0,0,0,0,0,0,0,0,0,0,0,0,0,0,0,0,0,0,0,0,0,0,0,0,0,0,0,0,0,0,0,0,0,0,0,0,0,0,0,0,0,0,
0,0,0,0,0,0,0,0,0,0,0,0,0,0,0,0,0,0,0,0,0,0,0,0,0,0,0,0,0,0,0,0,0,0,0,0,0,0,0,0,0,0,0,0,0,0,0,0,0,0,0,0,0,0,0,0,0,0,0,0,
0,0,0,0,0,0,0,0,0,0,0,0,0,0,0,0,0,0,0,0,0,0,0,0,0,0,0,0,0,0,0,0,0,0,0,0,0,0,0,0,0,0,0,0,0,0,0,0,0,0,0,0,0,0,0,0,0,0,0,0,
0,0,0,0,0,0,0,0,0,0,0,0,0,0,0,0,0,0,0,0,0,0,0,0,0,0,0,0,0,0,0,0,0,0,0,0,0,0,0,0,0,0,0,0,0,0,0,0,0,0,0,0,0,0,0,0,0,0,0,0,
0,0,0,0,0,0,0,0,0,0,0,0,0,0,0,0,0,0,0,0,0,0,0,0,0,0,0,0,0,0,0,0,0,0,0,0,0,0,0,0,0,0,0,0,0,0,0,0,0,0,0,0,0,0,0,0,0,0,0,0,
0,0,0,0,0,0,0,0,0,0,0,0,0,0,0,0,0,0,0,0,0,0,0,0,0,0,0,0,0,0,0,0,0,0,0,0,0,0,0,0,0,0,0,0,0,0,0,0,0,0,0,0,0,0,0,0,0,0,0,0,
0,0,0,0,0,0,0,0,0,0,0,0,0,0,0,0,0,0,0,0,0,0,0,0,0,0,0,0,0,0,0,0,0,0,0,0,0,0,0,0,0,0,0,0,0,0,0,0,0,0,0,0,0,0,0,0,0,0,0,0,
0,96,0,0,0,0,0,0,0,0,0,0,0,0,0,0,0,0,0,0,0,0,0,0,0,0,0,0,0,0,0,0,0,0,0,0,0,0,0,0,0,0,0,0,0,0,0,0,0,0,0,0,0,0,0,0,0,0,0,0,
0,198,0,0,0,0,0,0,0,0,0,0,0,0,0,0,0,0,0,0,0,0,0,0,0,0,0,0,0,0,0,0,0,0,0,0,0,0,0,0,0,0,0,0,0,0,0,0,0,0,0,0,0,0,0,0,0,0,0,0,
0,18,0,0,0,0,0,0,0,0,0,0,0,0,0,0,0,0,0,0,0,0,0,0,0,0,0,0,0,0,0,0,0,0,0,0,0,0,0,0,0,0,0,0,0,0,0,0,0,0,0,0,0,0,0,0,0,0,0,0,
0,18,0,0,0,0,0,0,0,0,0,0,0,0,0,0,0,0,0,0,0,0,0,0,0,0,0,0,0,0,0,0,0,0,0,0,0,0,0,0,0,0,0,0,0,0,0,0,0,0,0,0,0,0,0,0,0,0,0,0,
0,198,0,0,0,0,0,0,0,0,0,0,0,0,0,0,0,0,0,0,0,0,0,0,0,0,0,0,0,0,0,0,0,0,0,0,0,0,0,0,0,0,0,0,0,0,0,0,0,0,0,0,0,0,0,0,0,0,0,0,
0,0,0,0,0,0,0,0,0,0,0,0,0,0,0,0,0,0,0,0,0,0,0,0,0,0,0,0,0,0,0,0,0,0,0,0,0,0,0,0,0,0,0,0,0,0,0,0,0,0,0,0,0,0,0,0,0,0,0,0,
0,37,0,0,0,0,0,0,0,0,0,0,0,0,0,0,0,0,0,0,0,0,0,0,0,0,0,0,0,0,0,0,0,0,0,0,0,0,0,0,0,0,0,0,0,0,0,0,0,0,0,0,0,0,0,0,0,0,0,0,
0,0,0,0,0,0,0,0,0,0,0,0,0,0,0,0,0,0,0,0,0,0,0,0,0,0,0,0,0,0,0,0,0,0,0,0,0,0,0,0,0,0,0,0,0,0,0,0,0,0,0,0,0,0,0,0,0,0,0,0,
0,0,0,0,0,0,0,0,0,0,0,0,0,0,0,0,0,0,0,0,0,0,0,0,0,0,0,0,0,0,0,0,0,0,0,0,0,0,0,0,0,0,0,0,0,0,0,0,0,0,0,0,0,0,0,0,0,0,0,0,
0,0,0,0,0,0,0,0,0,0,0,0,0,0,0,0,0,0,0,0,0,0,0,0,0,0,0,0,0,0,0,0,0,0,0,0,0,0,0,0,0,0,0,0,0,0,0,0,0,0,0,0,0,0,0,0,0,0,0,0,
0,0,0,0,0,0,0,0,0,0,0,0,0,0,0,0,0,0,0,0,0,0,0,0,0,0,0,0,0,0,0,0,0,0,0,0,0,0,0,0,0,0,0,0,0,0,0,0,0,0,0,0,0,0,0,0,0,0,0,0,
0,0,0,0,0,0,0,0,0,0,0,0,0,0,0,0,0,0,0,0,0,0,0,0,0,0,0,0,0,0,0,0,0,0,0,0,0,0,0,0,0,0,0,0,0,0,0,0,0,0,0,0,0,0,0,0,0,0,0,0,
0,0,0,0,0,0,0,0,0,0,0,0,0,0,0,0,0,0,0,0,0,0,0,0,0,0,0,0,0,0,0,0,0,0,0,0,0,0,0,0,0,0,0,0,0,0,0,0,0,0,0,0,0,0,0,0,0,0,0,0,
0,0,0,0,0,0,0,0,0,0,0,0,0,0,0,0,0,0,0,0,0,0,0,0,0,0,0,0,0,0,0,0,0,0,0,0,0,0,0,0,0,0,0,0,0,0,0,0,0,0,0,0,0,0,0,0,0,0,0,0,
0,0,0,0,0,0,0,0,0,0,0,0,0,0,0,0,0,0,0,0,0,0,0,0,0,0,0,0,0,0,0,0,0,0,0,0,0,0,0,0,0,0,0,0,0,0,0,0,0,0,0,0,0,0,0,0,0,0,0,0,
0,0,0,0,0,0,0,0,0,0,0,0,0,0,0,0,0,0,0,0,0,0,0,0,0,0,0,0,0,0,0,0,0,0,0,0,0,0,0,0,0,0,0,0,0,0,0,0,0,0,0,0,0,0,0,0,0,0,0,0,
0,0,0,0,0,0,0,0,0,0,0,0,0,0,0,0,0,0,0,0,0,0,0,0,0,0,0,0,0,0,0,0,0,0,0,0,0,0,0,0,0,0,0,0,0,0,0,0,0,0,0,0,0,0,0,0,0,0,0,0,
0,0,0,0,0,0,0,0,0,0,0,0,0,0,0,0,0,0,0,0,0,0,0,0,0,0,0,0,0,0,0,0,0,0,0,0,0,0,0,0,0,0,0,0,0,0,0,0,0,0,0,0,0,0,0,0,0,0,0,0,
0,0,0,0,0,0,0,0,0,0,0,0,0,0,0,0,0,0,0,0,0,0,0,0,0,0,0,0,0,0,0,0,0,0,0,0,0,0,0,0,0,0,0,0,0,0,0,0,0,0,0,0,0,0,0,0,0,0,0,0,
0,0,0,0,0,0,0,0,0,0,0,0,0,0,0,0,0,0,0,0,0,0,0,0,0,0,0,0,0,0,0,0,0,0,0,0,0,0,0,0,0,0,0,0,0,0,0,0,0,0,0,0,0,0,0,0,0,0,0,0
</data>
 </layer>
 <objectgroup id="7" name="Ostacoli">
  <object id="1" x="-32" y="2136">
   <properties>
    <property name="collision" type="bool" value="true"/>
   </properties>
   <polygon points="0,0 126,18 118,-110 168,-52 424,-60 445,-181 435,-539 436,-732 369,-809 258,-910 16,-1012 -20,-964 -25,-523 -147,-533 -147,-365 -15,-237"/>
  </object>
  <object id="2" x="26" y="1758">
   <polyline points="0,0 -43,15"/>
  </object>
  <object id="3" x="-40" y="2520">
   <properties>
    <property name="collision" type="bool" value="true"/>
   </properties>
   <polygon points="0,0 1016,32 1068,1308 28,1300"/>
  </object>
  <object id="4" x="-13.9394" y="1226.06">
   <properties>
    <property name="collision" type="bool" value="true"/>
   </properties>
   <polygon points="0,0 1018.18,24.2424 1010.61,-1228.79 -28.7879,-1243.94"/>
  </object>
  <object id="6" x="602.727" y="2512.42">
   <properties>
    <property name="collision" type="bool" value="true"/>
   </properties>
   <polyline points="0,0 16.6667,-350 6.06061,-351.515 -4.54545,-359.091"/>
  </object>
  <object id="7" x="225.273" y="2414.73">
   <properties>
    <property name="collision" type="bool" value="true"/>
   </properties>
   <polygon points="0,0 145.455,30.303 139.394,-115.152 13.6364,-128.788"/>
  </object>
  <object id="8" x="475.455" y="1621.52">
   <properties>
    <property name="collision" type="bool" value="true"/>
   </properties>
   <polygon points="0,0 139.394,30.303 137.879,-113.636 -6.06061,-133.333"/>
  </object>
  <object id="9" x="613.333" y="1520">
   <properties>
    <property name="collision" type="bool" value="true"/>
   </properties>
   <polyline points="0,0 1.51515,-262.121"/>
  </object>
  <object id="11" x="1149" y="2539">
   <properties>
    <property name="collision" type="bool" value="true"/>
   </properties>
   <polygon points="0,0 -36,-64 -39,-173 47,-163 103,-99 105,11 84,28"/>
  </object>
  <object id="12" x="1155" y="2029">
   <properties>
    <property name="collision" type="bool" value="true"/>
   </properties>
   <polygon points="0,0 -40,-56 -42,-178 44,-164 94,-98 85,15"/>
  </object>
  <object id="13" x="1178" y="1538">
   <properties>
    <property name="collision" type="bool" value="true"/>
   </properties>
   <polygon points="0,0 62,6 68,-120 4,-188 -58,-206 -57,-67"/>
  </object>
 </objectgroup>
 <layer id="5" name="oggetti3" width="60" height="30">
  <data encoding="csv">
0,0,0,0,0,0,0,0,0,0,0,0,0,0,0,0,0,0,0,0,0,0,0,0,0,0,0,0,0,0,0,0,0,0,0,0,0,0,0,0,0,0,0,0,0,0,0,0,0,0,0,0,0,0,0,0,0,0,0,0,
0,0,0,0,0,0,0,0,0,0,0,0,0,0,0,0,0,0,0,0,0,0,0,0,0,0,0,0,0,0,0,0,0,0,0,0,0,0,0,0,0,0,0,0,0,0,0,0,0,0,0,0,0,0,0,0,0,0,0,0,
0,0,0,0,0,0,0,0,0,0,0,0,0,0,0,0,0,0,0,0,0,0,0,0,0,0,0,0,0,0,0,0,0,0,0,0,0,0,0,0,0,0,0,0,0,0,0,0,0,0,0,0,0,0,0,0,0,0,0,0,
0,0,0,0,0,0,0,0,0,0,0,0,0,0,0,0,0,0,0,0,0,0,0,0,0,0,0,0,0,0,0,0,0,0,0,0,0,0,0,0,0,0,0,0,0,0,0,0,0,0,0,0,0,0,0,0,0,0,0,0,
0,0,0,0,0,0,0,0,0,0,0,0,0,0,0,0,0,0,0,0,0,0,0,0,0,0,0,0,0,0,0,0,0,0,0,0,0,0,0,0,0,0,0,0,0,0,0,0,0,0,0,0,0,0,0,0,0,0,0,0,
0,0,0,0,0,0,0,0,0,0,0,0,0,0,0,0,0,0,0,0,0,0,0,0,0,0,0,0,0,0,0,0,0,0,0,0,0,0,0,0,0,0,0,0,0,0,0,0,0,0,0,0,0,0,0,0,0,0,0,0,
0,0,0,0,0,0,0,0,0,0,0,0,0,0,0,0,0,0,0,0,0,0,0,0,0,0,0,0,0,0,0,0,0,0,0,0,0,0,0,0,0,0,0,0,0,0,0,0,0,0,0,0,0,0,0,0,0,0,0,0,
0,0,0,0,0,0,0,0,0,0,0,0,0,0,0,0,0,0,0,0,0,0,0,0,0,0,0,0,0,0,0,0,0,0,0,0,0,0,0,0,0,0,0,0,0,0,0,0,0,0,0,0,0,0,0,0,0,0,0,0,
0,0,0,0,0,0,0,0,0,0,0,0,0,0,0,0,0,0,0,0,0,0,0,0,0,0,0,0,0,0,0,0,0,0,0,0,0,0,0,0,0,0,0,0,0,0,0,0,0,0,0,0,0,0,0,0,0,0,0,0,
0,0,0,0,0,0,0,0,0,0,0,0,0,0,0,0,0,0,0,0,0,0,0,0,0,0,0,0,0,0,0,0,0,0,0,0,0,0,0,0,0,0,0,0,0,0,0,0,0,0,0,0,0,0,0,0,0,0,0,0,
9,0,0,0,0,0,0,0,0,0,0,0,0,0,0,0,0,0,0,0,0,0,0,0,0,0,0,0,0,0,0,0,0,0,0,0,0,0,0,0,0,0,0,0,0,0,0,0,0,0,0,0,0,0,0,0,0,0,0,0,
9,0,0,0,0,0,0,0,0,0,0,0,0,0,0,0,0,0,0,0,0,0,0,0,0,0,0,0,0,0,0,0,0,0,0,0,0,0,0,0,0,0,0,0,0,0,0,0,0,0,0,0,0,0,0,0,0,0,0,0,
9,0,0,0,0,0,0,0,0,0,0,0,0,0,0,0,0,0,0,0,0,0,0,0,0,0,0,0,0,0,0,0,0,0,0,0,0,0,0,0,0,0,0,0,0,0,0,0,0,0,0,0,0,0,0,0,0,0,0,0,
9,0,0,0,0,0,0,0,0,0,0,0,0,0,0,0,0,0,0,0,0,0,0,0,0,0,0,0,0,0,0,0,0,0,0,0,0,0,0,0,0,0,0,0,0,0,0,0,0,0,0,0,0,0,0,0,0,0,0,0,
0,0,0,0,0,0,0,0,0,0,0,0,0,0,0,0,0,0,0,0,0,0,0,0,0,0,0,0,0,0,0,0,0,0,0,0,0,0,0,0,0,0,0,0,0,0,0,0,0,0,0,0,0,0,0,0,0,0,0,0,
0,0,0,0,0,0,0,0,0,0,0,0,0,0,0,0,0,0,0,0,0,0,0,0,0,0,0,0,0,0,0,0,0,0,0,0,0,0,0,0,0,0,0,0,0,0,0,0,0,0,0,0,0,0,0,0,0,0,0,0,
0,0,0,0,0,0,0,0,0,0,0,0,0,0,0,0,0,0,0,0,0,0,0,0,0,0,0,0,0,0,0,0,0,0,0,0,0,0,0,0,0,0,0,0,0,0,0,0,0,0,0,0,0,0,0,0,0,0,0,0,
0,0,0,0,0,0,0,0,0,0,0,0,0,0,0,0,0,0,0,0,0,0,0,0,0,0,0,0,0,0,0,0,0,0,0,0,0,0,0,0,0,0,0,0,0,0,0,0,0,0,0,0,0,0,0,0,0,0,0,0,
0,0,0,0,0,0,0,0,0,0,0,0,0,0,0,0,0,0,0,0,0,0,0,0,0,0,0,0,0,0,0,0,0,0,0,0,0,0,0,0,0,0,0,0,0,0,0,0,0,0,0,0,0,0,0,0,0,0,0,0,
0,0,0,0,0,0,0,0,0,0,0,0,0,0,0,0,0,0,0,0,0,0,0,0,0,0,0,0,0,0,0,0,0,0,0,0,0,0,0,0,0,0,0,0,0,0,0,0,0,0,0,0,0,0,0,0,0,0,0,0,
0,0,0,0,0,0,0,0,0,0,0,0,0,0,0,0,0,0,0,0,0,0,0,0,0,0,0,0,0,0,0,0,0,0,0,0,0,0,0,0,0,0,0,0,0,0,0,0,0,0,0,0,0,0,0,0,0,0,0,0,
0,0,0,0,0,0,0,0,0,0,0,0,0,0,0,0,0,0,0,0,0,0,0,0,0,0,0,0,0,0,0,0,0,0,0,0,0,0,0,0,0,0,0,0,0,0,0,0,0,0,0,0,0,0,0,0,0,0,0,0,
0,0,0,0,0,0,0,0,0,0,0,0,0,0,0,0,0,0,0,0,0,0,0,0,0,0,0,0,0,0,0,0,0,0,0,0,0,0,0,0,0,0,0,0,0,0,0,0,0,0,0,0,0,0,0,0,0,0,0,0,
0,0,0,0,0,0,0,0,0,0,0,0,0,0,0,0,0,0,0,0,0,0,0,0,0,0,0,0,0,0,0,0,0,0,0,0,0,0,0,0,0,0,0,0,0,0,0,0,0,0,0,0,0,0,0,0,0,0,0,0,
0,0,0,0,0,0,0,0,0,0,0,0,0,0,0,0,0,0,0,0,0,0,0,0,0,0,0,0,0,0,0,0,0,0,0,0,0,0,0,0,0,0,0,0,0,0,0,0,0,0,0,0,0,0,0,0,0,0,0,0,
0,0,0,0,0,0,0,0,0,0,0,0,0,0,0,0,0,0,0,0,0,0,0,0,0,0,0,0,0,0,0,0,0,0,0,0,0,0,0,0,0,0,0,0,0,0,0,0,0,0,0,0,0,0,0,0,0,0,0,0,
0,0,0,0,0,0,0,0,0,0,0,0,0,0,0,0,0,0,0,0,0,0,0,0,0,0,0,0,0,0,0,0,0,0,0,0,0,0,0,0,0,0,0,0,0,0,0,0,0,0,0,0,0,0,0,0,0,0,0,0,
0,0,0,0,0,0,0,0,0,0,0,0,0,0,0,0,0,0,0,0,0,0,0,0,0,0,0,0,0,0,0,0,0,0,0,0,0,0,0,0,0,0,0,0,0,0,0,0,0,0,0,0,0,0,0,0,0,0,0,0,
0,0,0,0,0,0,0,0,0,0,0,0,0,0,0,0,0,0,0,0,0,0,0,0,0,0,0,0,0,0,0,0,0,0,0,0,0,0,0,0,0,0,0,0,0,0,0,0,0,0,0,0,0,0,0,0,0,0,0,0,
0,0,0,0,0,0,0,0,0,0,0,0,0,0,0,0,0,0,0,0,0,0,0,0,0,0,0,0,0,0,0,0,0,0,0,0,0,0,0,0,0,0,0,0,0,0,0,0,0,0,0,0,0,0,0,0,0,0,0,0
</data>
 </layer>
 <layer id="6" name="oggetti4" width="60" height="30">
  <data encoding="csv">
0,0,0,0,0,0,0,0,0,0,0,0,0,0,0,0,0,0,0,0,0,0,0,0,0,0,0,0,0,0,0,0,0,0,0,0,0,0,0,0,0,0,0,0,0,0,0,0,0,0,0,0,0,0,0,0,0,0,0,0,
0,0,0,0,0,0,0,0,0,0,0,0,0,0,0,0,0,0,0,0,0,0,0,0,0,0,0,0,0,0,0,0,0,0,0,0,0,0,0,0,0,0,0,0,0,0,0,0,0,0,0,0,0,0,0,0,0,0,0,0,
0,0,0,0,0,0,0,0,0,0,0,0,0,0,0,0,0,0,0,0,0,0,0,0,0,0,0,0,0,0,0,0,0,0,0,0,0,0,0,0,0,0,0,0,0,0,0,0,0,0,0,0,0,0,0,0,0,0,0,0,
0,0,0,0,0,0,0,0,0,0,0,0,0,0,0,0,0,0,0,0,0,0,0,0,0,0,0,0,0,0,0,0,0,0,0,0,0,0,0,0,0,0,0,0,0,0,0,0,0,0,0,0,0,0,0,0,0,0,0,0,
0,0,0,0,0,0,0,0,0,0,0,0,0,0,0,0,0,0,0,0,0,0,0,0,0,0,0,0,0,0,0,0,0,0,0,0,0,0,0,0,0,0,0,0,0,0,0,0,0,0,0,0,0,0,0,0,0,0,0,0,
0,0,0,0,0,0,0,0,0,0,0,0,0,0,0,0,0,0,0,0,0,0,0,0,0,0,0,0,0,0,0,0,0,0,0,0,0,0,0,0,0,0,0,0,0,0,0,0,0,0,0,0,0,0,0,0,0,0,0,0,
0,0,0,0,0,0,0,0,0,0,0,0,0,0,0,0,0,0,0,0,0,0,0,0,0,0,0,0,0,0,0,0,0,0,0,0,0,0,0,0,0,0,0,0,0,0,0,0,0,0,0,0,0,0,0,0,0,0,0,0,
0,0,0,0,0,0,0,0,0,0,0,0,0,0,0,0,0,0,0,0,0,0,0,0,0,0,0,0,0,0,0,0,0,0,0,0,0,0,0,0,0,0,0,0,0,0,0,0,0,0,0,0,0,0,0,0,0,0,0,0,
0,0,0,0,0,0,0,0,0,0,0,0,0,0,0,0,0,0,0,0,0,0,0,0,0,0,0,0,0,0,0,0,0,0,0,0,0,0,0,0,0,0,0,0,0,0,0,0,0,0,0,0,0,0,0,0,0,0,0,0,
0,0,0,0,0,0,0,0,0,0,0,0,0,0,0,0,0,0,0,0,0,0,0,0,0,0,0,0,0,0,0,0,0,0,0,0,0,0,0,0,0,0,0,0,0,0,0,0,0,0,0,0,0,0,0,0,0,0,0,0,
0,0,0,0,0,0,0,0,0,0,0,0,0,0,0,0,0,0,0,0,0,0,0,0,0,0,0,0,0,0,0,0,0,0,0,0,0,0,0,0,0,0,0,0,0,0,0,0,0,0,0,0,0,0,0,0,0,0,0,0,
0,0,0,0,0,0,0,0,0,0,0,0,0,0,0,0,0,0,0,0,0,0,0,0,0,0,0,0,0,0,0,0,0,0,0,0,0,0,0,0,0,0,0,0,0,0,0,0,0,0,0,0,0,0,0,0,0,0,0,0,
0,0,0,0,0,0,0,0,0,0,0,0,0,0,0,0,0,0,0,0,0,0,0,0,0,0,0,0,0,0,0,0,0,0,0,0,0,0,0,0,0,0,0,0,0,0,0,0,0,0,0,0,0,0,0,0,0,0,0,0,
0,0,0,0,0,0,0,0,0,0,0,0,0,0,0,0,0,0,0,0,0,0,0,0,0,0,0,0,0,0,0,0,0,0,0,0,0,0,0,0,0,0,0,0,0,0,0,0,0,0,0,0,0,0,0,0,0,0,0,0,
0,0,0,0,0,0,0,0,0,0,0,0,0,0,0,0,0,0,0,0,0,0,0,0,0,0,0,0,0,0,0,0,0,0,0,0,0,0,0,0,0,0,0,0,0,0,0,0,0,0,0,0,0,0,0,0,0,0,0,0,
0,0,0,0,0,0,0,0,0,0,0,0,0,0,0,0,0,0,0,0,0,0,0,0,0,0,0,0,0,0,0,0,0,0,0,0,0,0,0,0,0,0,0,0,0,0,0,0,0,0,0,0,0,0,0,0,0,0,0,0,
0,0,0,0,0,0,0,0,0,0,0,0,0,0,0,0,0,0,0,0,0,0,0,0,0,0,0,0,0,0,0,0,0,0,0,0,0,0,0,0,0,0,0,0,0,0,0,0,0,0,0,0,0,0,0,0,0,0,0,0,
0,0,0,0,0,0,0,0,0,0,0,0,0,0,0,0,0,0,0,0,0,0,0,0,0,0,0,0,0,0,0,0,0,0,0,0,0,0,0,0,0,0,0,0,0,0,0,0,0,0,0,0,0,0,0,0,0,0,0,0,
0,0,0,0,0,0,0,0,0,0,0,0,0,0,0,0,0,0,0,0,0,0,0,0,0,0,0,0,0,0,0,0,0,0,0,0,0,0,0,0,0,0,0,0,0,0,0,0,0,0,0,0,0,0,0,0,0,0,0,0,
0,0,0,0,0,0,0,0,0,0,0,0,0,0,0,0,0,0,0,0,0,0,0,0,0,0,0,0,0,0,0,0,0,0,0,0,0,0,0,0,0,0,0,0,0,0,0,0,0,0,0,0,0,0,0,0,0,0,0,0,
0,0,0,0,0,0,0,0,0,0,0,0,0,0,0,0,0,0,0,0,0,0,0,0,0,0,0,0,0,0,0,0,0,0,0,0,0,0,0,0,0,0,0,0,0,0,0,0,0,0,0,0,0,0,0,0,0,0,0,0,
0,0,0,0,0,0,0,0,0,0,0,0,0,0,0,0,0,0,0,0,0,0,0,0,0,0,0,0,0,0,0,0,0,0,0,0,0,0,0,0,0,0,0,0,0,0,0,0,0,0,0,0,0,0,0,0,0,0,0,0,
0,0,0,0,0,0,0,0,0,0,0,0,0,0,0,0,0,0,0,0,0,0,0,0,0,0,0,0,0,0,0,0,0,0,0,0,0,0,0,0,0,0,0,0,0,0,0,0,0,0,0,0,0,0,0,0,0,0,0,0,
0,0,0,0,0,0,0,0,0,0,0,0,0,0,0,0,0,0,0,0,0,0,0,0,0,0,0,0,0,0,0,0,0,0,0,0,0,0,0,0,0,0,0,0,0,0,0,0,0,0,0,0,0,0,0,0,0,0,0,0,
0,0,0,0,0,0,0,0,0,0,0,0,0,0,0,0,0,0,0,0,0,0,0,0,0,0,0,0,0,0,0,0,0,0,0,0,0,0,0,0,0,0,0,0,0,0,0,0,0,0,0,0,0,0,0,0,0,0,0,0,
0,0,0,0,0,0,0,0,0,0,0,0,0,0,0,0,0,0,0,0,0,0,0,0,0,0,0,0,0,0,0,0,0,0,0,0,0,0,0,0,0,0,0,0,0,0,0,0,0,0,0,0,0,0,0,0,0,0,0,0,
0,0,0,0,0,0,0,0,0,0,0,0,0,0,0,0,0,0,0,0,0,0,0,0,0,0,0,0,0,0,0,0,0,0,0,0,0,0,0,0,0,0,0,0,0,0,0,0,0,0,0,0,0,0,0,0,0,0,0,0,
0,0,0,0,0,0,0,0,0,0,0,0,0,0,0,0,0,0,0,0,0,0,0,0,0,0,0,0,0,0,0,0,0,0,0,0,0,0,0,0,0,0,0,0,0,0,0,0,0,0,0,0,0,0,0,0,0,0,0,0,
0,0,0,0,0,0,0,0,0,0,0,0,0,0,0,0,0,0,0,0,0,0,0,0,0,0,0,0,0,0,0,0,0,0,0,0,0,0,0,0,0,0,0,0,0,0,0,0,0,0,0,0,0,0,0,0,0,0,0,0,
0,0,0,0,0,0,0,0,0,0,0,0,0,0,0,0,0,0,0,0,0,0,0,0,0,0,0,0,0,0,0,0,0,0,0,0,0,0,0,0,0,0,0,0,0,0,0,0,0,0,0,0,0,0,0,0,0,0,0,0
</data>
 </layer>
 <objectgroup id="9" name="Spawn">
  <object id="14" name="Spawn" x="836" y="1940">
   <point/>
  </object>
 </objectgroup>
</map>
