<?xml version="1.0" encoding="UTF-8"?>
<map version="1.10" tiledversion="1.11.0" orientation="isometric" renderorder="right-down" width="180" height="64" tilewidth="64" tileheight="32" infinite="0" nextlayerid="6" nextobjectid="344">
 <tileset firstgid="1" name="grass_green" tilewidth="64" tileheight="32" tilecount="56" columns="8">
  <image source="../ground_tiles_sheets/grass_green_64x32.png" width="512" height="224"/>
 </tileset>
 <tileset firstgid="57" name="dirt" tilewidth="64" tileheight="32" tilecount="56" columns="8">
  <image source="../ground_tiles_sheets/dirt_64x32.png" width="512" height="224"/>
 </tileset>
 <tileset firstgid="113" name="stone_path" tilewidth="64" tileheight="32" tilecount="56" columns="8">
  <image source="../ground_tiles_sheets/stone_path_64x32.png" width="512" height="224"/>
 </tileset>
 <tileset firstgid="169" name="forest_ground" tilewidth="64" tileheight="32" tilecount="56" columns="8">
  <image source="../ground_tiles_sheets/forest_ground_64x32.png" width="512" height="224"/>
 </tileset>
 <tileset firstgid="225" name="countryside_objects" tilewidth="64" tileheight="96" tilecount="24" columns="8">
  <tileoffset x="0" y="-64"/>
  <tile id="0" type="obstacle"><properties><property name="name" value="tree_oak"/><property name="collidable" type="bool" value="true"/></properties></tile>
  <tile id="1" type="obstacle"><properties><property name="name" value="tree_pine"/><property name="collidable" type="bool" value="true"/></properties></tile>
  <tile id="2" type="obstacle"><properties><property name="name" value="tree_round"/><property name="collidable" type="bool" value="true"/></properties></tile>
  <tile id="3" type="obstacle"><properties><property name="name" value="tree_small"/><property name="collidable" type="bool" value="true"/></properties></tile>
  <tile id="4" type="obstacle"><properties><property name="name" value="fence_high_e"/><property name="collidable" type="bool" value="true"/></properties></tile>
  <tile id="5" type="obstacle"><properties><property name="name" value="fence_high_s"/><property name="collidable" type="bool" value="true"/></properties></tile>
  <tile id="6" type="obstacle"><properties><property name="name" value="fence_broken_e"/><property name="collidable" type="bool" value="true"/></properties></tile>
  <tile id="7" type="obstacle"><properties><property name="name" value="fence_broken_s"/><property name="collidable" type="bool" value="true"/></properties></tile>
  <tile id="8" type="obstacle"><properties><property name="name" value="hay_bales"/><property name="collidable" type="bool" value="true"/></properties></tile>
  <tile id="9" type="obstacle"><properties><property name="name" value="hay_stack"/><property name="collidable" type="bool" value="true"/></properties></tile>
  <tile id="10" type="obstacle"><properties><property name="name" value="sacks_crate"/><property name="collidable" type="bool" value="true"/></properties></tile>
  <tile id="11" type="obstacle"><properties><property name="name" value="sack"/><property name="collidable" type="bool" value="true"/></properties></tile>
  <tile id="12" type="obstacle"><properties><property name="name" value="corn"/><property name="collidable" type="bool" value="true"/></properties></tile>
  <tile id="13" type="obstacle"><properties><property name="name" value="corn_double"/><property name="collidable" type="bool" value="true"/></properties></tile>
  <tile id="14" type="obstacle"><properties><property name="name" value="corn_young"/><property name="collidable" type="bool" value="true"/></properties></tile>
  <tile id="15" type="obstacle"><properties><property name="name" value="ladder_stand"/><property name="collidable" type="bool" value="true"/></properties></tile>
  <tile id="16" type="obstacle"><properties><property name="name" value="planks"/><property name="collidable" type="bool" value="true"/></properties></tile>
  <tile id="17" type="obstacle"><properties><property name="name" value="planks_old"/><property name="collidable" type="bool" value="true"/></properties></tile>
  <tile id="18" type="obstacle"><properties><property name="name" value="wall"/><property name="collidable" type="bool" value="true"/></properties></tile>
  <tile id="19" type="obstacle"><properties><property name="name" value="wall_window"/><property name="collidable" type="bool" value="true"/></properties></tile>
  <tile id="20" type="obstacle"><properties><property name="name" value="wall_door"/><property name="collidable" type="bool" value="true"/></properties></tile>
  <tile id="21" type="obstacle"><properties><property name="name" value="roof"/><property name="collidable" type="bool" value="true"/></properties></tile>
  <tile id="22" type="obstacle"><properties><property name="name" value="roof_corner"/><property name="collidable" type="bool" value="true"/></properties></tile>
  <tile id="23" type="obstacle"><properties><property name="name" value="chimney"/><property name="collidable" type="bool" value="true"/></properties></tile>
  <image source="countryside_objects.png" width="512" height="288"/>
 </tileset>
 <layer id="1" name="Ground" width="180" height="64" visible="1">
  <data encoding="csv">
1,1,3,1,10,3,1,1,1,3,1,1,1,1,1,1,1,1,10,1,10,1,1,1,1,1,1,1,1,1,1,18,1,1,3,1,1,1,1,1,1,1,1,10,1,1,1,18,1,1,1,1,1,1,18,1,1,1,1,1,1,1,3,10,18,1,1,1,10,1,10,1,1,1,1,1,1,1,1,1,1,3,1,1,18,1,1,1,1,1,1,1,1,1,1,1,3,3,1,1,1,1,1,18,1,1,1,1,1,10,1,1,1,1,1,10,1,1,10,1,1,1,10,3,3,1,1,1,1,1,1,1,1,1,1,1,1,1,1,3,1,1,1,1,1,1,1,10,1,1,3,3,1,1,10,3,1,1,3,1,1,1,1,1,10,1,18,1,1,1,1,1,1,1,1,1,3,1,1,1,
1,1,1,1,1,1,1,1,10,1,10,1,3,1,1,1,1,1,1,1,1,10,1,3,1,10,1,1,1,1,10,1,1,1,1,1,1,1,1,10,1,3,1,1,1,1,1,1,1,1,3,1,1,1,1,1,1,1,1,1,1,1,3,3,1,1,1,1,1,1,1,1,1,18,1,3,18,1,1,1,1,1,1,1,1,1,1,1,18,1,1,1,1,1,18,10,1,18,1,1,1,1,1,1,1,10,1,1,3,1,1,1,1,1,1,1,1,1,1,10,10,1,1,1,18,10,1,1,10,10,1,3,1,10,18,1,1,18,10,1,3,3,1,1,1,1,1,1,1,1,10,1,1,1,1,1,1,1,1,1,1,1,1,1,1,1,1,1,1,1,1,1,1,1,1,1,1,1,1,1,
1,3,18,1,18,1,1,1,1,3,1,1,1,1,1,1,10,18,1,1,1,1,3,1,3,3,1,1,1,1,1,1,1,1,1,1,1,1,1,1,1,1,1,10,1,1,1,1,18,3,18,1,1,1,1,1,1,1,1,1,1,3,1,3,1,1,1,1,1,1,3,1,1,10,1,1,1,10,1,1,10,10,1,1,1,1,1,1,1,1,1,1,18,1,1,18,1,1,1,1,1,18,10,1,3,1,1,10,1,1,18,1,1,1,1,1,1,1,1,1,1,1,1,1,1,1,1,3,1,3,25,25,25,25,25,1,1,1,1,1,18,1,1,18,1,18,1,1,1,10,1,3,1,1,1,1,3,1,1,1,1,10,10,1,1,3,1,18,1,1,10,1,1,1,1,3,1,1,1,1,
1,1,1,10,1,1,1,1,1,1,1,10,1,1,1,1,1,1,10,1,1,1,18,1,18,3,1,1,25,1,25,25,1,1,1,1,1,1,1,18,1,1,3,1,1,25,25,25,25,25,1,1,1,1,1,18,1,1,1,1,1,1,1,10,1,1,3,3,1,1,1,1,1,1,1,1,1,1,1,1,1,10,1,1,1,1,1,3,1,1,1,1,10,1,3,1,18,1,1,10,1,10,1,1,1,18,10,1,3,1,1,3,18,1,18,1,1,1,1,1,1,3,1,1,1,10,1,1,1,1,25,1,18,1,25,1,18,1,1,1,10,3,1,1,10,18,1,1,1,1,1,1,1,3,1,1,1,1,1,1,1,1,1,1,1,18,1,1,1,1,3,18,1,3,1,1,3,1,1,1,
1,1,3,1,3,1,1,10,1,3,1,1,3,25,1,25,1,3,1,1,1,1,25,25,25,1,1,3,25,25,25,25,1,18,1,1,1,1,1,1,1,1,1,1,1,1,1,1,1,1,3,1,1,3,1,1,1,1,1,1,1,1,1,18,1,10,1,1,65,66,67,68,65,66,67,68,65,66,67,68,65,66,67,68,65,66,67,68,65,66,67,68,1,1,1,1,1,18,1,1,1,1,18,1,1,1,1,1,3,1,1,18,1,1,3,1,1,3,10,1,3,1,1,1,1,10,1,1,1,1,1,3,3,1,10,1,1,1,1,1,1,3,10,18,1,1,1,1,1,1,1,1,10,1,3,1,1,1,1,1,1,1,18,1,1,1,1,1,1,10,3,10,1,10,10,1,1,1,1,3,
1,1,10,1,1,3,1,18,66,67,68,65,66,67,68,65,66,67,68,65,66,67,68,65,66,67,1,1,1,1,1,1,1,1,1,1,1,3,1,1,1,1,1,1,18,1,3,1,1,18,1,3,1,1,1,1,1,1,1,1,1,1,1,1,18,1,1,3,66,67,68,65,66,67,68,65,66,67,68,65,66,67,68,65,66,67,68,65,66,67,68,65,1,1,1,1,10,1,1,1,1,1,10,1,1,1,3,1,1,1,3,18,1,1,1,1,1,1,18,10,1,1,3,3,1,1,18,1,1,1,1,10,1,1,1,3,1,1,1,1,1,1,1,10,1,1,10,1,1,1,10,10,1,10,10,1,3,1,10,1,1,1,1,1,1,1,1,1,10,1,1,1,1,1,1,1,18,1,1,1,
1,1,1,1,1,10,3,1,67,68,65,66,67,68,65,66,67,68,65,66,67,68,65,66,67,68,18,1,1,1,1,1,1,1,1,1,1,18,1,18,1,1,1,1,1,1,1,3,1,3,1,1,1,10,1,1,3,25,25,25,25,25,1,18,1,3,1,18,67,68,65,66,67,68,65,66,67,68,65,66,67,68,65,66,67,68,65,66,67,68,65,66,3,1,1,18,3,1,3,3,3,1,1,1,1,1,1,1,1,1,1,3,1,1,1,1,1,1,1,18,1,1,1,1,1,1,1,1,1,1,1,18,1,1,10,66,67,68,65,66,67,68,65,66,67,68,65,66,67,68,65,66,67,68,65,66,67,68,65,66,1,1,1,1,1,3,1,1,3,1,18,1,1,10,25,25,1,1,1,1,
1,1,1,1,18,10,10,1,68,65,66,67,68,65,66,67,68,65,66,67,68,65,66,67,68,65,1,1,1,1,1,1,1,1,1,1,1,1,10,1,3,1,1,1,1,3,1,1,1,1,1,1,1,1,1,10,1,25,10,25,25,1,1,1,1,1,1,1,68,65,66,67,68,65,66,67,68,65,66,67,68,65,66,67,68,65,66,67,68,65,66,67,1,1,1,3,1,1,10,1,10,1,1,1,1,1,1,1,1,10,1,1,1,1,1,1,1,1,1,1,1,1,3,1,1,1,1,18,1,1,1,10,1,1,10,67,68,65,66,67,68,65,66,67,68,65,66,67,68,65,66,67,68,65,66,67,68,65,66,67,1,1,1,1,1,1,1,1,1,18,1,1,1,1,1,1,1,1,25,25,
10,1,1,3,1,1,1,1,65,66,67,68,65,66,67,68,65,66,67,68,65,66,67,68,65,66,1,3,1,1,1,1,1,1,1,1,1,1,1,1,1,1,1,1,10,1,1,1,1,1,18,3,1,1,1,1,1,1,1,18,1,3,10,1,1,1,1,1,65,66,67,68,65,66,67,68,65,66,67,68,65,66,67,68,65,66,67,68,65,66,67,68,3,1,1,1,18,1,1,1,1,18,3,10,1,1,1,1,18,1,1,1,18,1,1,1,1,1,1,1,18,1,18,1,10,1,1,1,3,1,1,1,1,1,1,68,65,66,67,68,65,66,67,68,65,66,67,68,65,66,67,68,65,66,67,68,65,66,67,68,1,1,1,1,1,1,3,1,1,1,3,1,1,1,1,1,1,1,25,25,
1,1,3,1,1,3,1,1,66,67,68,65,66,67,68,65,66,67,68,65,66,67,68,65,66,67,3,1,1,1,3,1,18,1,1,1,18,1,3,1,1,1,18,1,1,1,1,1,1,1,18,1,1,1,1,1,1,3,1,3,10,1,1,1,1,1,1,1,66,67,68,65,66,67,68,65,66,67,68,65,66,67,68,65,66,67,68,65,66,67,68,65,1,1,1,1,1,1,1,1,1,1,3,1,1,1,3,10,3,1,1,1,1,1,1,1,3,1,1,1,1,1,1,1,1,1,1,1,3,1,1,1,1,1,18,65,66,67,68,65,66,67,68,65,66,67,68,65,66,67,68,65,66,67,68,65,66,67,68,65,1,1,1,1,1,1,1,1,1,1,1,1,1,1,1,1,1,25,25,18,
1,1,1,1,1,1,1,1,67,68,65,66,67,68,65,66,67,68,65,66,67,68,65,66,67,68,10,1,1,1,1,1,25,25,25,25,25,1,1,1,18,1,1,1,1,1,1,1,1,3,1,1,1,1,1,10,1,1,1,1,1,1,1,1,1,10,1,1,67,68,65,66,67,68,65,66,67,68,65,66,67,68,65,66,67,68,65,66,67,68,65,66,1,1,1,1,1,10,1,1,1,10,1,1,1,1,1,1,1,1,1,1,10,1,1,10,1,3,1,1,1,10,1,1,1,1,3,18,1,1,1,1,10,1,18,66,67,68,65,66,67,68,65,66,67,68,65,66,67,68,65,66,67,68,65,66,67,68,65,66,1,1,1,10,1,3,1,10,18,1,1,1,10,1,1,10,10,1,1,1,
1,18,1,1,1,3,1,1,68,65,66,67,68,65,66,67,68,65,66,67,68,65,66,67,68,65,1,1,1,1,1,10,1,1,1,1,1,10,1,1,1,1,1,1,1,1,1,1,1,1,1,1,1,1,1,3,1,1,3,3,1,1,1,1,1,1,1,3,68,65,66,67,68,65,66,67,68,65,66,67,68,65,66,67,68,65,66,67,68,65,66,67,3,1,18,1,1,10,1,1,1,3,1,10,1,1,1,1,1,3,1,1,3,10,18,3,1,1,1,3,1,18,1,1,3,3,3,1,1,1,3,18,18,1,1,67,68,65,66,67,68,65,66,67,68,65,66,67,68,65,66,67,68,65,66,67,68,65,66,67,1,1,1,1,1,18,1,1,3,1,1,1,1,1,3,1,1,3,1,1,
1,1,10,18,1,1,1,1,65,66,67,68,65,66,67,68,65,66,67,68,65,66,67,68,65,66,1,1,1,1,1,10,1,10,10,1,18,1,3,1,18,1,10,10,1,1,1,25,25,25,1,1,1,3,1,1,18,1,1,1,1,1,1,1,1,1,1,3,65,66,67,68,65,66,67,68,65,66,67,68,65,66,67,68,65,66,67,68,65,66,67,68,1,3,1,1,1,18,3,1,3,1,1,1,10,18,1,1,1,1,1,1,3,1,10,1,1,1,10,3,1,1,10,1,1,1,1,1,10,1,1,10,1,1,1,68,65,66,67,68,65,66,67,68,65,66,67,68,65,66,67,68,65,66,67,68,65,66,67,68,3,3,1,1,10,1,1,1,1,3,10,1,1,3,1,1,1,3,1,10,
1,1,1,1,1,1,1,3,1,1,1,1,1,1,10,1,1,18,3,1,1,1,1,3,1,1,3,1,3,1,10,10,1,1,1,1,1,3,1,1,1,1,1,1,1,1,25,1,1,1,1,1,25,1,1,1,1,1,1,1,10,1,1,3,1,1,10,1,1,1,1,1,1,1,1,1,1,18,1,1,3,1,1,1,1,1,1,1,1,1,1,1,10,1,1,1,10,1,1,10,1,1,1,1,3,1,1,1,1,3,1,1,10,1,1,1,1,10,1,1,1,1,1,18,1,1,1,1,1,1,1,1,1,1,10,65,66,67,68,65,66,67,68,65,66,67,68,65,66,67,68,65,66,67,68,65,66,67,68,65,3,1,1,3,1,1,1,1,1,1,10,1,1,3,1,1,10,1,1,10,
1,1,3,1,1,1,1,1,1,1,18,1,1,1,1,1,1,1,1,3,1,1,1,1,10,18,10,1,1,3,1,1,1,1,1,10,18,1,3,1,1,25,25,10,25,1,1,1,1,1,1,1,25,1,10,3,1,1,1,18,1,1,1,1,1,1,10,18,1,1,1,18,1,1,1,1,1,1,1,1,1,10,1,1,1,1,1,1,1,3,1,1,1,1,1,1,1,3,1,1,1,1,1,1,1,1,1,25,25,1,1,1,10,1,1,1,1,1,1,1,3,25,25,3,1,1,1,1,1,1,1,1,1,1,1,66,67,68,65,66,67,68,65,66,67,68,65,66,67,68,65,66,67,68,65,66,67,68,65,66,1,1,1,10,3,1,3,1,1,1,1,1,1,1,1,1,1,1,3,1,
10,1,1,1,1,3,1,1,10,1,1,3,10,1,3,1,1,1,1,1,1,1,1,1,1,1,1,18,1,3,18,3,1,1,1,1,1,1,1,1,3,1,1,10,1,1,1,1,1,1,1,1,1,1,1,1,1,1,18,1,1,1,18,1,1,3,1,1,1,1,1,1,1,10,18,10,1,1,1,1,1,1,18,3,1,1,1,3,3,3,25,25,25,1,25,3,1,10,18,1,1,18,1,18,1,1,1,25,1,1,1,1,1,1,1,1,1,1,1,10,18,18,10,1,1,1,1,1,1,1,1,1,1,10,1,67,68,65,66,67,68,65,66,67,68,65,66,67,68,65,66,67,68,65,66,67,68,65,66,67,3,18,1,1,1,10,1,1,18,1,1,10,1,1,10,1,1,1,1,1,
1,1,1,1,1,1,1,1,18,10,18,1,1,1,1,1,1,10,25,1,25,1,18,1,1,1,1,1,1,1,10,1,18,1,10,1,1,1,1,18,1,1,1,18,1,1,1,1,18,1,18,10,1,1,1,18,3,1,1,1,1,3,1,1,1,1,1,3,1,1,18,1,1,1,1,1,18,1,10,1,1,1,1,1,1,1,1,1,1,10,1,25,1,1,25,1,1,18,1,1,3,1,10,10,1,10,1,1,1,1,18,1,1,1,1,1,18,1,10,1,1,18,1,1,1,1,3,1,1,1,18,1,1,1,1,1,1,1,1,1,1,1,1,18,1,1,1,1,3,1,1,1,3,3,10,1,1,1,1,18,1,10,1,1,1,1,1,1,10,1,1,1,1,1,1,1,1,1,1,3,
3,1,1,1,1,1,1,1,1,1,1,1,10,1,1,3,1,1,1,25,25,25,18,1,1,1,1,1,1,1,1,1,1,3,1,1,10,1,1,1,1,1,3,1,10,1,1,1,1,10,1,1,1,1,1,1,3,3,1,1,1,1,1,1,1,1,1,1,1,1,3,1,1,1,1,1,3,18,1,10,1,1,3,10,1,18,1,1,1,18,18,1,1,1,1,18,1,1,1,1,1,1,1,1,1,10,1,25,25,25,25,1,1,1,1,1,1,1,1,1,18,1,10,1,1,1,1,3,1,1,1,1,1,3,1,1,1,1,1,1,18,1,10,1,1,3,1,1,1,1,18,1,10,10,1,1,1,1,1,1,1,1,10,1,1,1,1,1,1,1,1,1,1,1,10,10,1,1,10,1,
1,3,1,1,1,1,10,18,3,1,1,1,1,18,1,1,1,1,1,25,1,25,3,1,18,18,1,1,1,1,1,1,1,1,1,1,1,1,1,1,1,10,65,66,67,68,65,66,67,68,65,66,67,68,65,66,67,68,65,66,67,68,65,66,1,1,1,18,1,3,1,18,10,1,1,1,1,3,1,1,1,1,1,1,1,1,10,1,10,1,1,1,1,1,1,3,1,1,18,1,1,1,1,18,1,1,1,58,59,60,61,57,58,59,1,1,1,1,18,1,1,1,10,1,1,3,1,3,1,1,1,1,10,1,1,3,3,1,1,1,10,1,1,1,1,1,3,1,1,1,10,1,1,1,1,1,1,3,1,1,10,3,1,1,10,3,1,1,1,1,1,1,1,1,1,1,10,1,1,1,
18,1,1,1,1,1,1,1,1,1,3,1,1,1,1,1,1,1,3,1,3,1,1,1,1,1,10,1,1,1,1,1,10,1,1,10,1,1,1,1,1,1,66,67,68,65,66,67,68,65,66,67,68,65,66,67,68,65,66,67,68,65,66,67,1,1,1,1,10,1,1,1,1,18,10,1,3,1,1,1,1,1,1,18,1,1,3,1,1,25,3,25,25,10,1,18,1,1,1,1,1,1,1,1,60,61,57,59,60,61,57,58,59,60,60,61,1,1,10,18,3,3,1,10,1,1,1,1,1,1,1,1,1,1,1,10,1,1,1,1,1,1,1,3,1,1,1,1,1,10,1,1,1,1,1,3,1,1,3,1,1,1,1,1,1,1,1,1,1,1,1,1,1,18,1,1,3,1,1,1,
1,1,1,25,1,18,1,1,1,10,1,1,10,1,10,1,1,1,10,1,10,1,1,3,1,1,1,3,1,1,1,1,1,1,1,1,1,1,1,1,1,10,67,68,65,66,67,68,65,66,67,68,65,66,67,68,65,66,67,68,65,66,67,68,1,18,1,1,1,1,1,18,1,10,1,1,1,1,1,10,1,1,1,10,1,1,1,1,1,25,25,25,25,1,1,3,3,18,1,1,1,3,10,59,61,57,58,60,61,57,58,68,65,66,67,68,65,66,67,68,65,66,67,68,65,66,67,68,65,66,67,68,65,1,1,10,1,1,1,1,10,1,1,1,1,1,1,18,1,3,3,1,1,1,1,1,1,10,1,1,1,3,1,1,10,1,1,10,10,1,1,1,1,1,1,10,3,1,1,18,
1,1,3,3,1,1,1,1,18,3,3,1,1,1,1,10,10,1,1,1,1,1,18,1,3,1,1,1,3,1,1,3,1,1,1,1,1,1,1,1,1,1,68,65,66,67,68,65,66,67,68,65,66,67,68,65,66,67,68,65,66,67,68,65,1,1,10,1,1,1,1,1,1,1,1,1,1,1,3,1,1,1,1,18,1,1,1,1,1,25,1,25,25,1,1,10,1,1,1,18,1,57,58,60,57,58,59,3,1,1,1,65,66,67,68,65,66,67,68,65,66,67,68,65,66,67,68,65,66,67,68,65,66,3,18,1,1,1,1,1,1,1,1,10,1,1,1,10,18,1,10,1,1,1,1,1,1,1,1,10,1,1,1,1,1,1,18,1,1,18,1,1,1,10,3,3,18,1,18,1,
1,1,10,3,10,1,1,1,1,3,18,10,3,1,1,1,1,1,1,1,1,1,1,1,1,1,1,1,1,18,1,10,1,3,10,1,10,18,1,1,1,1,65,66,67,68,65,66,67,68,65,66,67,68,65,66,67,68,65,66,67,68,65,66,3,1,1,1,1,1,10,1,1,10,1,1,1,3,1,10,1,1,1,1,1,1,1,1,1,3,1,1,18,10,1,10,1,10,1,1,61,58,59,61,10,10,1,1,1,3,1,66,67,68,65,66,67,68,65,66,67,68,65,66,67,68,65,66,67,68,65,66,67,18,1,1,1,3,1,1,1,1,1,1,1,10,1,1,18,3,1,1,1,3,18,1,10,1,1,1,1,1,1,18,1,1,1,1,3,1,1,1,1,1,1,3,1,1,1,10,
1,3,1,1,3,1,1,1,18,1,1,1,1,10,1,1,1,1,3,1,1,1,1,1,1,18,1,18,1,1,1,10,1,1,1,1,1,1,1,3,1,1,66,67,68,65,66,67,68,65,66,67,68,65,66,67,68,65,66,67,68,65,66,67,10,1,3,1,1,1,1,1,1,1,1,1,1,18,1,1,1,1,1,1,10,1,1,3,1,1,3,10,1,3,18,1,1,1,3,60,57,59,60,18,1,18,1,1,1,1,1,67,68,65,66,67,68,65,66,67,68,65,66,67,68,65,66,67,68,65,66,67,68,1,1,3,1,3,1,1,1,1,1,1,1,1,1,1,1,1,1,1,1,1,1,3,1,1,1,10,1,1,1,1,3,1,18,1,1,1,1,1,1,3,1,1,1,1,1,18,
1,3,10,1,1,18,1,1,1,3,10,1,1,1,3,1,1,1,1,18,1,1,1,1,18,1,1,1,25,1,1,3,1,1,10,18,1,3,3,1,3,1,67,68,65,66,67,68,65,66,67,68,65,66,67,68,65,66,67,68,65,66,67,68,1,1,10,1,1,1,18,3,1,1,1,1,1,1,1,1,18,18,1,1,1,3,1,1,1,10,1,1,1,1,3,1,1,58,59,61,58,10,1,3,1,1,1,10,1,10,3,68,65,66,67,68,65,66,67,68,65,66,67,68,65,66,67,68,65,66,67,68,65,1,1,1,10,18,1,1,1,18,18,1,1,1,1,10,3,1,1,1,1,1,1,1,3,10,1,1,1,1,1,1,1,10,1,1,1,1,1,18,1,1,1,18,1,3,10,1,
1,1,1,1,1,1,1,1,1,1,1,1,1,10,1,18,1,1,1,1,18,3,1,1,10,3,3,25,1,1,10,1,1,1,1,1,18,1,18,1,1,3,68,65,66,67,68,65,66,67,68,65,66,67,68,65,66,67,68,65,66,67,68,65,1,1,10,10,1,1,1,1,3,1,3,1,1,1,1,10,1,1,3,1,1,3,1,1,1,1,3,1,3,1,1,1,57,59,60,57,1,1,1,1,1,3,1,3,1,3,10,65,66,67,68,65,66,67,68,65,66,67,68,65,66,67,68,65,66,67,68,65,66,1,1,1,1,1,1,18,1,1,1,1,1,1,1,1,10,3,18,1,1,1,1,18,18,1,1,1,18,1,1,1,1,1,1,1,1,1,1,1,1,3,1,25,18,25,25,25,
10,1,1,1,1,18,1,1,18,1,1,3,1,18,1,1,1,1,1,3,3,10,1,1,1,3,10,25,3,1,18,1,1,1,1,1,18,1,1,1,1,1,65,66,67,68,65,66,67,68,65,66,67,68,65,66,67,68,65,66,67,68,65,66,1,1,18,1,1,1,1,1,3,1,1,3,1,1,1,1,1,1,1,1,1,1,1,1,1,1,1,1,1,3,1,61,58,60,61,1,1,3,1,1,1,1,18,1,1,1,1,66,67,68,65,66,67,68,65,66,67,68,65,66,67,68,65,66,67,68,65,66,67,1,1,1,18,1,1,1,1,1,1,1,1,10,1,1,1,18,1,1,1,1,1,1,1,1,1,1,1,1,3,1,1,1,1,1,1,1,1,1,1,3,1,25,25,1,25,25,
1,1,1,3,1,1,10,1,1,1,1,1,1,1,1,1,1,1,1,1,1,1,1,18,3,1,3,10,1,1,1,18,1,3,1,1,1,3,1,1,1,1,1,1,1,3,1,58,59,60,61,3,1,10,1,18,1,1,1,10,1,1,10,1,1,25,10,1,1,1,1,3,1,1,10,1,1,1,18,1,1,3,1,18,1,1,1,1,1,1,1,1,1,10,60,57,59,1,1,3,1,1,1,10,10,1,18,1,1,1,1,67,68,65,66,67,68,65,66,67,68,65,66,67,68,65,66,67,68,65,66,67,68,1,1,1,1,1,1,10,1,1,1,1,1,1,1,3,1,10,1,1,1,1,1,3,1,1,1,1,1,18,10,1,1,3,1,1,1,1,18,1,3,1,10,1,18,1,1,1,
1,1,1,1,18,1,1,1,3,1,1,10,10,1,1,1,1,10,1,1,10,1,1,18,1,1,1,1,1,1,1,1,18,1,1,1,1,18,1,1,1,1,1,59,60,61,57,59,60,61,57,57,58,59,60,1,1,1,1,1,18,1,1,1,1,10,25,1,10,1,1,1,1,1,3,1,1,1,1,3,18,1,1,1,1,18,10,1,1,10,1,10,1,59,61,58,18,1,1,10,1,1,1,10,1,1,1,1,1,18,3,68,65,66,67,68,65,66,67,68,65,66,67,68,65,66,67,68,65,66,67,68,65,10,1,1,1,1,1,3,1,1,3,1,1,3,3,3,10,3,3,1,1,1,1,1,1,1,18,1,1,1,1,1,10,1,10,58,59,60,61,57,58,59,60,61,57,1,1,1,
1,1,1,1,10,1,10,1,3,1,10,1,1,1,1,1,1,1,1,10,1,1,1,1,1,18,18,1,1,1,18,10,1,10,1,1,1,3,1,18,10,57,58,60,61,57,58,60,61,57,58,58,59,60,61,61,57,18,1,1,18,1,1,18,1,1,1,1,3,3,1,1,1,1,1,1,3,3,1,1,1,18,1,1,1,1,18,10,1,1,1,1,58,60,57,1,1,18,1,1,25,25,25,1,1,1,1,3,1,18,1,1,10,1,18,1,1,1,10,1,1,18,1,1,1,58,58,58,1,1,1,1,1,1,1,1,1,1,1,1,1,1,1,18,1,3,1,1,1,1,18,1,1,1,1,18,10,18,18,10,1,1,10,1,3,61,57,59,60,61,57,58,59,60,61,57,58,58,59,60,
1,1,1,1,10,1,18,1,1,1,1,1,1,18,3,1,3,3,1,1,1,1,3,1,3,1,1,1,1,1,1,1,1,10,3,1,1,1,1,60,61,58,59,61,57,58,59,1,1,1,1,59,60,61,57,57,58,58,59,25,1,1,1,10,1,1,1,1,1,1,1,1,1,1,1,1,1,1,1,1,18,1,1,18,1,1,1,18,1,1,18,57,59,61,1,1,10,1,1,1,25,25,1,1,3,1,1,10,10,1,1,1,1,1,1,3,1,10,1,1,18,1,1,18,1,1,59,59,59,60,1,1,3,18,1,1,1,1,1,1,1,1,1,1,1,1,3,1,3,1,3,1,3,1,1,1,1,18,1,1,1,3,1,59,60,57,58,60,61,57,58,59,60,61,57,58,59,59,60,61,
58,1,1,1,1,18,18,3,3,1,1,1,1,1,1,1,1,1,1,1,1,1,1,10,1,1,3,1,3,1,1,10,18,1,10,1,3,10,59,61,57,59,60,1,1,10,18,1,1,1,10,1,3,1,3,58,59,59,60,60,61,1,1,1,1,1,10,1,1,3,1,18,1,1,1,1,1,1,1,1,1,1,1,1,1,1,1,3,10,1,61,58,60,1,1,1,1,1,1,1,1,1,1,1,1,3,1,1,1,1,1,1,1,1,1,1,1,18,1,1,1,1,1,18,1,1,1,60,60,61,61,1,25,1,25,25,25,1,1,3,10,1,18,1,3,1,1,1,1,1,18,1,1,1,1,1,1,1,1,1,1,57,58,60,61,58,59,3,1,1,3,1,3,1,1,1,1,60,61,57,
57,57,1,1,1,1,3,1,1,1,10,1,1,1,1,1,1,18,1,1,1,1,1,1,1,1,1,10,1,1,1,1,1,1,3,1,57,58,60,57,58,1,1,1,1,18,10,10,1,1,25,25,25,25,10,3,1,60,61,61,57,57,58,1,1,1,10,10,1,1,18,1,1,1,1,1,1,1,1,1,1,1,1,1,10,18,1,1,1,60,57,59,1,1,1,1,1,1,1,1,1,1,1,1,10,1,3,1,3,18,1,3,1,1,18,18,1,1,1,1,1,10,1,1,1,10,1,1,61,57,57,57,25,25,25,25,25,1,10,1,3,1,1,1,1,1,3,1,10,1,1,1,1,1,1,1,1,1,1,60,61,58,59,61,57,1,1,1,1,1,1,1,3,1,1,10,3,1,1,1,
58,58,58,1,1,1,1,1,1,10,1,1,1,1,10,10,1,1,1,18,1,1,1,1,1,1,1,1,1,1,1,1,1,1,1,61,58,59,61,1,1,1,1,10,1,1,1,1,1,18,25,25,25,25,1,1,1,1,1,57,58,58,59,59,1,1,3,1,1,1,1,1,1,1,10,1,1,10,10,1,1,1,3,1,1,10,10,58,59,61,58,1,1,1,1,1,1,1,1,18,1,1,1,1,1,3,1,10,10,1,1,3,1,1,1,10,1,10,3,18,1,10,1,1,18,1,1,1,1,1,58,58,58,1,1,1,1,1,1,1,1,1,1,1,1,1,3,1,10,18,1,3,1,1,1,3,18,25,59,61,57,59,60,1,1,1,1,1,1,1,18,1,1,1,1,1,1,1,1,1,
1,59,59,59,1,1,1,1,1,1,1,1,1,1,1,1,1,1,1,1,1,1,18,1,1,1,1,1,1,1,1,1,1,3,60,57,59,60,1,1,1,1,1,1,1,1,1,1,1,18,25,1,25,1,25,1,1,1,1,10,10,59,60,60,60,61,1,1,1,1,1,1,1,1,1,3,18,1,3,1,1,3,1,1,1,1,57,59,60,57,10,1,1,1,18,1,1,18,1,1,1,3,1,1,18,1,10,1,1,18,1,18,10,1,1,1,1,1,1,1,1,1,3,1,1,1,1,1,1,1,1,59,59,59,1,3,1,1,1,1,1,1,1,18,1,1,1,18,1,1,1,1,1,1,1,1,57,58,60,57,58,1,1,10,1,1,1,18,1,1,1,1,3,10,1,1,1,1,1,3,
1,1,60,60,60,1,1,1,1,1,1,1,1,1,1,1,18,18,1,1,3,1,1,1,1,1,1,1,1,3,1,1,58,59,61,58,1,1,1,1,3,1,10,1,1,1,1,3,1,1,1,1,1,1,1,1,1,3,1,1,1,1,1,61,61,57,57,58,1,1,1,1,10,1,1,1,1,1,1,1,3,1,1,1,60,61,58,60,61,1,1,3,1,1,1,1,1,1,1,1,1,10,1,1,1,10,18,1,1,1,1,1,1,1,18,1,1,18,1,1,1,18,1,1,3,1,1,1,1,1,1,10,60,60,60,61,18,1,1,1,1,1,3,1,1,1,1,1,1,1,1,1,1,1,60,61,58,59,61,25,25,1,1,1,10,1,1,10,1,1,10,1,1,3,3,1,1,1,3,1,
1,1,1,61,61,61,1,1,1,1,1,10,10,1,1,10,18,3,1,1,1,1,1,1,1,1,18,1,1,1,3,57,59,60,57,1,1,1,1,1,1,1,1,1,1,10,1,10,1,1,1,1,1,1,1,18,18,1,1,1,1,1,1,1,57,58,58,59,59,60,25,25,25,1,1,1,1,1,1,1,1,1,58,59,61,57,59,1,10,1,1,1,1,1,1,1,1,1,10,1,3,3,1,1,1,1,1,3,1,3,1,1,1,1,3,1,1,1,1,1,1,1,1,1,1,1,1,1,1,1,1,1,1,61,61,57,57,1,3,3,1,1,1,3,1,1,1,1,1,18,1,1,58,59,61,57,59,60,3,1,1,10,1,18,1,1,1,1,1,1,18,1,1,1,1,1,1,1,1,1,
1,1,1,1,57,57,57,1,1,1,1,1,1,10,1,1,1,3,1,1,1,1,1,1,1,1,1,1,1,1,61,58,60,61,10,1,1,1,1,1,1,1,1,1,1,10,1,1,1,1,1,1,1,1,1,1,1,1,3,10,1,10,3,1,1,1,59,60,60,61,61,57,58,1,1,1,1,1,1,1,61,57,59,60,57,58,1,25,1,1,1,1,1,1,1,10,1,1,1,1,1,1,1,1,10,1,1,1,3,1,1,10,3,18,1,1,1,1,1,1,1,10,1,18,1,1,1,1,1,1,1,10,1,1,57,58,58,58,59,10,1,1,1,1,3,1,1,1,1,1,61,57,59,60,57,58,3,10,1,1,1,1,10,1,1,1,1,1,1,25,1,1,1,1,1,1,1,1,1,1,
1,1,1,1,1,58,58,58,59,1,1,1,1,1,1,1,1,18,1,1,1,18,1,1,1,1,1,1,59,60,57,59,1,18,1,1,1,1,1,1,3,1,1,1,1,1,1,18,1,1,1,1,1,1,1,1,18,10,1,1,1,1,1,1,1,1,1,18,61,57,57,58,59,59,60,61,57,58,59,60,57,58,60,61,1,25,25,25,1,3,1,1,1,10,1,1,10,18,18,3,1,1,1,18,3,18,10,1,1,1,1,1,1,1,10,1,3,1,1,1,1,18,3,10,1,18,18,1,1,1,1,1,1,1,1,1,59,59,60,60,61,57,58,18,1,1,57,58,59,60,57,58,60,61,1,10,18,1,10,1,1,3,1,3,18,1,1,1,1,1,1,1,3,1,3,3,1,1,1,1,
1,1,1,1,1,1,59,59,60,60,10,10,1,1,3,1,3,1,1,1,1,1,1,1,1,1,1,58,60,61,58,1,3,1,1,1,1,1,1,1,1,3,10,18,1,18,1,3,1,1,1,1,1,1,10,1,1,1,3,1,1,10,18,1,1,1,1,1,1,1,58,59,60,60,61,57,58,59,60,61,58,59,1,1,1,25,25,1,1,1,1,1,1,3,1,1,1,3,1,1,18,1,18,1,1,1,1,3,1,3,3,10,1,1,1,10,10,1,1,1,1,1,1,1,1,1,1,1,10,18,1,1,1,1,10,1,1,60,61,61,57,58,59,59,60,61,58,59,60,61,58,59,1,1,18,1,1,1,1,1,1,1,10,3,18,10,1,1,1,1,3,1,1,1,1,1,10,1,1,1,
1,1,1,1,1,1,1,60,61,61,61,57,1,1,10,1,1,1,1,1,1,1,1,10,1,61,57,59,61,57,1,1,1,1,1,18,1,3,1,1,1,1,1,1,1,3,10,18,1,10,3,1,1,1,10,1,3,1,1,1,1,1,1,1,1,1,1,1,1,1,3,1,1,61,57,58,59,60,61,57,1,1,1,1,1,1,1,1,1,18,1,1,1,10,3,10,1,1,10,1,18,1,1,1,18,1,1,18,1,1,1,3,1,10,3,1,1,1,1,1,18,1,1,1,3,1,1,1,1,1,1,1,1,1,1,1,18,3,1,57,58,59,60,60,61,57,59,60,61,57,1,1,1,18,1,10,1,1,1,1,1,1,1,1,1,1,1,3,1,1,1,18,1,18,1,1,1,1,18,1,
1,1,1,1,1,1,1,1,1,57,57,58,58,59,1,1,10,1,1,1,1,1,1,59,60,57,58,60,1,1,18,18,1,18,1,1,1,3,1,1,1,1,1,1,1,10,1,1,18,1,18,1,1,18,1,1,1,1,1,3,1,1,1,18,1,1,1,1,1,1,1,1,1,1,1,1,1,1,1,10,1,1,1,3,1,10,1,1,1,1,1,1,1,18,3,18,1,1,1,1,1,3,10,1,1,1,1,10,1,1,1,1,1,1,1,1,1,3,1,1,10,1,10,1,1,3,1,1,1,1,1,1,3,1,1,1,1,10,1,10,1,3,3,61,57,58,1,1,1,3,1,3,1,1,1,1,1,1,1,1,1,1,1,1,10,1,1,1,1,1,1,1,1,18,1,1,1,1,3,1,
1,1,1,10,1,1,10,1,1,1,58,59,59,60,60,61,57,58,65,66,67,68,65,66,67,68,65,66,67,68,65,66,67,68,65,66,67,68,10,10,1,1,1,10,10,1,10,1,1,1,1,1,1,10,1,1,18,1,1,1,1,1,1,10,1,1,1,1,1,3,1,1,18,18,1,1,1,1,1,1,1,1,1,1,1,1,1,1,1,18,10,1,18,3,3,1,1,10,1,1,1,1,3,18,1,18,1,1,1,1,1,10,3,10,1,10,1,1,1,1,1,1,1,1,10,1,1,1,1,1,1,1,10,1,18,10,10,18,1,1,10,1,10,18,10,1,1,1,67,68,65,66,67,68,65,66,67,68,65,66,67,68,65,66,67,68,65,66,67,68,65,66,1,1,1,3,1,25,1,25,
10,1,1,3,1,1,3,1,1,1,1,1,60,61,61,57,58,59,66,67,68,65,66,67,68,65,66,67,68,65,66,67,68,65,66,67,68,65,1,1,1,1,1,18,1,1,1,1,1,1,1,1,1,1,1,1,1,1,1,1,10,10,1,1,1,1,1,3,1,1,3,1,1,18,1,1,1,1,1,1,1,1,1,1,1,1,1,1,1,1,1,3,1,1,1,1,3,1,1,10,1,1,1,1,1,1,18,1,18,1,1,3,1,1,18,1,1,3,1,18,1,1,1,1,1,1,10,1,10,3,1,1,1,1,1,1,1,1,1,1,1,1,1,1,18,1,10,1,68,65,66,67,68,65,66,67,68,65,66,67,68,65,66,67,68,65,66,67,68,65,66,67,1,1,1,1,1,25,25,25,
1,1,1,10,1,1,1,10,3,1,1,1,10,1,57,58,59,60,67,68,65,66,67,68,65,66,67,68,65,66,67,68,65,66,67,68,65,66,1,1,18,1,3,1,1,1,1,10,1,1,1,1,18,1,1,1,1,3,1,1,1,1,1,18,1,1,10,3,1,1,1,1,10,1,1,1,1,1,1,1,1,18,1,68,65,66,67,68,65,66,67,68,65,66,67,68,65,66,67,68,65,66,67,68,65,66,67,10,25,25,25,1,1,1,3,1,1,1,1,1,1,3,1,1,1,1,18,1,1,1,1,10,1,1,1,1,1,1,1,1,18,1,1,1,18,1,1,1,65,66,67,68,65,66,67,68,65,66,67,68,65,66,67,68,65,66,67,68,65,66,67,68,1,1,1,10,25,3,25,25,
1,1,1,1,1,1,10,3,1,1,1,1,1,10,1,1,1,1,68,65,66,67,68,65,66,67,68,65,66,67,68,65,66,67,68,65,66,67,3,1,3,1,1,3,3,10,1,1,1,1,1,1,1,1,1,10,1,1,1,1,1,1,1,18,1,1,1,1,3,1,1,1,1,1,1,1,1,1,18,1,10,1,1,65,66,67,68,65,66,67,68,65,66,67,68,65,66,67,68,65,66,67,68,65,66,67,68,10,1,1,1,1,1,1,18,18,10,1,1,1,1,3,18,1,1,1,3,3,10,1,1,1,1,1,1,1,1,18,1,3,1,1,1,1,1,1,1,1,66,67,68,65,66,67,68,65,66,67,68,65,66,67,68,65,66,67,68,65,66,67,68,65,1,1,1,1,1,1,1,3,
1,1,1,3,10,18,1,1,18,1,3,1,1,1,1,1,1,10,65,66,67,68,65,66,67,68,65,66,67,68,65,66,67,68,65,66,67,68,1,1,1,1,18,1,1,1,1,1,10,1,1,1,1,1,1,1,1,1,1,1,3,1,10,1,1,1,3,1,1,1,1,1,18,1,3,1,1,10,1,1,18,18,1,66,67,68,65,66,67,68,65,66,67,68,65,66,67,68,65,66,67,68,65,66,67,68,65,1,1,1,1,10,1,1,1,18,1,1,1,10,1,1,1,1,1,1,1,1,1,1,1,1,1,1,3,1,1,1,1,1,3,3,18,1,1,1,1,10,67,68,65,66,67,68,65,66,67,68,65,66,67,68,65,66,67,68,65,66,67,68,65,66,1,1,1,1,3,1,1,1,
1,1,1,18,1,18,18,1,1,1,1,1,1,1,3,1,1,1,66,67,68,65,66,67,68,65,66,67,68,65,66,67,68,65,66,67,68,65,1,1,1,1,1,1,10,1,10,1,1,1,1,1,1,1,1,1,1,1,1,1,1,3,1,3,1,1,10,18,3,3,3,1,1,10,3,10,1,1,18,18,1,1,1,67,68,65,66,67,68,65,66,67,68,65,66,67,68,65,66,67,68,65,66,67,68,65,66,1,1,10,1,1,18,1,10,1,1,1,1,3,18,1,1,1,1,3,1,1,1,3,1,1,1,1,3,1,1,18,3,1,1,1,3,3,1,1,1,1,68,65,66,67,68,65,66,67,68,65,66,67,68,65,66,67,68,65,66,67,68,65,66,67,1,1,1,10,1,1,1,1,
1,1,1,10,1,1,3,1,1,1,1,18,1,1,1,18,1,1,67,68,65,66,67,68,65,66,67,68,65,66,67,68,65,66,67,68,65,66,1,3,1,1,1,10,1,1,1,1,18,1,1,1,1,1,1,1,1,1,1,1,1,1,1,1,1,1,3,1,18,3,3,1,1,1,1,3,1,25,1,25,25,25,10,68,65,66,67,68,65,66,67,68,65,66,67,68,65,66,67,68,65,66,67,68,65,66,67,1,1,1,18,1,3,1,1,1,3,1,1,3,3,10,1,1,1,1,3,3,1,18,3,1,1,1,10,10,1,1,1,1,1,3,1,18,1,10,1,10,65,66,67,68,65,66,67,68,65,66,67,68,65,66,67,68,65,66,67,68,65,66,67,68,10,1,10,3,1,1,1,1,
1,1,1,1,1,1,10,1,1,1,1,1,1,1,1,3,1,3,68,65,66,67,68,65,66,67,68,65,66,67,68,65,66,67,68,65,66,67,1,1,1,1,1,1,3,1,1,18,1,10,1,1,1,1,1,3,1,1,1,25,25,25,1,10,10,3,1,10,10,1,1,1,1,1,1,1,18,1,1,1,1,1,1,65,66,67,68,65,66,67,68,65,66,67,68,65,66,67,68,65,66,67,68,65,66,67,68,1,1,1,1,1,1,1,1,3,1,1,10,1,1,3,1,1,1,1,1,1,1,10,1,1,3,1,1,1,1,1,1,1,1,1,1,1,1,1,1,1,66,67,68,65,66,67,68,65,66,67,68,65,66,67,68,65,66,67,68,65,66,67,68,65,1,10,1,1,3,1,1,1,
1,1,1,1,1,1,1,18,1,1,1,1,25,25,25,1,1,1,65,66,67,68,65,66,67,68,65,66,67,68,65,66,67,68,65,66,67,68,1,1,1,1,1,3,1,1,1,1,1,1,3,1,1,1,1,1,1,10,25,1,25,25,25,1,1,3,1,1,1,1,1,1,3,1,1,1,3,1,1,1,1,1,1,66,67,68,65,66,67,68,65,66,67,68,65,66,67,68,65,66,67,68,65,66,67,68,65,1,1,1,1,18,1,1,3,1,1,1,1,1,1,1,1,1,1,1,1,1,1,1,1,1,1,3,18,3,1,1,18,18,1,1,1,10,1,1,3,1,67,68,65,66,67,68,65,66,67,68,65,66,67,68,65,66,67,68,65,66,67,68,65,66,18,3,1,1,10,1,1,18,
1,1,1,1,1,1,1,1,1,1,1,1,3,18,1,10,1,3,1,1,3,1,1,1,1,18,1,1,1,18,1,1,1,3,1,1,3,1,18,1,1,1,1,1,1,3,18,1,1,1,1,1,1,1,1,1,1,1,1,1,1,1,1,1,1,18,1,1,1,1,1,3,1,1,1,1,3,1,10,3,1,1,1,67,68,65,66,67,68,65,66,67,68,65,66,67,68,65,66,67,68,65,66,67,68,65,66,1,1,1,1,1,1,1,1,1,18,18,1,1,1,1,1,1,1,1,1,3,3,1,10,1,1,18,1,1,3,3,10,1,1,1,1,10,1,18,1,1,68,65,66,67,68,65,66,67,68,65,66,67,68,65,66,67,68,65,66,67,68,65,66,67,1,3,18,3,1,1,1,1,
1,3,1,18,10,3,1,1,18,1,10,1,1,1,18,1,10,10,25,25,1,25,25,1,1,1,1,1,1,1,1,1,18,1,10,3,10,10,1,1,1,1,10,1,1,1,1,3,1,1,1,1,1,1,1,1,1,3,1,1,1,1,1,1,1,1,10,1,3,10,1,18,10,10,1,3,10,1,1,1,1,1,1,68,65,66,67,68,65,66,67,68,65,66,67,68,65,66,67,68,65,66,67,68,65,66,67,1,1,1,1,1,1,1,1,1,1,1,1,1,3,1,1,1,1,1,1,1,1,1,1,3,10,3,1,1,1,3,1,1,3,1,1,1,1,3,10,1,1,1,18,1,1,1,1,1,1,1,25,1,10,1,1,1,3,1,1,3,1,1,1,18,1,10,1,1,1,1,1,3,
3,1,1,1,3,1,1,1,1,3,1,1,1,10,1,1,10,10,25,25,25,25,25,1,3,1,1,1,18,1,1,1,1,1,1,1,1,1,3,1,1,1,18,1,18,1,1,1,1,3,1,18,1,1,1,1,1,1,1,1,3,1,1,1,1,1,3,1,1,1,1,1,1,1,10,1,1,1,1,1,1,1,3,65,66,67,68,65,66,67,68,65,66,67,68,65,66,67,68,65,66,67,68,65,66,67,68,1,1,1,3,1,1,1,1,1,1,1,1,1,18,10,1,18,1,1,1,18,1,1,1,3,1,1,1,1,1,1,18,1,1,10,18,10,25,25,25,25,1,1,1,1,1,1,1,1,1,18,25,25,3,25,1,1,18,1,1,1,1,1,3,1,18,1,1,1,1,1,1,1,
1,1,1,1,1,1,1,1,10,1,1,18,3,1,1,10,10,1,25,25,25,25,25,1,1,1,1,1,10,1,1,1,1,1,1,1,1,10,1,1,1,1,1,1,1,1,1,1,18,3,18,18,1,1,3,10,10,10,1,10,10,3,1,1,1,10,1,1,10,3,1,18,1,1,18,1,18,1,1,1,1,3,1,1,1,18,1,10,3,1,10,1,1,1,1,1,1,10,1,1,1,1,1,1,1,1,18,3,1,3,25,25,25,25,1,10,1,1,1,1,1,1,1,10,1,10,1,1,1,1,1,1,1,1,1,18,10,1,1,1,1,3,1,1,1,25,1,25,1,3,1,1,1,1,1,1,1,1,1,25,25,1,1,18,1,3,1,10,1,1,1,1,1,3,1,1,10,1,3,18,
1,1,1,3,1,1,1,1,1,1,1,1,10,3,1,1,1,3,1,1,1,1,1,1,1,1,1,18,1,1,1,1,1,1,1,1,10,1,1,18,1,1,1,1,1,1,10,1,1,1,1,1,1,1,18,1,1,3,1,1,3,1,1,1,1,1,1,3,1,1,1,1,1,1,1,1,1,1,18,1,1,1,18,1,1,1,1,1,1,1,1,10,3,1,10,1,10,1,25,1,25,3,25,3,1,1,3,10,1,1,25,25,1,25,1,1,1,1,1,1,1,1,1,1,1,3,10,1,1,1,18,1,3,1,1,18,1,1,1,1,10,1,1,1,1,1,1,1,1,1,3,1,3,1,1,1,1,1,1,1,10,1,1,1,10,1,1,3,1,1,10,1,1,3,1,1,18,1,1,1,
3,1,18,1,18,1,3,1,1,1,18,1,1,1,1,1,3,1,1,3,3,1,1,1,1,1,1,1,1,1,3,10,10,1,1,1,1,1,1,10,1,1,1,1,1,1,1,1,18,18,1,1,1,1,1,3,1,1,3,1,1,1,1,3,1,1,1,1,1,3,1,1,1,1,1,1,1,1,1,1,1,3,1,1,3,1,3,1,18,1,10,10,10,1,1,1,1,3,10,1,1,1,10,10,1,1,1,1,1,1,25,25,25,25,1,1,1,1,1,1,10,1,1,1,1,18,10,1,1,1,1,1,18,1,1,10,1,1,1,1,1,1,1,1,1,1,1,1,10,10,1,1,1,1,1,10,1,10,1,1,1,1,1,1,1,1,1,1,1,3,1,1,1,1,1,1,1,1,1,3,
1,1,1,1,1,1,1,1,18,10,1,1,1,3,1,1,1,1,1,1,1,1,1,3,1,1,18,10,1,1,18,10,1,1,1,1,1,1,1,1,3,18,1,1,3,1,10,1,1,1,3,3,1,1,3,1,1,25,1,10,1,1,10,10,3,1,3,1,1,1,1,1,1,1,10,1,1,1,1,1,1,1,1,1,10,1,18,1,1,1,1,1,1,1,1,10,10,1,1,1,1,1,1,10,1,1,1,1,1,1,1,1,1,1,1,1,1,1,3,3,1,1,10,1,3,18,3,18,10,1,1,1,1,1,3,18,1,18,1,1,1,1,1,1,1,1,1,1,1,1,1,3,1,1,1,1,1,1,10,1,1,1,1,10,1,1,1,1,1,1,1,1,1,1,1,1,18,1,1,1,
1,1,10,1,1,1,1,1,1,1,10,1,1,1,10,1,1,1,1,1,1,1,10,1,10,1,1,1,3,3,1,18,10,1,10,1,1,18,1,1,1,3,1,1,18,1,1,1,1,1,3,1,1,1,1,1,10,18,25,1,1,1,18,1,3,18,1,1,1,18,18,1,1,1,1,1,1,1,1,1,1,1,3,1,1,18,1,1,10,1,1,3,1,1,1,1,1,1,1,1,1,25,25,25,25,25,1,1,1,10,1,10,1,1,1,1,1,1,1,18,1,1,1,1,1,1,1,1,1,1,18,1,1,1,1,1,1,1,1,1,1,1,1,1,1,1,3,1,1,1,1,1,10,1,3,1,1,1,1,1,1,1,1,3,1,1,1,1,1,1,18,1,1,3,1,3,10,1,1,1,
1,1,10,10,1,1,1,1,1,18,1,1,1,1,3,1,1,1,1,1,1,1,18,1,3,1,1,1,1,1,1,1,1,1,1,1,1,3,1,18,10,1,1,1,1,1,1,1,1,1,1,3,1,1,18,1,3,25,25,3,3,1,1,1,1,1,3,10,18,3,10,1,1,1,1,3,1,1,1,1,1,1,3,1,1,1,1,1,1,1,10,1,1,1,1,10,1,3,3,1,1,25,25,25,25,1,1,1,1,1,10,1,18,1,1,1,1,1,1,3,18,1,1,1,1,1,1,10,1,3,1,1,1,1,1,1,3,1,1,1,1,1,1,1,1,3,3,1,1,1,1,1,1,1,10,1,1,1,18,1,1,1,1,18,1,3,1,1,3,10,1,1,3,3,1,1,1,1,1,3,
1,1,10,1,1,1,1,1,18,3,3,1,1,1,10,1,1,1,1,1,3,1,3,1,1,1,1,10,1,1,1,1,1,1,1,1,1,18,1,1,1,1,1,1,18,1,10,1,1,1,18,18,18,1,1,1,3,1,10,1,1,1,1,25,25,25,18,1,1,10,1,3,1,1,1,1,10,1,1,1,1,1,1,1,1,10,1,3,1,3,1,1,1,1,1,1,1,1,18,1,1,1,1,1,1,1,1,1,1,18,1,1,18,18,1,1,1,18,10,1,1,3,3,1,1,1,1,1,1,1,1,1,1,1,1,1,1,10,1,1,3,1,18,1,1,1,1,1,1,1,10,1,18,1,1,1,1,3,1,1,1,1,1,1,1,1,10,1,1,1,1,1,1,1,1,1,1,1,1,1,
1,1,1,1,10,18,1,1,18,1,1,1,3,1,3,1,1,1,1,1,1,3,1,1,1,1,1,10,1,1,1,1,3,1,1,1,1,1,1,18,1,3,18,1,18,1,1,1,1,1,1,1,1,1,3,1,1,1,1,1,1,1,1,25,25,25,1,3,1,1,1,1,1,1,1,1,1,1,1,1,1,1,1,1,1,1,3,1,1,1,1,10,1,1,3,1,1,3,1,10,18,1,1,1,1,18,1,1,1,1,18,1,1,1,1,1,1,1,3,1,10,10,1,3,10,1,1,1,3,1,18,18,1,1,1,3,1,1,1,1,1,1,1,10,18,1,3,18,1,3,1,1,1,1,1,1,1,1,1,10,1,1,1,1,1,1,1,1,25,25,25,25,1,1,1,1,1,1,25,25,
1,1,3,3,1,1,1,1,1,1,1,3,1,3,1,1,1,10,1,1,1,1,1,1,1,1,1,1,1,25,25,1,18,1,1,1,1,1,1,1,1,1,10,18,3,3,1,1,1,1,1,1,10,3,3,3,1,1,3,1,1,1,1,25,1,25,1,1,18,1,1,1,1,1,1,1,1,3,1,18,1,1,1,18,1,1,1,10,1,3,1,1,1,1,1,1,1,18,1,3,1,1,1,1,10,3,1,1,1,3,1,1,18,1,1,1,1,1,1,1,1,10,1,1,1,1,1,1,1,1,1,1,1,3,1,1,1,3,1,1,1,1,25,25,25,25,25,1,1,10,1,18,1,1,1,10,1,1,1,1,1,1,1,1,18,3,1,10,25,25,1,25,25,1,1,1,1,1,25,25,
3,1,1,18,1,10,1,1,1,1,1,1,1,1,1,1,1,1,1,1,1,1,1,1,1,1,1,1,10,1,1,1,1,25,1,25,25,1,3,10,1,1,1,1,18,10,1,1,1,1,1,1,10,1,1,1,1,1,1,3,1,18,1,1,10,1,1,1,1,1,1,1,1,1,1,1,10,3,1,1,1,1,1,1,1,1,1,1,10,1,1,1,3,1,1,1,1,18,1,1,3,3,1,1,1,18,1,1,1,1,1,1,1,1,1,10,1,1,3,1,1,1,1,1,1,1,1,1,1,3,1,1,10,1,1,1,1,10,1,1,1,1,25,25,25,25,25,1,1,1,1,1,18,1,1,1,10,1,10,1,10,1,1,1,25,25,25,1,25,25,25,25,25,1,1,10,1,1,3,1
  </data>
 </layer>
 <layer id="2" name="Path_Details" width="180" height="64" visible="1">
  <data encoding="csv">
0,0,0,0,0,0,0,0,0,0,0,0,0,0,0,0,0,0,0,0,0,0,0,0,0,0,0,0,0,0,0,0,0,0,0,0,0,0,0,0,0,0,0,0,0,0,0,0,0,0,0,0,0,0,0,0,0,0,0,0,0,0,0,0,0,0,0,0,0,0,0,0,0,0,0,0,0,0,0,0,0,0,0,0,0,0,0,0,0,0,0,0,0,0,0,0,0,0,0,0,0,0,0,0,0,0,0,0,0,0,0,0,0,0,0,0,0,0,0,0,0,0,0,0,0,0,0,0,0,0,0,0,0,0,0,0,0,0,0,0,0,0,0,0,0,0,0,0,0,0,0,0,0,0,0,0,0,0,0,0,0,0,0,0,0,0,0,0,0,0,0,0,0,0,0,0,0,0,0,0,
0,0,0,0,0,0,0,0,0,0,0,0,0,0,0,0,0,0,0,0,0,0,0,0,0,0,0,0,0,0,0,0,0,0,0,0,0,0,0,0,0,0,0,0,0,0,0,0,0,0,0,0,0,0,0,0,0,0,0,0,0,0,0,0,0,0,0,0,0,0,0,0,0,0,0,0,0,0,0,0,0,0,0,0,0,0,0,0,0,0,0,0,0,0,0,0,0,0,0,0,0,0,0,0,0,0,0,0,0,0,0,0,0,0,0,0,0,0,0,0,0,0,0,0,0,0,0,0,0,0,0,0,0,0,0,0,0,0,0,0,0,0,0,0,0,0,0,0,0,0,0,0,0,0,0,0,0,0,0,0,0,0,0,0,0,0,0,0,0,0,0,0,0,0,0,0,0,0,0,0,
0,0,0,0,0,0,0,0,0,0,0,0,0,0,0,0,0,0,0,0,0,0,0,0,0,0,0,0,0,0,0,0,0,0,0,0,0,0,0,0,0,0,0,0,0,0,0,0,0,0,0,0,0,0,0,0,0,0,0,0,0,0,0,0,0,0,0,0,0,0,0,0,0,0,0,0,0,0,0,0,0,0,0,0,0,0,0,0,0,0,0,0,0,0,0,0,0,0,0,0,0,0,0,0,0,0,0,0,0,0,0,0,0,0,0,0,0,0,0,0,0,0,0,0,0,0,0,0,0,0,0,0,0,0,0,0,0,0,0,0,0,0,0,0,0,0,0,0,0,0,0,0,0,0,0,0,0,0,0,0,0,0,0,0,0,0,0,0,0,0,0,0,0,0,0,0,0,0,0,0,
0,0,0,0,0,0,0,0,0,0,0,0,0,0,0,0,0,0,0,0,0,0,0,0,0,0,0,0,0,0,0,0,0,0,0,0,0,0,0,0,0,0,0,0,0,0,0,0,0,0,0,0,0,0,0,0,0,0,0,0,0,0,0,0,0,0,0,0,0,0,0,0,0,0,0,0,0,0,0,0,0,0,0,0,0,0,0,0,0,0,0,0,0,0,0,0,0,0,0,0,0,0,0,0,0,0,0,0,0,0,0,0,0,0,0,0,0,0,0,0,0,0,0,0,0,0,0,0,0,0,0,0,0,0,0,0,0,0,0,0,0,0,0,0,0,0,0,0,0,0,0,0,0,0,0,0,0,0,0,0,0,0,0,0,0,0,0,0,0,0,0,0,0,0,0,0,0,0,0,0,
0,0,0,0,0,0,0,0,0,0,0,0,0,0,0,0,0,0,0,0,0,0,0,0,0,0,0,0,0,0,0,0,0,0,0,0,0,0,0,0,0,0,0,0,0,0,0,0,0,0,0,0,0,0,0,0,0,0,0,0,0,0,0,0,0,0,0,0,0,0,0,0,0,0,0,0,0,0,0,0,0,0,0,0,0,0,0,0,0,0,0,0,0,0,0,0,0,0,0,0,0,0,0,0,0,0,0,0,0,0,0,0,0,0,0,0,0,0,0,0,0,0,0,0,0,0,0,0,0,0,0,0,0,0,0,0,0,0,0,0,0,0,0,0,0,0,0,0,0,0,0,0,0,0,0,0,0,0,0,0,0,0,0,0,0,0,0,0,0,0,0,0,0,0,0,0,0,0,0,0,
0,0,0,0,0,0,0,0,0,0,0,0,0,0,0,0,0,0,0,0,0,0,0,0,0,0,0,0,0,0,0,0,0,0,0,0,0,0,0,0,0,0,0,0,175,175,0,0,0,0,0,0,0,0,0,0,0,0,0,0,0,0,0,0,0,0,0,0,0,0,0,0,0,0,0,0,0,0,0,0,0,0,0,0,0,0,0,0,0,0,0,0,0,0,0,0,0,0,0,0,0,0,0,0,0,0,0,0,0,0,0,0,0,0,0,0,0,0,0,0,0,0,0,0,0,0,0,0,0,0,0,0,0,0,0,0,0,0,0,0,0,0,0,0,0,0,0,0,0,0,0,0,0,0,0,0,0,0,0,0,0,0,0,0,0,0,0,0,0,0,0,0,0,0,0,0,0,0,0,0,
0,0,0,0,0,0,0,0,0,0,0,0,0,0,0,0,0,0,0,0,0,0,0,0,0,0,0,0,0,0,0,0,0,0,0,0,0,0,0,0,0,0,0,0,0,0,0,0,0,0,0,0,0,0,0,0,0,0,0,0,0,0,0,0,0,0,0,0,0,0,0,0,0,0,0,0,0,0,0,0,0,0,0,0,0,0,0,0,0,0,0,0,0,0,0,0,0,0,0,0,0,0,0,0,0,0,0,0,0,0,0,0,0,0,0,0,0,0,0,0,0,0,0,0,0,0,0,0,0,0,0,0,0,0,0,0,0,0,0,0,0,0,0,0,0,0,0,0,0,0,0,0,0,0,0,0,0,0,0,0,0,0,0,0,0,0,0,0,0,0,0,0,0,0,0,0,0,0,0,0,
0,0,0,0,0,0,0,0,0,0,0,0,0,0,0,0,0,0,0,0,0,0,0,0,0,0,0,0,0,0,0,0,0,0,0,0,0,0,0,0,0,0,0,0,0,0,0,0,0,0,0,0,0,0,0,0,0,0,0,0,0,0,0,0,0,0,0,0,0,0,0,0,0,0,0,0,0,0,0,0,0,0,0,0,0,0,0,0,0,0,0,0,0,0,0,0,0,0,0,0,0,0,0,0,0,0,0,0,0,0,0,0,0,0,0,0,0,0,0,0,0,0,0,0,0,0,0,0,0,0,0,0,0,0,0,0,0,0,0,0,0,0,0,0,0,0,0,0,0,0,0,0,0,0,0,0,0,0,0,0,0,0,0,0,0,0,0,0,0,0,0,0,0,0,0,0,0,0,0,0,
0,0,0,0,0,0,0,0,0,0,0,0,0,0,0,0,0,0,0,0,0,0,0,0,0,0,0,0,0,0,0,0,0,0,0,0,0,0,0,0,0,0,0,0,0,0,0,0,0,0,0,0,0,0,0,0,0,0,0,0,0,0,0,0,0,0,0,0,0,0,0,0,0,0,0,0,0,0,0,0,0,0,0,0,0,0,0,0,0,0,0,0,0,0,0,0,0,0,0,0,0,0,0,0,0,0,0,0,0,0,0,0,0,0,0,0,0,0,0,0,0,0,0,0,0,0,0,0,0,0,0,0,0,0,0,0,0,0,0,0,0,0,0,0,0,0,0,0,0,0,0,0,0,0,0,0,0,0,0,0,0,0,0,0,0,0,0,0,0,0,0,0,0,0,0,0,0,0,0,0,
0,0,0,0,0,0,0,0,175,175,175,175,0,0,0,0,0,0,0,0,0,0,0,0,0,0,0,0,0,0,0,0,0,0,0,0,0,0,0,0,0,0,0,0,0,0,0,0,0,0,0,0,0,0,0,0,0,0,0,0,0,0,0,0,0,0,0,0,0,0,0,0,0,0,0,0,0,0,0,0,0,0,0,0,0,0,0,0,0,0,0,0,0,0,0,0,0,0,0,0,0,0,0,0,0,0,0,0,0,0,0,0,0,0,0,0,0,0,0,0,0,0,0,0,0,0,0,0,0,0,0,0,0,0,0,0,0,0,0,0,0,0,0,0,0,0,0,0,0,0,0,0,0,0,0,0,0,0,0,0,0,0,0,0,0,0,0,0,0,0,0,0,0,0,0,0,0,0,0,0,
0,0,0,0,0,0,0,0,175,175,175,175,0,0,0,0,0,0,0,0,0,0,0,0,0,0,0,0,0,0,0,0,0,0,0,0,0,0,0,0,0,0,0,0,0,0,0,0,0,0,0,0,0,0,0,0,0,0,0,0,0,0,0,0,0,0,0,0,0,0,0,0,0,0,0,0,0,0,0,0,0,0,0,0,0,0,0,0,0,0,0,0,0,0,0,0,0,0,0,0,0,0,0,0,0,0,0,0,0,0,0,0,0,0,0,0,0,0,0,0,0,0,0,0,0,0,0,0,0,0,0,0,0,0,0,0,0,0,0,0,0,0,0,0,0,0,0,0,0,0,0,0,0,0,0,0,0,0,0,0,0,0,0,0,0,0,0,0,0,0,0,0,0,0,0,0,0,0,0,0,
0,0,0,0,0,0,0,0,0,175,0,175,175,0,0,0,0,0,0,0,0,0,0,0,0,0,0,0,0,0,0,0,0,0,0,0,0,0,0,0,0,0,0,0,0,0,0,0,0,0,0,0,0,0,0,0,0,0,0,0,0,0,0,0,0,0,0,0,0,0,0,0,0,0,0,0,0,0,0,0,0,0,0,0,0,0,0,0,0,0,0,0,0,0,0,0,0,0,0,0,0,0,0,0,0,0,0,0,0,0,0,0,0,0,0,0,0,0,0,0,0,0,0,0,0,0,0,0,0,0,0,0,0,0,0,0,0,0,0,0,0,0,0,0,0,0,0,0,0,0,0,0,0,0,0,0,0,0,0,0,0,0,0,0,0,0,0,0,0,0,0,0,0,0,0,0,0,0,0,0,
0,0,0,0,0,0,0,0,0,0,0,0,0,0,0,0,0,0,0,0,0,0,0,0,0,0,0,0,0,0,0,0,0,0,0,0,0,0,0,0,0,0,0,0,0,0,0,0,0,0,0,0,0,0,0,0,0,0,0,0,0,0,0,0,0,0,0,0,0,0,0,0,0,0,0,0,0,0,0,0,0,0,0,0,0,0,0,0,0,0,0,0,0,0,0,0,0,0,0,0,0,0,0,0,0,0,0,0,0,0,0,0,0,0,0,0,0,0,0,0,0,0,0,0,0,0,0,0,0,0,0,0,0,0,0,0,0,0,0,0,0,0,0,0,0,0,0,0,0,0,0,0,0,0,0,0,0,0,0,0,0,0,0,0,0,0,0,0,0,0,0,0,0,0,0,0,0,0,0,0,
0,0,0,0,0,0,0,0,0,0,0,0,0,0,0,0,0,0,0,175,0,0,175,175,0,0,0,0,0,0,0,0,0,0,0,0,0,0,0,0,0,0,0,0,0,0,0,0,0,0,0,0,0,0,0,0,0,0,0,0,0,0,0,0,0,0,0,0,0,0,0,0,0,0,0,0,0,0,0,0,0,0,0,0,0,0,0,0,0,0,0,0,0,0,0,0,0,0,0,0,0,0,0,0,0,0,0,0,0,0,0,0,0,0,0,0,0,0,0,0,0,0,0,0,0,0,0,0,0,0,0,0,0,0,0,0,0,0,0,0,0,0,0,0,0,0,0,0,0,0,0,0,0,0,0,0,0,0,0,0,0,0,0,0,0,0,0,0,0,0,0,0,0,0,0,0,0,0,0,0,
0,0,0,0,175,0,175,0,0,0,0,0,0,0,0,0,0,0,0,175,175,175,0,175,0,0,0,0,0,0,0,0,0,0,0,0,0,0,0,0,0,0,0,0,0,0,0,0,0,0,0,0,0,0,0,0,0,0,0,0,0,0,0,0,0,0,0,0,0,0,0,0,0,0,0,0,0,0,0,0,0,0,0,0,0,0,0,0,0,0,0,0,0,0,0,0,0,0,0,0,0,0,0,0,0,0,0,0,0,0,0,0,0,0,0,0,0,0,0,0,0,0,0,0,0,0,0,0,0,0,0,0,0,0,0,0,0,0,0,0,0,0,0,0,0,0,0,0,0,0,0,0,0,0,0,0,0,0,0,0,0,0,0,0,0,0,0,0,0,0,0,0,0,0,0,0,0,0,0,0,
0,0,0,0,0,0,0,0,0,0,0,0,0,0,0,0,0,0,0,175,175,175,175,175,0,0,0,0,0,0,0,0,0,0,0,0,0,0,0,0,0,0,0,0,0,0,0,0,0,0,0,0,0,0,0,0,0,0,0,0,0,0,0,0,0,0,0,0,0,0,0,0,0,0,0,0,0,0,0,0,0,0,0,0,0,0,0,0,0,0,0,0,0,0,0,0,0,0,0,0,0,0,0,0,0,0,0,0,0,0,0,0,0,0,0,0,0,0,0,0,0,0,0,0,0,0,0,0,0,0,0,0,0,0,0,0,0,0,0,0,0,0,0,0,0,0,0,0,0,0,0,0,0,0,0,0,0,0,0,0,0,0,0,0,0,0,0,0,0,0,0,0,0,0,0,0,0,0,0,0,
0,0,0,0,0,0,0,0,0,0,0,0,0,0,0,0,0,0,0,0,0,0,0,0,0,0,0,0,0,0,0,0,0,0,0,0,0,0,0,0,0,0,0,0,0,0,0,0,0,0,0,0,0,0,0,0,0,0,0,0,0,0,0,0,0,0,0,0,0,0,0,0,0,0,0,0,0,0,0,0,0,0,0,0,0,0,0,0,0,0,0,0,0,0,0,0,0,0,0,0,0,0,0,0,0,0,0,0,0,0,0,0,0,0,0,0,0,0,0,0,0,0,0,0,0,0,0,0,0,0,0,0,0,0,0,0,0,0,0,0,0,0,0,0,0,0,0,0,0,0,0,0,0,0,0,0,0,0,0,0,0,0,0,0,0,0,0,0,0,0,0,0,0,0,0,0,0,0,0,0,
0,0,0,0,0,0,0,0,0,0,0,0,0,0,0,0,0,0,0,0,0,0,0,0,0,0,0,0,0,0,0,0,0,0,0,0,0,0,0,0,0,0,0,0,0,0,0,0,0,0,0,0,0,0,0,0,0,0,0,0,0,0,0,0,0,0,0,0,0,0,0,0,0,0,0,0,0,0,0,0,0,0,0,0,0,0,0,0,0,0,0,0,0,0,0,0,0,0,0,0,0,0,0,0,0,0,0,0,0,0,0,0,0,0,0,0,0,0,0,0,0,0,0,0,0,0,0,0,0,0,0,0,0,0,0,0,0,0,0,0,0,0,0,0,0,0,0,0,0,0,0,0,0,0,0,0,0,0,0,0,0,0,0,0,0,0,0,0,0,0,0,0,0,0,0,0,0,0,0,0,
0,0,0,0,0,0,0,0,0,0,0,0,0,0,0,0,0,0,0,0,0,0,0,0,0,0,0,0,0,0,0,0,0,0,0,0,0,0,0,0,0,0,0,0,0,0,0,0,0,0,0,0,0,0,0,0,0,0,0,0,0,0,0,0,0,0,0,0,0,0,0,0,0,0,0,0,0,0,175,175,175,175,0,0,0,0,0,0,0,0,0,0,0,0,0,0,0,0,0,0,0,0,0,0,124,0,0,0,0,0,0,0,0,0,0,0,0,0,0,0,0,0,0,0,0,0,0,0,0,0,0,0,0,0,0,0,0,0,0,0,0,0,0,0,0,0,0,0,0,0,0,0,0,0,0,0,0,0,0,0,0,0,0,0,0,0,0,0,0,0,0,0,0,0,0,0,0,0,0,0,
0,0,0,0,0,0,0,175,0,175,175,0,0,0,0,0,0,0,0,0,0,0,0,0,0,0,0,0,0,0,0,0,0,0,0,0,0,0,0,0,0,0,0,0,0,0,0,0,0,0,0,0,0,0,0,0,0,0,0,0,0,0,0,0,0,0,0,0,0,0,0,0,0,0,0,0,0,0,0,175,175,175,0,0,0,0,0,0,0,0,0,0,0,0,0,0,0,0,0,0,0,0,0,0,0,0,0,0,116,0,0,0,0,0,0,0,0,124,0,0,0,0,0,0,0,0,0,0,0,0,0,0,0,0,0,0,0,0,0,0,0,0,0,0,0,0,0,0,0,0,0,0,0,0,0,0,0,0,0,0,0,0,0,0,0,0,0,0,0,0,0,0,0,0,0,0,0,0,0,0,
0,0,0,0,0,0,0,0,0,0,0,0,0,0,0,0,0,0,0,0,0,0,0,0,0,0,0,0,0,0,0,0,0,0,0,0,0,0,0,0,0,0,0,0,0,0,0,0,0,0,0,0,0,0,0,0,0,0,0,0,0,0,0,0,0,0,0,0,0,0,0,0,0,0,0,0,0,0,0,0,0,0,0,0,0,0,0,0,0,0,0,0,0,0,0,0,0,0,0,0,0,0,0,0,0,0,0,0,0,0,0,0,0,0,0,0,0,0,0,0,0,0,0,0,0,0,0,0,0,0,0,0,0,0,0,0,0,0,0,0,0,0,0,0,0,0,0,0,0,0,0,0,0,0,0,0,0,0,0,0,0,0,0,0,0,0,0,0,0,0,0,0,0,0,0,0,0,0,0,0,
0,0,0,0,0,0,0,0,0,0,0,0,0,0,0,0,0,0,0,0,0,0,0,0,0,0,0,0,0,0,0,0,0,0,0,0,0,0,0,0,0,0,0,0,0,0,0,0,0,0,0,0,0,0,0,0,0,0,0,0,0,0,0,0,0,0,0,0,0,0,0,0,0,0,0,0,0,0,0,0,0,0,0,0,0,0,0,0,0,0,0,0,0,0,0,0,0,0,0,0,0,0,0,0,0,0,0,0,0,0,0,0,0,0,0,0,0,116,0,0,0,0,0,0,0,0,0,0,0,0,0,0,0,0,0,0,0,0,0,0,0,0,0,0,0,0,0,0,0,0,0,0,0,0,0,0,0,0,0,0,0,0,0,0,0,0,0,0,0,0,0,0,0,0,0,0,0,0,0,0,
0,0,0,0,0,0,0,0,0,0,0,0,0,0,0,0,0,0,0,0,0,0,0,0,0,0,0,0,0,0,0,0,0,0,0,0,0,0,0,0,0,0,0,0,0,0,0,0,0,0,0,0,0,0,0,0,0,0,0,0,0,0,0,0,0,0,0,0,0,0,0,0,0,0,0,0,0,0,0,0,0,0,0,0,0,0,0,0,0,0,0,0,0,0,0,0,0,0,0,0,0,0,0,0,0,0,126,0,0,0,0,0,0,0,0,0,0,0,0,0,0,0,0,0,0,0,0,0,0,0,0,0,0,0,0,0,0,0,0,0,0,0,0,0,0,0,0,0,0,0,0,0,0,0,0,0,0,0,0,0,0,0,0,0,0,0,0,0,0,0,0,0,0,0,0,0,0,0,0,0,
0,0,0,0,0,0,0,0,0,0,0,0,0,0,0,0,0,0,0,0,0,0,0,0,0,0,0,0,0,0,0,0,0,0,0,0,0,0,0,0,0,0,0,0,0,0,0,0,0,0,0,0,0,0,0,0,0,0,0,0,0,0,0,0,0,0,0,0,0,0,0,0,0,0,0,0,0,0,0,0,0,0,0,0,0,0,0,0,0,0,0,0,0,0,0,0,0,0,0,0,0,0,0,0,0,0,0,0,0,0,0,0,0,0,0,0,0,0,0,0,0,0,0,0,0,0,0,0,0,0,0,0,0,0,0,0,0,0,0,0,0,0,0,0,0,0,0,0,0,0,0,0,0,0,0,0,0,0,0,0,0,0,0,0,0,0,0,0,0,0,0,0,0,0,0,0,0,0,0,0,
0,0,0,0,0,0,0,0,0,0,0,0,0,0,0,0,0,0,0,0,0,0,0,0,0,0,0,0,0,0,0,0,0,0,0,0,0,0,0,0,0,0,0,0,0,0,0,0,0,0,0,0,0,0,0,0,0,0,0,0,0,0,0,0,0,0,0,0,0,0,0,0,0,0,0,0,0,0,0,0,0,0,0,0,0,0,0,0,0,0,0,0,0,0,0,0,0,0,0,116,0,0,0,0,0,0,0,0,0,0,0,0,0,0,0,0,0,0,0,0,0,0,0,0,0,0,0,0,0,0,0,0,0,0,0,0,0,0,0,0,0,0,0,0,0,0,0,0,0,0,0,0,0,0,0,0,0,0,0,0,0,0,0,0,0,0,0,0,0,0,0,0,0,0,0,0,0,0,0,0,
0,0,0,0,0,0,0,0,0,0,0,0,0,0,0,0,0,0,0,0,0,0,0,0,0,0,0,0,0,0,0,0,0,0,0,0,0,0,0,0,0,0,0,0,0,0,0,0,0,0,0,0,0,0,0,0,0,0,0,0,0,0,0,0,0,0,0,0,0,0,0,0,0,0,0,0,0,0,0,0,0,0,0,0,0,0,0,0,0,0,0,0,0,0,0,0,0,0,0,0,0,0,0,0,0,0,0,0,0,0,0,0,0,0,0,0,0,0,0,0,0,0,0,0,0,0,0,0,0,0,0,0,0,0,0,0,0,0,0,0,0,0,0,0,0,0,0,0,0,0,0,0,0,0,0,0,0,0,0,0,0,0,0,0,0,0,0,0,0,0,0,0,0,0,0,0,0,0,0,0,
0,0,0,0,0,0,0,0,0,0,0,0,0,0,0,0,0,0,0,0,0,0,0,0,0,0,0,0,0,0,0,0,0,0,0,0,0,0,0,0,0,0,0,0,0,0,0,0,0,0,0,0,0,0,0,0,0,0,0,0,0,0,0,0,0,0,0,0,0,0,0,0,0,0,0,0,0,0,0,0,0,0,0,0,0,0,0,0,0,0,0,0,0,0,0,0,0,0,0,0,0,0,0,0,0,0,0,0,0,0,0,0,0,0,0,0,0,0,0,0,0,0,0,0,0,0,0,0,0,0,0,0,0,0,0,0,0,0,0,0,0,0,0,0,0,0,0,0,0,0,0,0,0,0,0,0,0,0,0,0,0,0,0,0,0,0,0,0,0,0,0,0,0,0,0,0,0,0,0,0,
0,0,0,0,0,175,175,175,175,0,0,0,0,0,0,0,0,0,0,0,0,0,0,0,0,0,0,0,0,0,0,0,0,0,0,0,0,0,0,0,0,0,0,0,0,0,0,0,0,0,0,0,124,0,0,0,0,0,0,0,0,0,0,0,0,0,0,0,0,0,0,0,0,0,0,0,0,0,0,0,0,0,0,0,0,0,0,0,0,0,0,0,0,0,0,0,0,0,175,175,0,0,0,0,0,0,0,0,0,0,0,0,0,0,0,0,0,0,0,0,0,0,0,0,0,0,0,0,0,0,0,0,0,0,0,0,0,0,0,0,0,0,0,0,0,0,0,0,0,0,0,0,0,0,0,0,0,0,0,0,0,0,0,0,0,0,0,0,0,124,0,0,0,0,0,0,0,0,0,0,
0,0,0,0,0,0,0,0,175,175,0,0,0,0,0,0,0,0,0,0,0,0,0,0,0,0,0,0,0,0,0,0,0,0,0,0,0,0,0,0,0,0,0,0,0,0,0,0,0,0,0,0,0,0,0,0,0,0,0,0,0,0,0,0,0,0,0,0,0,0,0,0,0,0,0,0,0,0,0,0,0,0,0,0,0,0,0,0,0,0,0,0,0,0,0,0,0,0,175,175,175,0,0,0,0,0,0,0,0,0,0,0,0,0,0,0,0,0,0,0,0,0,0,126,0,0,0,0,0,0,0,0,0,0,0,0,0,0,0,0,0,0,0,0,0,0,0,0,0,0,0,0,0,0,0,0,0,0,0,0,0,0,0,0,0,0,0,0,0,0,0,0,0,0,0,0,0,0,0,0,
0,0,0,0,0,0,0,0,175,175,0,0,0,0,0,0,0,0,0,0,0,0,0,0,0,0,0,0,0,0,0,0,0,0,0,0,0,0,0,124,0,0,0,0,0,116,0,0,0,0,0,0,0,0,116,0,0,0,0,0,0,0,0,0,0,0,0,0,0,0,0,0,0,0,0,0,0,0,0,0,0,0,0,0,0,0,0,0,0,0,0,124,0,0,0,0,0,0,0,175,175,0,0,0,0,0,0,0,0,0,0,0,0,0,0,0,0,0,0,0,0,0,0,0,0,0,116,0,0,0,0,0,0,0,0,0,0,0,0,0,0,0,0,0,0,0,0,0,0,0,0,0,0,0,0,0,0,0,0,0,0,0,0,0,0,0,0,0,0,0,0,116,0,0,0,0,0,0,0,0,
124,0,0,0,0,0,0,0,0,0,0,0,0,0,0,0,0,0,0,0,0,0,0,0,0,0,0,0,0,0,0,0,0,0,0,0,0,0,0,0,0,0,0,0,0,0,0,0,0,0,0,0,0,0,0,0,0,0,0,0,0,0,0,0,0,0,0,0,0,0,0,0,0,0,0,0,0,0,0,0,0,0,0,0,0,0,0,0,0,0,0,0,0,0,0,0,0,0,0,0,0,0,0,0,0,0,0,0,0,0,0,0,0,0,0,0,0,0,0,0,0,0,0,0,0,0,0,0,0,0,124,0,0,0,0,0,175,175,0,0,0,0,0,0,0,0,0,0,0,0,0,0,0,0,0,0,0,0,0,0,0,0,0,0,0,0,0,0,0,0,0,0,0,0,0,0,0,0,0,0,
0,0,0,0,0,0,0,0,0,0,0,0,0,0,0,0,0,0,0,0,0,0,0,0,0,0,0,0,0,0,0,0,0,0,0,0,0,0,0,0,0,0,0,0,0,0,0,0,0,0,0,0,0,0,0,0,0,0,0,0,0,0,0,0,0,0,0,0,0,0,0,0,0,0,0,0,0,0,0,0,0,0,0,0,0,0,0,0,0,0,0,0,0,0,0,0,0,0,0,0,0,0,0,0,0,0,0,0,0,0,0,0,0,0,0,0,0,0,0,0,0,0,0,0,0,0,0,0,0,0,0,0,0,0,0,0,0,0,0,0,0,0,0,0,0,0,0,0,0,0,0,0,0,0,0,0,0,0,0,0,0,0,0,0,0,0,0,0,0,0,0,0,0,0,126,0,0,0,0,0,
116,0,0,0,0,0,0,0,0,0,0,0,0,0,0,0,0,0,0,0,0,0,0,0,0,0,0,0,0,0,0,0,0,0,0,0,0,0,0,0,0,0,0,0,0,0,0,0,0,0,0,0,0,0,0,126,0,0,0,0,0,0,0,0,0,0,0,0,0,0,0,0,0,0,0,0,0,0,0,0,0,0,0,0,0,0,175,175,175,0,116,0,0,0,0,0,0,0,0,0,0,0,0,0,0,0,0,0,0,0,0,0,0,0,0,0,0,0,0,0,0,0,0,0,0,0,0,0,0,0,0,0,0,0,0,0,0,0,0,0,0,0,0,0,0,0,0,0,0,0,0,0,0,0,0,0,0,0,0,0,0,0,116,0,0,0,0,0,0,0,0,0,0,0,0,0,0,0,0,0,
0,0,0,175,175,175,0,0,0,0,0,0,0,0,0,0,0,0,0,0,0,0,0,0,0,0,0,0,0,0,0,0,0,0,0,0,116,0,0,0,0,0,0,0,0,0,0,0,0,0,0,0,0,0,0,0,0,0,0,0,0,0,0,0,0,124,0,0,0,0,0,0,0,0,0,0,0,0,0,0,0,0,0,0,0,0,175,0,0,0,0,0,0,0,0,0,0,0,0,0,0,0,0,0,0,0,0,0,0,0,0,0,0,0,0,0,0,0,0,0,0,0,0,0,0,0,0,0,0,0,0,0,0,0,0,0,0,0,175,0,175,175,0,0,175,0,175,0,0,0,0,0,0,0,0,0,124,0,0,0,0,0,0,0,0,0,0,0,0,0,0,0,0,0,0,0,0,0,0,0,
0,0,0,0,0,0,0,0,0,0,0,0,0,0,0,0,0,0,0,0,0,0,0,0,0,0,0,0,0,0,0,0,0,0,0,0,0,0,126,0,0,0,0,0,0,0,0,0,0,0,0,0,0,0,0,0,0,0,0,0,0,0,0,116,0,0,0,0,0,0,0,0,0,0,0,0,0,0,0,0,0,0,0,0,0,0,0,0,0,0,0,0,0,0,0,0,0,0,0,0,0,0,0,0,0,0,0,0,0,0,0,0,0,0,0,0,0,0,0,0,0,0,0,0,0,0,0,0,0,0,0,0,0,0,0,0,0,0,0,175,175,175,0,0,0,0,0,0,0,0,0,0,0,0,0,0,0,0,0,0,0,0,0,0,0,0,0,0,0,0,0,0,0,0,0,0,0,0,0,0,
0,0,0,0,0,0,0,0,0,0,0,0,0,0,0,0,0,0,0,0,0,0,0,0,0,0,0,0,0,0,0,0,0,0,0,0,0,0,0,0,0,0,0,0,0,0,0,0,0,0,0,0,0,0,0,0,0,0,0,0,0,0,0,0,0,0,0,0,0,0,0,0,0,0,0,0,0,0,0,0,0,0,0,0,0,0,0,0,0,126,0,0,0,0,0,0,0,0,0,0,0,0,0,0,175,0,0,0,0,0,0,0,0,0,175,0,0,0,0,0,0,0,0,0,0,0,0,0,0,0,0,0,0,0,0,0,0,0,0,0,0,0,0,0,0,0,0,0,0,0,0,0,0,0,0,0,0,0,0,0,0,0,0,0,0,0,0,0,0,0,0,0,0,0,0,0,0,0,0,0,
0,0,0,0,0,0,0,0,0,0,0,0,0,0,0,0,0,0,0,0,0,0,0,0,0,0,0,0,0,0,0,0,0,0,0,0,0,0,0,0,0,0,0,0,0,0,0,0,0,0,0,0,0,0,0,0,0,0,0,0,0,0,0,0,0,0,0,0,0,0,175,175,175,175,0,0,0,0,0,0,0,0,0,0,0,0,0,0,0,0,0,0,0,0,0,0,0,0,0,0,0,0,0,175,175,0,0,0,0,0,0,0,0,0,175,175,0,0,0,0,0,0,0,0,0,0,0,0,0,0,0,0,0,0,0,116,0,0,0,0,0,0,0,0,0,0,0,0,0,0,0,0,0,0,0,0,0,0,0,0,0,0,0,0,0,0,0,0,0,0,0,0,0,0,0,0,0,0,0,0,
0,0,0,0,0,0,0,0,0,0,0,0,0,0,0,0,0,0,0,0,0,0,0,0,0,0,0,0,0,0,0,0,0,0,0,0,0,0,0,0,0,0,0,0,0,0,0,0,0,0,0,0,0,0,0,0,0,0,0,0,0,0,0,0,0,0,0,0,0,0,0,0,0,175,0,0,0,0,124,0,0,0,0,0,0,0,0,0,0,0,0,0,0,0,0,0,0,0,0,0,0,0,0,175,175,0,0,0,0,0,0,0,0,0,0,0,0,0,0,0,0,0,0,0,0,0,0,0,0,0,0,0,0,0,0,0,0,0,0,0,0,0,0,0,0,0,0,0,0,0,0,0,0,116,0,0,0,126,0,0,0,0,0,0,0,0,0,0,0,0,0,0,0,0,0,0,0,0,0,0,
0,0,0,0,126,0,0,0,0,0,0,0,0,0,0,0,0,0,0,0,0,0,0,0,0,0,0,0,0,0,0,0,0,0,0,0,175,175,175,175,0,0,0,0,0,0,0,0,0,0,0,0,0,0,0,0,0,0,0,0,0,0,0,0,0,0,0,0,0,0,0,0,116,0,0,0,0,0,0,0,0,116,0,0,0,0,0,0,0,0,0,0,0,0,0,0,0,0,0,0,0,0,0,0,0,0,0,0,0,0,0,0,0,0,0,0,0,0,0,0,0,0,0,0,0,0,0,0,0,0,0,0,0,0,0,0,0,0,0,0,0,0,0,124,0,0,0,0,0,0,0,0,0,0,0,0,0,0,0,0,0,0,0,0,0,0,0,0,0,0,0,0,0,0,0,0,0,0,0,0,
0,0,0,0,0,0,0,0,0,0,0,0,0,0,0,0,0,0,0,0,0,0,0,0,0,0,124,0,0,0,0,0,0,0,0,0,175,175,175,175,0,0,0,0,0,0,0,0,0,0,0,0,0,0,0,0,0,0,0,0,0,0,0,0,0,0,0,0,0,0,0,0,0,0,0,0,0,0,0,0,0,0,0,0,0,0,0,0,0,0,0,0,0,0,0,0,0,0,0,0,0,0,0,0,0,0,0,0,0,0,0,0,0,0,0,0,0,0,0,0,0,0,0,0,0,0,0,0,0,0,0,0,0,0,0,0,0,0,0,0,0,0,0,0,0,0,0,0,0,0,0,0,0,0,0,0,0,0,0,0,0,0,0,0,0,0,0,0,0,0,0,0,0,0,0,0,0,0,0,0,
0,0,0,0,0,0,0,0,0,116,0,0,0,124,0,0,0,0,0,0,0,0,0,0,0,0,0,116,0,0,0,0,0,0,0,0,175,0,175,175,0,0,0,0,0,0,0,0,0,0,0,0,0,0,0,0,0,0,0,0,0,0,0,0,0,0,0,0,0,0,0,0,126,0,0,0,0,0,0,0,0,0,0,0,0,0,0,0,0,0,0,0,0,0,0,0,0,0,0,0,0,0,0,0,0,0,0,0,0,0,0,0,0,0,0,0,0,0,0,0,0,0,0,0,0,0,0,0,0,0,0,0,0,0,0,0,0,0,0,0,0,0,0,0,116,0,0,0,0,0,0,0,0,0,0,0,0,0,0,0,0,0,0,0,0,0,0,0,0,0,0,0,0,0,0,0,0,0,0,0,
0,0,175,175,175,175,175,0,0,0,0,0,0,0,0,0,0,0,0,0,0,0,0,0,0,0,0,0,0,0,0,0,0,0,0,0,0,0,0,0,0,0,0,0,0,0,0,0,0,0,0,0,0,0,0,0,0,0,0,0,0,0,0,0,0,0,0,0,0,0,0,0,0,0,0,0,0,0,0,0,0,0,0,0,0,0,0,0,0,0,0,0,0,0,0,0,0,0,0,0,0,0,0,0,0,0,0,0,0,0,0,0,0,0,0,0,0,0,0,0,0,0,0,0,0,0,0,0,0,0,0,0,0,0,0,0,0,0,0,0,126,0,0,0,0,0,0,0,0,0,0,0,0,0,0,0,0,0,0,0,0,0,0,0,0,0,0,0,0,0,0,0,175,175,175,175,0,0,0,0,
0,0,175,0,175,175,175,0,0,0,0,0,0,0,0,0,0,0,0,0,0,0,0,0,0,0,0,0,0,0,0,0,0,0,0,0,0,0,0,0,0,0,0,0,0,0,0,0,0,0,0,0,0,0,0,0,0,0,0,0,0,0,0,0,0,0,0,0,0,0,0,0,0,0,0,0,0,0,0,0,0,0,0,0,0,0,0,0,0,0,0,0,0,0,0,0,0,0,0,0,0,0,0,0,0,0,0,0,0,0,0,0,0,0,0,0,0,0,0,0,0,0,0,0,0,0,0,0,0,0,0,0,0,0,0,0,0,0,0,0,0,0,0,0,0,0,0,0,0,0,0,0,0,0,0,0,0,0,0,0,0,0,0,0,0,0,0,0,0,0,0,0,0,0,0,0,0,0,0,0,
0,0,0,175,175,0,175,0,0,0,0,0,0,0,0,0,0,0,116,0,0,0,0,0,0,0,0,0,0,0,0,0,0,0,0,0,0,0,0,0,0,0,0,0,0,0,0,0,0,0,0,0,0,0,0,0,0,0,0,0,0,0,0,0,0,0,0,0,0,0,0,0,0,0,0,0,0,0,0,0,0,0,0,0,0,0,0,0,0,0,175,0,175,175,0,0,0,0,0,0,0,0,0,0,0,0,0,0,0,0,0,0,0,0,0,0,0,0,0,0,0,0,0,0,0,0,0,0,0,0,0,0,0,0,0,0,0,0,0,0,0,0,0,0,0,0,0,0,0,0,0,0,0,0,0,0,0,0,0,0,0,0,0,0,0,0,0,0,0,0,0,0,0,0,0,0,0,0,0,0,
0,0,0,0,0,0,0,0,0,0,0,0,0,0,0,0,0,0,0,0,0,0,0,0,0,0,0,0,0,0,0,0,0,0,0,0,0,0,0,0,0,0,0,0,0,0,0,0,0,0,0,0,0,0,0,0,0,0,0,0,0,0,0,0,0,0,0,0,0,0,0,0,0,0,0,0,0,0,0,0,0,0,0,0,0,0,0,0,0,0,0,175,175,175,0,0,0,0,0,0,0,0,0,0,0,0,0,0,0,0,0,0,0,0,0,0,0,0,0,0,0,0,0,0,0,0,0,0,175,0,175,175,175,0,0,0,0,0,0,0,0,0,0,0,0,0,0,0,0,0,0,0,0,0,0,0,0,0,0,0,0,0,0,0,0,0,0,0,0,0,0,0,0,0,0,0,0,0,0,0,
0,0,0,0,0,0,0,0,0,0,0,0,0,0,0,0,0,0,0,0,0,126,0,0,0,0,0,0,0,0,0,0,0,0,0,0,0,0,0,0,0,0,0,0,0,0,0,0,0,0,0,0,0,0,0,0,0,0,0,0,0,0,0,0,0,0,0,0,0,0,0,0,0,0,0,0,0,0,0,0,0,0,0,0,0,0,0,0,0,0,0,0,0,0,0,0,0,0,0,0,0,0,0,0,0,0,0,0,0,0,0,0,0,0,0,0,0,0,0,0,0,0,0,0,0,0,0,0,175,175,0,175,175,0,0,0,0,0,0,0,0,0,0,0,0,0,0,0,0,0,0,0,0,0,0,0,0,0,0,0,0,0,0,0,0,0,0,0,0,0,0,0,0,0,0,0,0,0,0,0,
0,0,0,0,0,0,0,0,0,0,0,0,0,0,0,0,0,0,0,0,0,0,0,0,0,0,0,0,0,0,0,0,0,0,0,0,0,0,0,0,0,0,0,0,0,0,0,0,0,0,0,0,0,0,0,0,0,0,0,0,0,0,0,0,0,0,0,0,0,0,0,0,0,0,0,0,0,0,0,0,0,0,0,0,0,0,0,0,0,0,0,0,0,0,0,0,0,0,0,0,0,0,0,0,0,0,0,0,0,0,0,0,0,0,0,0,0,0,0,0,0,0,0,0,0,0,0,0,0,175,175,175,0,0,0,0,0,0,0,0,0,0,0,0,0,0,0,0,0,0,0,0,0,0,0,0,0,0,0,0,0,0,0,0,0,0,0,0,0,0,0,0,0,0,0,0,175,0,0,0,
0,0,0,0,0,0,0,0,0,0,0,0,0,0,0,0,0,0,0,0,0,0,0,0,0,0,0,0,0,0,0,0,0,0,0,0,0,0,0,0,0,0,0,0,0,0,0,0,0,0,0,0,0,0,0,0,0,0,0,0,0,0,0,0,0,0,0,0,0,0,0,0,0,0,0,0,0,0,0,0,0,0,0,0,0,0,0,0,0,0,0,0,0,0,0,0,0,0,0,0,0,0,0,0,0,0,0,0,0,0,0,0,0,0,0,0,0,0,0,0,0,0,0,0,0,0,0,0,0,0,0,0,0,0,0,0,0,0,0,0,0,0,0,0,0,0,0,0,0,0,0,0,175,175,0,0,0,0,0,0,0,0,0,0,0,0,0,0,0,0,0,0,0,0,0,0,0,0,0,0,
0,0,0,0,0,0,0,0,0,0,0,0,0,0,0,0,0,0,0,0,0,0,0,0,0,0,0,0,0,0,0,0,0,0,0,0,0,0,0,0,0,0,0,0,0,0,0,0,0,0,0,0,0,0,0,0,0,0,0,0,0,0,0,0,0,0,0,0,0,0,0,0,0,0,0,0,0,0,0,0,0,0,0,0,0,0,0,0,0,0,0,0,0,0,0,0,0,0,0,0,0,0,0,0,0,0,0,0,0,0,0,0,0,0,0,0,0,0,0,0,0,0,0,0,0,0,0,0,0,0,0,0,0,0,0,0,0,0,0,0,0,0,0,0,0,0,0,0,0,0,0,0,175,175,0,0,0,0,0,0,0,0,0,0,0,0,0,0,0,0,0,0,0,0,0,0,0,0,0,0,
0,0,0,0,0,0,0,0,0,0,0,0,0,0,0,0,0,0,0,0,0,0,0,0,0,0,0,0,0,0,0,0,0,0,0,0,0,0,0,0,0,0,0,0,0,0,0,0,0,0,0,0,0,0,0,0,0,0,0,0,0,0,0,0,0,0,0,0,0,0,0,0,0,0,0,0,0,0,0,0,0,0,0,0,0,0,0,0,0,0,0,0,0,0,0,0,0,0,0,0,0,0,0,0,0,0,0,0,0,0,0,0,0,0,0,0,0,0,0,175,175,175,175,0,0,0,0,0,0,0,0,0,0,0,0,0,0,0,0,0,0,0,0,0,0,0,0,0,0,0,0,0,0,0,0,0,0,0,0,0,0,0,0,0,0,0,0,0,0,0,0,0,0,0,0,0,0,0,0,0,
0,0,0,0,0,0,0,0,0,0,0,0,0,0,0,0,0,0,0,0,0,0,0,0,0,0,0,0,0,0,0,0,0,0,0,0,0,0,0,0,0,0,0,0,0,0,0,0,0,0,0,0,0,0,0,0,0,0,0,0,0,0,0,0,0,0,0,0,0,0,0,0,0,0,0,0,0,0,0,0,0,0,0,0,0,0,0,0,0,0,0,0,0,0,0,0,0,0,0,0,0,0,0,0,0,0,0,0,0,0,0,0,0,0,0,0,0,0,0,0,175,175,0,0,0,0,0,0,0,0,0,0,0,0,0,0,0,0,0,0,0,0,0,0,0,0,0,0,0,0,0,0,0,0,0,0,0,0,0,0,0,0,0,0,0,0,0,0,0,0,0,0,0,0,0,0,0,175,175,0,
0,0,0,0,0,0,0,0,0,0,0,0,0,0,0,0,0,0,0,0,0,0,0,0,0,0,0,0,0,0,0,0,0,0,0,0,0,0,0,0,0,0,0,0,0,0,0,0,0,0,0,0,0,0,0,0,0,0,0,0,0,0,0,0,0,0,0,0,0,0,0,0,0,0,0,0,0,0,0,0,0,0,0,0,0,0,0,0,0,0,0,175,175,175,0,0,0,0,0,0,0,0,0,0,0,0,0,0,0,0,0,0,0,0,0,0,0,0,0,0,0,0,0,0,0,0,0,0,0,0,0,0,0,0,0,0,0,0,0,0,0,0,0,0,0,0,0,0,0,0,0,0,0,0,0,0,0,0,0,0,0,0,0,0,0,0,0,0,0,0,0,0,0,0,0,0,0,0,0,0,
0,0,0,0,0,0,0,0,0,0,0,0,0,0,0,0,0,0,0,0,0,0,0,0,0,0,0,0,0,0,0,0,0,0,0,0,0,0,0,0,0,0,0,0,0,0,0,0,0,0,0,0,0,0,0,0,0,0,0,0,0,0,0,0,0,0,0,0,0,0,0,0,0,0,0,0,0,0,0,0,0,0,0,0,0,0,0,0,0,0,0,175,175,175,175,0,0,0,0,0,0,0,0,0,0,0,0,0,0,0,0,0,0,0,0,0,0,0,0,0,0,0,0,0,0,0,0,0,0,0,0,0,0,0,0,0,0,0,0,0,0,0,0,0,0,0,0,0,0,0,0,0,0,0,0,0,0,0,0,0,0,0,0,0,0,0,0,0,0,0,0,0,0,0,0,0,0,0,0,0,
0,0,0,0,0,0,0,0,0,0,0,0,0,0,0,0,0,0,0,0,0,0,0,0,0,0,0,0,0,0,0,0,0,0,0,0,0,0,0,0,0,0,0,0,0,0,0,0,0,0,0,0,0,0,0,0,0,0,0,0,0,0,0,0,0,0,0,0,0,0,0,0,0,0,0,0,0,0,0,0,0,0,0,0,0,0,0,0,0,0,0,0,0,0,0,0,0,0,175,175,175,0,0,0,0,0,0,0,0,0,0,0,0,0,0,0,0,0,0,0,0,0,0,0,0,0,0,0,0,0,0,0,0,0,0,0,0,0,0,0,0,0,0,0,0,0,0,0,0,0,0,0,0,0,0,0,0,0,0,0,0,0,0,0,0,0,0,0,0,0,0,0,0,0,0,0,0,0,0,0,
175,0,175,175,0,0,0,0,0,0,0,0,0,0,0,0,0,0,0,0,0,0,0,0,0,0,0,0,0,0,0,0,0,0,0,0,0,0,0,0,0,0,0,0,0,0,0,0,0,0,0,0,0,0,0,0,0,0,0,0,0,0,0,0,0,0,0,0,0,0,0,0,0,0,0,0,0,0,0,0,0,0,0,0,0,0,0,0,0,0,0,0,0,0,0,0,0,0,0,0,0,0,0,0,0,0,0,0,0,0,0,0,0,0,0,0,0,0,0,0,0,0,0,0,0,0,0,0,0,0,0,0,0,0,0,0,0,0,0,0,0,0,0,0,0,0,0,0,0,0,0,0,0,0,0,0,0,0,0,0,0,175,175,0,0,0,0,0,0,0,0,0,0,0,0,0,0,0,0,0,
175,175,0,0,0,0,0,0,0,0,0,0,0,0,0,0,0,0,0,0,0,0,0,0,0,0,0,0,0,0,0,0,0,0,0,0,0,0,0,0,0,0,0,0,0,0,0,0,0,0,0,0,0,0,0,0,0,0,0,0,0,0,0,0,0,0,0,0,0,0,0,0,0,0,0,0,0,0,0,0,0,0,0,0,0,0,0,0,0,0,0,0,0,0,0,0,0,0,0,0,0,0,0,0,0,0,0,0,0,0,0,0,0,0,0,0,0,0,0,0,0,0,0,0,0,0,0,0,0,0,0,0,0,0,0,0,0,0,0,0,0,0,0,0,0,0,0,0,0,0,0,0,0,0,0,0,0,0,0,0,0,0,0,0,0,0,0,0,0,0,0,0,0,0,0,0,0,0,0,0,
0,175,175,175,0,0,0,0,0,0,0,0,0,0,0,0,0,0,0,0,0,0,0,0,0,0,0,0,175,175,175,175,175,0,0,0,0,0,0,0,0,0,0,0,0,0,0,0,0,0,0,0,0,0,0,0,0,0,0,0,0,0,0,0,0,0,0,0,0,0,0,0,0,0,0,0,0,0,0,0,0,0,0,0,0,0,0,0,0,175,175,175,175,175,0,0,0,0,0,0,0,0,0,0,0,0,0,0,0,0,0,0,0,0,0,0,0,0,0,0,0,0,0,0,0,0,0,0,0,0,0,0,0,0,0,0,0,0,0,0,0,0,0,0,0,0,0,0,0,0,0,0,175,175,0,175,0,0,0,0,0,0,0,0,0,0,0,0,0,0,0,0,0,0,0,0,0,0,0,0,
0,0,0,0,0,0,0,0,0,0,0,0,0,0,0,0,0,0,0,0,0,0,0,0,0,0,0,0,0,0,0,0,0,0,0,0,0,0,0,0,0,0,0,0,0,0,0,0,0,0,0,0,0,0,0,0,0,0,0,0,0,0,0,0,0,0,0,0,0,0,0,0,0,0,0,0,0,0,0,0,0,0,0,0,0,0,0,0,0,0,0,0,0,0,0,0,0,0,0,0,0,0,0,0,0,0,0,0,0,0,0,0,0,0,0,0,0,0,0,0,0,0,0,0,0,0,0,0,0,0,0,0,0,0,0,0,0,0,0,0,0,0,0,0,0,0,0,0,0,0,0,0,0,175,0,175,0,0,0,0,0,0,0,0,0,0,0,0,0,0,0,0,0,0,0,0,175,0,175,0,
0,0,0,0,0,0,0,0,0,0,0,0,0,0,0,0,0,0,0,0,0,0,0,0,0,0,0,0,0,0,0,0,0,0,0,0,0,0,0,0,0,0,0,0,0,0,0,0,0,0,0,0,0,0,0,0,0,0,0,0,0,0,0,0,0,0,0,0,0,0,0,0,0,0,0,0,0,0,0,0,0,0,0,0,0,0,0,0,0,0,0,0,0,0,0,0,0,0,0,0,0,0,0,0,0,0,0,0,0,0,0,0,0,0,0,0,0,0,0,0,0,0,0,0,0,0,0,0,0,0,0,0,0,0,0,0,0,0,0,0,0,0,0,0,0,0,0,0,0,0,0,0,175,175,175,175,0,0,0,0,0,0,0,0,0,0,0,0,0,0,0,0,0,0,0,0,0,175,175,0,
0,0,0,0,0,0,0,0,0,0,0,0,0,0,0,0,0,0,0,0,0,0,0,0,0,0,0,0,0,0,0,0,0,0,0,0,0,0,0,0,0,0,0,0,0,0,0,0,0,0,0,0,0,0,0,0,0,0,0,0,0,0,0,0,0,0,0,0,0,0,0,0,0,0,0,0,0,0,0,0,0,0,0,0,0,0,0,0,0,0,0,0,0,0,0,0,0,0,0,0,0,0,0,0,0,0,0,0,0,0,0,0,0,0,0,0,0,0,0,0,0,0,0,0,0,0,0,0,0,0,0,0,0,0,0,0,0,0,0,0,0,0,0,0,0,0,0,0,0,0,0,0,0,0,0,0,0,0,0,0,0,0,0,0,0,0,0,0,0,0,0,0,0,0,0,0,0,0,0,0,
0,0,0,0,0,0,0,0,0,0,0,0,0,0,0,0,0,0,0,0,0,0,0,0,0,0,0,0,0,0,0,0,0,0,0,0,0,0,0,0,0,0,0,0,0,0,0,0,0,0,0,0,0,0,0,0,0,0,0,0,0,0,0,0,0,0,0,0,0,0,0,0,0,0,0,0,0,0,0,0,0,0,0,0,0,0,0,0,0,0,0,0,0,0,0,0,0,0,0,0,0,0,0,0,0,0,0,0,0,0,0,0,0,0,0,0,0,0,0,0,0,0,0,0,0,0,0,0,0,0,0,0,0,0,0,0,0,0,0,0,0,0,0,0,0,0,0,0,0,0,0,0,0,0,0,0,0,0,0,0,0,0,0,0,0,0,0,0,0,0,0,0,0,0,0,0,0,0,0,0,
0,0,0,0,0,0,0,0,0,0,0,0,0,0,0,0,0,0,0,0,0,0,0,0,0,0,0,0,0,0,0,0,0,0,0,0,0,0,0,0,0,0,0,0,0,0,0,0,0,0,0,0,0,0,0,0,0,0,0,0,0,0,0,0,0,0,0,0,0,0,0,0,0,0,0,0,0,0,0,0,0,0,0,0,0,0,0,0,0,0,0,0,0,0,0,0,0,0,0,0,0,0,0,0,0,0,0,0,0,0,0,0,0,0,0,0,0,0,0,0,0,0,0,0,0,0,0,0,0,0,0,0,0,0,0,0,0,0,0,0,0,0,0,0,0,0,0,0,0,0,0,0,0,0,0,0,0,0,0,0,0,0,0,0,0,0,0,0,0,0,0,0,0,0,0,0,0,0,0,0,
0,0,0,0,0,0,0,0,0,0,0,0,0,0,0,0,0,0,0,0,0,0,0,0,0,0,0,0,0,0,0,0,0,0,0,0,0,0,0,0,0,0,0,0,0,0,0,0,0,0,0,0,0,0,0,0,0,0,0,0,0,0,0,0,0,0,0,0,0,0,0,0,0,0,0,0,0,0,0,0,0,0,0,0,0,0,0,0,0,0,0,0,0,0,0,0,0,0,0,0,0,0,0,0,0,0,0,0,0,0,0,0,0,0,0,0,0,0,0,0,0,0,0,0,0,0,0,0,0,0,0,0,0,0,0,0,0,0,0,0,0,0,0,0,0,0,0,0,0,0,0,0,0,0,0,0,0,0,0,0,0,0,0,0,0,0,0,0,0,0,0,0,0,0,0,0,0,0,0,0,
0,0,0,0,0,0,0,0,0,0,0,0,0,0,0,0,0,0,0,0,0,0,0,0,0,0,0,0,0,0,0,0,0,0,0,0,0,0,0,0,0,0,0,0,0,0,0,0,0,0,0,0,0,0,0,0,0,0,0,0,0,0,0,0,0,0,0,0,0,0,0,0,0,0,0,0,0,0,0,0,0,0,0,0,0,0,0,0,0,0,0,0,0,0,0,0,0,0,0,0,0,0,0,0,0,0,0,0,0,0,0,0,0,0,0,0,0,0,0,0,0,0,0,0,0,0,0,0,0,0,0,0,0,0,0,0,0,0,0,0,0,0,0,0,0,0,0,0,0,0,0,0,0,0,0,0,0,0,0,0,0,0,0,0,0,0,0,0,0,0,0,0,0,0,0,0,0,0,0,0
  </data>
 </layer>
 <layer id="3" name="Obstacles_And_Props" width="180" height="64" visible="1">
  <data encoding="csv">
0,0,0,0,0,0,0,0,0,0,0,0,0,0,0,0,0,0,0,0,0,0,0,0,0,0,0,0,0,0,0,0,0,0,0,0,0,0,0,0,0,0,0,0,0,0,0,0,0,0,0,0,0,0,0,0,0,0,0,0,0,0,0,0,0,0,0,0,0,0,0,0,0,0,0,0,0,0,0,0,0,0,0,0,0,0,0,0,0,0,0,0,0,0,0,0,0,0,0,0,0,0,0,0,0,0,0,0,0,0,0,0,0,0,0,0,0,0,0,0,0,0,0,0,0,0,0,0,0,0,0,0,0,0,0,0,0,0,0,0,0,0,0,0,0,0,0,0,0,0,0,0,0,0,0,0,0,0,0,0,0,0,0,0,0,0,0,0,0,0,0,0,0,0,0,0,0,0,0,0,
0,0,0,0,0,0,0,0,0,0,0,0,0,0,0,0,225,0,0,0,0,0,0,0,0,0,0,0,0,0,0,0,0,0,0,0,0,0,0,0,0,0,0,0,225,0,0,0,0,0,0,0,0,0,0,0,0,0,0,0,0,0,0,0,0,0,0,0,0,0,0,0,225,0,0,0,0,0,0,0,0,0,0,0,0,0,0,0,0,0,0,0,0,0,0,0,0,0,0,0,225,0,0,0,0,0,0,0,0,0,0,0,0,0,0,0,0,0,0,0,0,0,0,0,0,0,0,0,225,0,0,0,0,0,0,0,0,0,0,0,0,0,0,0,0,0,0,0,0,0,0,0,0,0,0,0,225,0,0,0,0,0,0,0,0,0,0,0,0,0,0,0,0,0,0,0,0,0,0,0,
0,0,0,0,0,0,0,0,0,225,0,0,0,0,0,0,0,0,0,0,0,0,0,0,0,0,0,0,0,0,0,0,0,0,0,0,0,225,0,0,0,0,0,0,0,0,0,0,0,0,0,0,0,0,0,0,0,0,0,0,0,0,0,0,0,225,0,0,0,0,0,0,0,0,0,0,0,0,0,0,0,0,0,0,0,0,0,0,0,0,0,0,0,225,0,0,0,0,0,0,0,0,0,0,0,0,0,0,0,0,0,0,0,0,0,0,0,0,0,0,0,225,0,0,0,0,0,0,0,0,0,0,0,0,0,0,0,0,0,0,0,0,0,0,0,0,0,0,0,225,0,0,0,0,0,0,0,0,0,0,0,0,0,0,0,0,0,0,0,0,0,0,0,0,0,0,0,225,0,0,
0,0,225,0,0,0,0,0,0,0,0,0,0,0,0,0,0,0,0,0,0,0,0,0,0,0,0,0,0,0,225,0,0,0,0,0,0,0,0,0,0,0,0,0,0,0,0,0,0,0,0,0,0,0,0,0,0,0,225,0,0,0,0,0,0,0,229,229,229,231,229,0,229,229,229,231,229,229,229,229,229,231,0,229,229,229,225,231,229,229,229,229,229,0,229,229,229,0,0,0,0,0,0,0,0,0,0,0,0,0,0,0,0,0,225,0,0,0,0,0,0,0,0,0,0,0,0,0,0,0,0,0,0,0,0,0,0,0,0,0,0,0,225,0,0,0,0,0,0,0,0,0,0,0,0,0,0,0,0,0,0,0,0,0,0,0,0,0,0,0,225,0,0,0,0,0,0,0,0,0,
0,0,0,0,0,229,229,229,231,229,0,229,229,229,231,229,229,229,229,229,231,0,229,225,229,229,231,229,229,229,0,0,0,0,0,0,0,0,0,0,0,0,0,0,0,0,0,0,0,0,0,225,0,0,0,0,0,0,0,0,0,0,0,0,0,0,0,0,238,0,237,239,238,0,237,0,238,0,237,225,238,239,237,0,238,0,237,0,238,0,237,239,0,0,0,0,0,0,0,0,0,0,0,0,0,0,0,225,0,0,0,0,0,0,0,0,0,0,0,0,0,0,0,0,0,0,0,0,0,0,0,0,0,0,0,225,0,0,0,0,0,0,0,0,0,0,0,0,0,0,0,0,0,0,0,0,0,0,0,0,0,0,0,225,0,0,0,0,0,0,0,0,0,0,0,0,0,0,0,0,
0,0,0,0,0,0,0,0,0,237,239,238,0,237,0,238,0,237,0,238,239,237,0,238,0,237,0,0,0,0,0,0,0,0,0,0,0,0,0,0,0,0,0,0,0,0,0,0,0,0,0,0,0,0,0,0,0,0,0,0,0,0,0,0,0,0,0,0,0,237,239,238,0,237,0,238,0,237,0,238,239,237,0,238,0,237,0,238,0,237,239,238,0,0,0,0,0,0,0,0,0,0,0,0,0,0,0,0,0,0,0,0,0,0,0,0,0,0,0,0,0,0,0,0,0,0,0,0,0,0,0,0,229,229,229,231,229,0,229,229,229,231,229,229,229,229,229,231,0,229,229,229,229,231,229,229,229,229,229,0,229,229,229,229,0,0,0,0,0,0,0,0,0,0,0,0,0,0,0,0,
0,0,0,0,0,0,0,0,237,239,238,0,237,0,238,0,237,0,238,239,237,0,238,0,237,0,0,0,0,0,0,0,0,0,0,0,0,0,0,0,0,0,0,0,0,0,0,0,0,0,0,0,0,0,0,0,0,0,0,0,0,0,0,0,0,0,0,0,237,239,238,0,237,0,238,0,237,0,238,239,237,0,238,0,237,0,238,0,237,239,238,0,0,0,0,0,0,0,0,0,0,0,0,0,0,0,0,0,0,0,0,0,0,0,0,0,0,0,0,0,0,0,0,0,0,0,0,0,0,0,0,0,0,0,0,0,237,0,238,239,237,0,238,0,237,0,238,0,237,239,238,0,237,0,238,0,237,0,238,239,0,0,0,0,0,0,0,0,0,0,0,0,0,0,0,0,0,0,0,0,
0,0,0,0,0,0,0,0,239,238,0,237,0,238,0,237,0,238,239,237,0,238,0,237,0,238,0,0,0,0,0,0,0,0,0,0,0,0,0,0,0,0,0,0,0,0,0,0,0,0,0,0,0,0,0,0,0,0,0,0,0,0,0,0,0,0,0,0,239,238,0,237,0,238,0,237,0,238,239,237,0,238,0,237,0,238,0,237,239,238,0,237,0,0,0,0,0,0,0,0,0,0,0,0,0,0,0,0,0,0,0,0,0,0,0,0,0,0,0,0,0,0,0,0,0,0,0,0,0,0,0,0,0,0,0,237,0,238,239,237,0,238,0,237,0,238,0,237,239,238,0,237,0,238,0,237,0,238,239,237,0,0,0,0,0,0,0,0,0,0,0,0,0,0,0,0,0,0,0,0,
0,0,0,0,0,0,0,0,238,0,237,0,238,0,237,0,238,239,237,0,238,0,237,0,238,0,0,0,0,0,0,0,0,0,0,0,0,0,0,0,0,0,0,0,0,0,0,0,0,0,0,0,0,0,0,0,0,0,0,0,0,0,0,0,0,0,0,0,238,0,237,0,238,0,237,0,238,239,237,0,238,0,237,0,238,0,237,239,238,0,237,0,0,0,0,0,0,0,0,0,0,0,0,0,0,0,0,0,0,0,0,0,0,0,0,0,0,0,0,0,0,0,0,0,0,0,0,0,0,0,0,0,0,0,0,0,238,239,237,0,238,0,237,0,238,0,237,239,238,0,237,0,238,0,237,0,238,239,237,0,0,0,0,0,0,0,0,0,0,0,0,0,0,0,0,0,0,0,0,0,
0,0,0,0,0,0,0,0,0,237,0,238,0,237,0,238,239,237,0,238,0,237,0,238,0,237,0,0,0,0,0,0,0,0,0,0,0,0,0,0,0,0,0,0,0,0,0,0,0,0,0,0,0,0,0,0,0,0,0,0,0,0,0,0,0,0,0,0,0,237,0,238,0,237,0,238,239,237,0,238,0,237,0,238,0,237,239,238,0,237,0,238,0,0,0,0,0,0,0,0,0,0,0,0,0,0,0,0,0,0,0,0,0,0,0,0,0,0,0,0,0,0,0,0,0,0,0,0,0,0,0,0,0,0,0,238,239,237,0,238,0,237,0,238,0,237,239,238,0,237,0,238,0,237,0,238,239,237,0,238,0,0,0,0,0,0,0,0,0,0,0,0,0,0,0,0,0,0,0,0,
0,0,0,0,0,0,0,0,237,0,238,0,237,0,238,239,237,0,238,0,237,0,238,0,237,239,0,0,0,0,0,0,0,0,0,0,0,0,0,0,0,0,0,0,0,0,0,0,0,0,0,0,0,0,0,0,0,0,0,0,0,0,0,0,0,0,0,0,237,0,238,0,237,0,238,239,237,0,238,0,237,0,238,0,237,239,238,0,237,0,238,0,0,0,0,0,0,0,0,0,0,0,0,0,0,0,0,0,0,0,0,0,0,0,0,0,0,0,0,0,0,0,0,0,0,0,0,0,0,0,0,0,0,0,0,239,237,0,238,0,237,0,238,0,237,239,238,0,237,0,238,0,237,0,238,239,237,0,238,0,0,0,0,0,0,0,0,0,0,0,0,0,0,0,0,0,0,0,0,0,
0,0,0,0,0,0,0,0,0,238,0,237,0,238,239,237,0,238,0,237,0,238,0,237,239,238,0,0,0,0,0,0,0,0,0,0,0,0,0,0,0,0,0,0,0,0,0,0,0,0,0,0,0,0,0,0,0,0,0,0,0,0,0,0,0,0,0,0,0,238,0,237,0,238,239,237,0,238,0,237,0,238,0,237,239,238,0,237,0,238,0,237,0,0,0,0,0,0,0,0,0,0,0,0,0,0,0,0,0,0,0,0,0,0,0,0,0,0,0,0,0,0,0,0,0,0,0,0,0,0,0,0,0,0,0,237,0,238,0,237,0,238,0,237,239,238,0,237,0,238,0,237,0,238,239,237,0,238,0,237,0,0,0,0,0,0,0,0,0,0,0,0,0,0,0,0,0,0,0,0,
0,0,0,0,0,0,0,0,238,0,237,0,238,239,237,0,238,0,237,0,238,0,237,239,238,0,0,0,0,0,0,0,0,0,0,0,0,0,0,0,0,0,0,0,0,0,0,0,0,0,0,0,0,0,0,0,0,0,0,0,0,0,0,0,0,0,0,0,238,0,237,0,238,239,237,0,238,0,237,0,238,0,237,239,238,0,237,0,238,0,237,0,0,0,0,0,0,0,0,0,0,0,0,0,0,0,0,0,0,0,0,0,0,0,0,0,0,0,0,247,246,246,0,0,0,0,0,0,0,0,0,0,0,0,0,0,238,0,237,0,238,0,237,239,238,0,237,0,238,0,237,0,238,239,237,0,238,0,237,0,0,0,0,0,0,0,0,0,0,0,0,0,0,0,0,0,0,0,0,0,
0,0,0,0,0,0,0,0,0,0,0,0,0,0,0,0,0,0,0,0,0,0,0,0,0,0,0,0,0,0,0,0,0,0,0,0,0,0,0,0,0,0,0,0,0,0,0,0,0,0,0,0,0,0,0,0,0,0,0,0,0,0,0,0,0,0,0,0,0,0,0,0,0,0,0,0,0,0,0,0,0,0,0,0,0,0,0,0,0,0,0,0,0,0,0,0,0,0,0,0,0,0,0,0,0,0,0,0,0,0,0,0,0,0,0,0,0,0,0,244,243,245,0,0,0,0,0,0,0,0,0,0,0,0,0,238,0,237,0,238,0,237,239,238,0,237,0,238,0,237,0,238,239,237,0,238,0,237,0,238,0,0,0,0,0,0,0,0,0,0,0,0,0,0,0,0,0,0,0,0,
0,0,0,0,0,0,0,0,0,0,0,0,0,0,0,0,0,0,0,0,0,0,0,0,0,0,0,0,0,0,0,0,0,0,0,0,0,0,0,0,0,0,0,0,0,0,0,0,0,0,0,0,0,0,0,0,0,0,0,0,0,0,0,0,0,0,0,0,0,0,0,0,0,0,0,0,0,0,0,0,0,0,0,0,0,0,0,0,0,0,0,0,0,0,0,0,0,0,0,0,0,0,0,0,0,0,0,0,0,0,0,0,0,0,0,0,0,0,0,233,235,248,0,0,0,0,0,0,0,0,0,0,0,0,0,0,237,0,238,0,237,239,238,0,237,0,238,0,237,0,238,239,237,0,238,0,237,0,238,0,0,0,0,0,0,0,0,0,0,0,0,0,0,0,0,0,0,0,0,0,
0,0,0,0,0,0,0,0,0,0,0,0,0,0,0,0,0,0,0,0,0,0,0,0,0,0,0,0,0,0,0,0,0,0,0,0,0,0,0,0,0,0,0,0,0,0,0,0,0,0,0,0,0,0,0,0,0,0,0,0,0,0,0,0,0,0,0,0,0,0,0,0,0,0,0,0,0,0,0,0,0,0,0,0,0,0,0,0,0,0,0,0,0,0,0,0,0,0,0,0,0,0,0,0,0,0,0,0,0,0,0,0,0,0,0,0,0,0,0,0,0,0,0,0,0,0,0,0,0,0,0,0,0,0,0,237,0,238,0,237,239,238,0,237,0,238,0,237,0,238,239,237,0,238,0,237,0,238,0,237,0,0,0,0,0,0,0,0,0,0,0,0,0,0,0,0,0,0,0,0,
0,0,0,0,0,0,0,0,0,0,0,0,0,0,0,0,0,0,0,0,0,0,0,0,0,0,0,0,0,0,0,0,0,0,0,0,0,0,0,0,0,0,0,0,0,0,0,0,0,0,0,0,0,0,0,0,0,0,0,0,0,0,0,0,0,0,0,0,0,0,0,0,0,0,0,0,0,0,0,0,0,0,0,0,0,0,0,0,0,0,0,0,0,0,0,0,0,0,0,0,0,0,0,0,0,0,0,0,0,0,0,0,0,0,0,0,0,236,0,0,0,0,0,0,0,0,0,0,0,0,0,0,0,0,0,0,0,0,0,0,0,0,0,0,0,0,0,0,0,0,0,0,0,0,0,0,0,0,0,0,0,0,0,0,0,0,0,0,0,0,0,0,0,0,0,0,0,0,0,0,
0,0,0,0,0,0,0,0,0,0,0,0,0,0,0,0,0,0,0,0,0,0,0,0,0,0,0,0,0,0,0,0,0,0,0,0,0,0,0,229,229,229,231,229,0,229,229,229,231,229,229,229,229,229,231,0,229,229,229,229,231,229,229,229,229,229,0,229,0,0,0,0,0,0,0,0,0,0,0,0,0,0,0,0,0,0,0,0,0,0,0,0,0,0,0,0,0,0,0,0,0,0,0,0,0,0,0,0,0,0,0,0,0,0,0,0,0,0,0,0,0,0,0,0,0,0,0,0,0,0,0,0,0,0,0,0,0,0,0,0,0,0,0,0,0,0,0,0,0,0,0,0,0,0,0,0,0,0,0,0,0,0,0,0,0,0,0,0,0,0,0,0,0,0,0,0,0,0,0,0,
0,0,0,0,0,0,0,0,0,0,0,0,0,0,0,0,0,0,0,0,0,0,0,0,0,0,0,0,0,0,0,0,0,0,0,0,0,0,0,0,0,0,238,0,237,0,238,239,237,0,238,0,237,0,238,0,237,239,238,0,237,0,238,0,0,0,0,0,0,0,0,0,0,0,0,0,0,0,0,0,0,0,0,0,0,0,0,0,0,0,0,0,0,0,0,0,0,0,0,0,0,0,0,0,0,0,0,0,0,0,0,0,0,0,0,0,0,0,0,0,0,0,0,0,0,0,0,0,0,0,0,0,0,0,0,0,0,0,0,0,0,0,0,0,0,0,0,0,0,0,0,0,0,0,0,0,0,0,0,0,0,0,0,0,0,0,0,0,0,0,0,0,0,0,0,0,0,0,0,0,
0,0,0,0,0,0,0,0,0,0,0,0,0,0,0,0,0,0,0,0,0,0,0,0,0,0,0,0,0,0,0,0,0,0,0,0,0,0,0,0,0,0,0,237,0,238,239,237,0,238,0,237,0,238,0,237,239,238,0,237,0,238,0,237,0,0,0,0,0,0,0,0,0,0,0,0,0,0,0,0,0,0,0,0,0,0,0,0,0,0,0,0,0,0,0,0,0,0,0,0,0,0,0,0,0,0,0,0,229,229,229,231,229,0,229,229,229,231,229,229,229,229,229,231,0,229,229,229,229,231,229,229,229,229,229,0,229,229,0,0,0,0,0,0,0,0,0,0,0,0,0,0,0,0,0,0,0,0,0,0,0,0,0,0,0,0,0,0,0,0,0,0,0,0,0,0,0,0,0,0,
0,0,0,0,0,0,0,0,0,0,0,0,0,0,0,0,0,0,0,0,0,0,0,0,0,0,0,0,0,0,0,0,0,0,0,0,0,0,0,0,0,0,237,0,238,239,237,0,238,0,237,0,238,0,237,239,238,0,237,0,238,0,237,0,0,0,0,0,0,0,0,0,0,0,0,0,0,0,0,0,0,0,0,0,0,0,0,0,0,0,0,0,0,0,0,0,0,0,0,0,0,0,0,0,241,0,0,0,0,0,0,0,238,0,237,239,238,0,237,0,238,0,237,0,238,239,237,0,238,0,237,0,238,0,0,0,0,0,0,0,0,0,0,0,0,0,0,0,0,0,0,0,0,0,0,0,0,0,0,0,0,0,0,0,0,0,0,0,0,0,0,0,0,0,0,0,0,0,0,0,
0,0,0,0,0,0,0,0,0,0,0,0,0,0,0,0,0,0,0,0,0,0,0,0,0,0,0,0,0,0,0,0,0,0,0,0,0,0,0,0,0,0,0,238,239,237,0,238,0,237,0,238,0,237,239,238,0,237,0,238,0,237,0,238,0,0,0,0,0,0,0,0,0,0,0,0,0,0,0,0,0,0,0,0,0,0,0,0,0,0,0,0,0,0,0,0,0,0,0,0,0,0,0,0,0,0,0,0,0,0,0,238,0,237,239,238,0,237,0,238,0,237,0,238,239,237,0,238,0,237,0,238,0,0,0,0,0,0,0,0,0,0,0,0,0,0,0,0,0,0,0,0,0,0,0,0,0,0,0,0,0,0,0,0,0,0,0,0,0,0,0,0,0,0,0,0,0,0,0,0,
0,0,0,0,0,0,0,0,0,0,0,0,0,0,0,0,0,0,0,0,0,0,0,0,0,0,0,0,0,0,0,0,0,0,0,0,0,0,0,0,0,0,238,239,237,0,238,0,237,0,238,0,237,239,238,0,237,0,238,0,237,0,238,239,0,0,0,0,0,0,0,0,0,0,0,0,0,0,0,0,0,0,0,0,0,0,0,0,0,0,0,0,0,0,0,0,0,0,0,0,0,0,0,0,0,0,0,0,0,0,0,0,237,239,238,0,237,0,238,0,237,0,238,239,237,0,238,0,237,0,238,0,237,0,0,0,0,0,0,0,0,0,0,0,0,0,0,0,0,0,0,0,0,0,0,0,0,0,0,0,0,0,0,0,0,0,0,0,0,0,0,0,0,0,0,0,0,0,0,0,
0,0,0,0,0,0,0,0,0,0,0,0,0,0,0,0,0,0,0,0,0,0,0,0,0,0,0,0,0,0,0,0,0,0,0,0,0,0,0,0,0,0,239,237,0,238,0,237,0,238,0,237,239,238,0,237,0,238,0,237,0,238,239,237,0,0,0,0,0,0,0,0,0,0,0,0,0,0,0,0,0,0,0,0,0,0,0,0,0,0,0,0,0,0,0,0,0,0,0,0,0,0,0,0,0,0,0,0,0,0,0,237,239,238,0,237,0,238,0,237,0,238,239,237,0,238,0,237,0,238,0,237,239,0,0,0,0,0,0,0,0,0,0,0,0,0,0,0,0,0,0,0,0,0,0,0,0,0,0,0,0,0,0,0,0,0,0,0,0,0,0,0,0,0,0,0,0,0,0,0,
0,0,0,0,0,0,0,0,0,0,0,0,0,0,0,0,0,0,0,0,0,0,0,0,0,0,0,0,230,0,0,0,0,0,0,0,0,0,0,0,0,0,237,0,238,0,237,0,238,0,237,239,238,0,237,0,238,0,237,0,238,239,237,0,0,0,0,0,0,0,0,0,0,0,0,0,0,0,0,0,0,0,0,0,0,0,0,0,0,0,0,0,0,0,0,0,0,0,0,0,0,0,0,0,0,0,0,0,0,0,0,239,238,0,237,0,238,0,237,0,238,239,237,0,238,0,237,0,238,0,237,239,238,0,0,0,0,0,0,0,0,0,0,0,0,0,0,0,0,0,0,0,0,0,0,0,0,0,0,0,0,0,0,0,0,0,0,0,0,0,0,0,0,0,0,0,0,0,0,0,
0,0,0,0,0,0,0,0,0,0,0,0,0,0,0,0,0,0,0,0,0,0,0,0,0,0,0,0,230,0,0,0,0,0,0,0,0,0,0,0,0,0,0,238,0,237,0,238,0,237,239,238,0,237,0,238,0,237,0,238,239,237,0,238,0,0,0,0,0,0,0,0,0,0,0,0,0,0,0,0,0,0,0,0,0,0,0,0,0,0,0,0,0,0,0,0,0,0,0,0,0,0,0,0,0,0,0,0,0,0,0,238,0,237,0,238,0,237,0,238,239,237,0,238,0,237,0,238,0,237,239,238,0,0,0,0,0,0,0,0,0,0,0,0,0,0,0,0,0,0,0,0,0,0,0,0,0,0,0,0,0,0,0,0,0,0,0,0,0,0,0,0,0,0,0,0,0,0,0,0,
0,0,0,0,0,0,0,0,0,0,0,0,0,0,0,0,0,0,0,0,0,0,0,0,0,0,0,0,230,0,0,0,0,0,0,0,0,0,0,0,0,0,238,0,237,0,238,0,237,239,238,0,237,0,238,0,237,0,238,239,237,0,238,0,0,0,0,0,0,0,0,0,0,0,0,0,0,0,0,0,0,0,0,0,0,0,0,0,0,0,0,0,0,0,0,0,0,0,0,0,0,0,0,0,0,0,0,0,0,0,0,0,237,0,238,0,237,0,238,239,237,0,238,0,237,0,238,0,237,239,238,0,237,0,0,0,0,0,0,0,0,0,0,0,0,0,0,0,0,0,0,0,0,0,0,0,0,0,0,0,0,0,0,0,0,0,0,0,0,0,0,0,0,0,0,0,0,0,0,0,
0,0,0,0,0,0,0,0,0,0,0,0,0,0,0,0,0,0,0,0,0,0,0,0,0,0,0,0,231,0,0,0,0,0,0,0,0,0,0,0,0,0,0,0,0,0,0,0,0,0,0,0,0,0,0,0,0,0,0,0,0,0,0,0,0,0,0,0,0,0,0,0,0,0,0,0,0,0,0,0,0,0,0,0,0,0,0,0,0,0,0,0,0,0,0,0,0,0,0,0,0,0,0,0,0,0,0,0,0,0,0,237,0,238,0,237,0,238,239,237,0,238,0,237,0,238,0,237,239,238,0,237,0,0,0,0,0,0,0,0,0,0,0,0,0,0,0,0,0,0,0,0,0,0,0,0,0,0,0,0,0,0,0,0,235,0,0,0,0,0,0,0,0,0,0,0,0,0,0,0,
0,0,0,0,0,0,0,0,0,0,0,0,0,0,0,0,0,0,0,0,0,0,0,0,0,0,0,0,230,0,0,0,0,0,0,0,0,0,0,0,0,0,0,0,0,0,0,0,0,0,0,0,0,0,0,0,0,0,0,0,0,0,0,0,0,0,0,0,0,0,0,0,0,0,0,0,0,0,0,0,0,0,0,0,0,0,0,0,0,0,0,0,0,0,0,0,0,0,0,0,0,0,0,0,0,0,0,0,0,0,0,0,238,0,237,0,238,239,237,0,238,0,237,0,238,0,237,239,238,0,237,0,238,0,0,0,0,0,0,0,0,0,0,0,0,0,0,0,0,0,0,0,0,0,0,0,0,0,0,0,0,0,0,0,0,0,0,0,0,0,0,0,0,0,0,0,0,0,0,0,
0,0,0,0,0,0,0,0,0,0,0,0,0,0,0,0,0,0,0,0,0,0,0,0,0,0,0,0,0,0,0,0,0,0,0,0,0,0,0,0,0,0,0,0,0,0,0,0,0,0,0,0,0,0,231,0,0,0,0,0,0,0,0,0,0,0,0,0,0,0,0,0,0,0,0,0,0,0,0,0,0,0,0,0,0,0,0,0,0,0,0,0,0,0,0,0,0,0,0,0,0,0,0,0,0,0,0,0,0,0,0,0,0,0,0,0,0,0,0,0,0,0,0,0,0,0,0,0,0,0,0,0,0,0,0,0,0,0,0,0,0,0,0,0,0,0,0,0,0,0,0,0,0,0,0,0,0,0,0,0,0,0,0,0,0,0,0,0,0,0,0,0,0,0,0,0,0,0,0,0,
0,0,0,0,0,0,0,0,0,0,0,0,0,0,0,0,0,0,0,0,0,0,0,0,0,0,0,0,230,0,0,0,0,0,0,0,0,0,0,0,0,0,0,0,0,0,0,0,0,0,0,0,0,0,0,0,0,0,0,0,0,0,0,0,0,0,0,0,0,0,0,0,0,0,0,0,0,0,0,0,0,0,0,0,0,0,0,0,0,0,0,0,0,0,0,0,0,0,0,0,0,0,0,0,0,0,0,0,0,0,0,0,0,0,0,0,0,0,0,0,0,0,0,0,0,0,0,0,0,0,0,0,0,0,0,0,0,0,0,0,0,0,0,0,0,0,0,0,0,0,0,0,0,0,0,0,0,0,0,0,0,0,0,0,0,0,0,0,0,0,0,0,0,0,0,0,0,0,0,0,
0,0,0,0,0,0,0,0,0,0,0,0,0,0,0,0,0,0,0,0,0,0,0,0,0,0,0,0,230,0,0,0,0,0,0,0,0,0,0,0,0,0,0,0,0,0,0,0,0,0,0,0,0,0,0,0,0,0,0,0,0,0,0,0,0,0,0,0,0,0,0,0,0,0,0,0,0,0,0,0,0,0,0,0,0,0,0,0,0,0,0,0,0,0,0,0,0,0,0,0,0,0,0,0,0,0,0,0,0,0,0,0,0,0,0,0,0,0,0,0,0,0,0,230,0,0,0,0,0,0,0,0,0,0,0,0,0,0,0,0,0,0,0,0,0,0,0,0,0,0,0,0,0,247,246,246,0,0,0,0,0,0,0,0,0,0,0,0,0,0,0,0,0,0,0,0,0,0,0,0,
0,0,0,0,0,0,0,0,0,0,0,0,0,0,0,0,0,0,0,0,0,0,0,0,0,0,0,0,230,0,0,0,0,0,0,0,0,0,0,0,0,0,0,0,0,0,0,0,0,0,0,0,0,0,0,0,0,0,0,0,0,0,0,0,0,0,0,0,0,0,0,0,0,0,0,0,0,0,0,0,0,0,0,0,0,0,0,0,0,0,0,0,0,0,0,0,0,0,0,0,0,0,0,0,0,0,0,0,0,0,0,0,0,0,0,0,0,0,0,0,0,0,0,230,0,0,0,0,0,0,0,0,0,0,0,0,0,0,0,0,0,0,0,0,0,0,0,0,0,0,0,0,0,244,243,245,0,0,0,0,0,0,0,0,0,0,0,0,0,0,0,0,0,0,0,0,0,0,0,0,
0,0,0,0,0,0,0,0,0,0,0,0,0,0,0,0,0,0,0,0,0,0,0,0,0,0,0,0,231,0,0,0,0,0,0,0,0,0,0,0,0,0,0,0,0,0,0,0,0,0,0,0,0,0,0,0,0,0,0,0,0,0,0,0,0,0,0,0,0,0,0,0,0,0,0,0,233,0,0,0,0,0,0,0,0,0,0,0,0,0,0,0,0,0,0,0,0,0,0,0,0,0,0,0,0,0,0,0,0,0,0,0,0,0,0,0,0,0,0,0,0,0,0,230,0,0,0,0,0,0,0,0,0,0,0,0,0,0,0,0,0,0,0,0,0,0,0,0,0,0,0,0,0,233,235,248,0,0,0,0,0,0,0,0,0,0,0,0,0,0,0,0,0,0,0,0,0,0,0,0,
0,0,0,0,0,0,0,0,0,0,0,0,0,0,0,0,0,0,0,0,0,0,0,0,0,0,0,0,230,0,0,0,0,0,0,0,0,0,0,0,0,0,0,235,0,0,0,0,0,0,0,0,0,0,0,0,0,0,0,0,0,0,0,0,0,0,0,0,0,0,0,0,0,0,0,0,0,0,0,0,0,0,0,0,0,0,0,0,0,0,0,0,0,0,0,0,0,0,0,0,0,0,0,0,0,0,0,0,0,0,0,0,0,0,0,0,0,0,0,0,0,0,0,231,0,0,0,0,0,0,0,0,0,0,0,0,0,0,0,0,0,0,0,0,0,0,0,0,0,0,0,0,0,0,0,0,0,0,0,0,0,0,0,0,0,0,0,0,0,0,0,0,0,0,0,0,0,0,0,0,
0,0,0,0,0,0,0,0,0,0,0,0,0,0,0,0,0,0,0,0,0,0,0,0,0,0,0,242,230,0,0,0,0,0,0,0,0,0,0,0,0,0,0,0,0,0,0,0,0,0,0,0,0,0,0,247,246,246,0,0,0,0,0,0,0,0,0,0,0,0,0,0,0,0,0,0,0,0,0,0,0,0,0,0,0,0,0,0,0,0,0,0,0,0,0,0,0,0,0,0,0,0,0,0,0,0,0,0,0,0,0,0,0,0,0,0,0,0,0,0,0,0,0,230,0,0,0,0,0,0,0,0,0,0,0,0,0,0,0,0,0,0,0,0,0,0,0,0,0,0,0,0,0,0,0,0,0,0,0,0,0,0,0,0,0,0,0,0,0,0,0,0,0,0,0,0,0,0,0,0,
0,0,0,0,0,0,0,0,0,0,0,0,0,0,0,0,0,0,0,0,0,0,0,0,0,0,0,0,230,0,0,0,0,0,0,0,0,0,0,0,0,0,0,0,0,0,0,0,0,0,0,0,0,0,0,244,243,245,0,0,0,0,0,0,0,0,0,0,0,0,0,0,0,0,0,0,0,0,0,0,0,0,0,0,0,0,0,0,0,0,0,0,0,0,0,0,0,0,0,0,0,0,0,0,0,0,0,0,0,0,0,0,0,0,0,0,0,0,0,0,0,0,0,0,0,0,0,0,0,0,0,0,0,0,0,0,0,0,0,0,0,0,0,0,0,0,0,0,0,0,0,0,0,0,0,0,0,0,0,0,0,0,0,0,0,0,0,0,0,0,0,0,0,0,0,0,0,0,0,0,
0,0,0,0,0,0,0,0,0,0,0,0,0,0,0,0,0,0,0,0,0,0,0,0,0,0,0,0,230,0,0,0,0,0,0,0,0,0,0,0,0,0,0,0,0,0,0,0,0,0,0,0,0,0,0,233,235,248,0,0,0,0,0,0,0,0,0,0,0,0,0,0,0,0,0,0,0,0,0,0,0,0,0,0,0,0,0,0,0,0,0,0,0,0,0,0,0,0,0,0,0,0,0,0,0,0,0,0,0,0,0,0,0,0,0,0,0,0,0,0,0,0,0,230,0,0,0,0,0,0,0,0,0,0,0,0,0,0,0,0,0,0,0,0,0,0,0,0,0,0,0,0,0,0,0,0,0,0,0,0,0,0,0,0,0,0,0,0,0,0,0,0,0,0,0,0,0,0,0,0,
0,0,0,0,0,0,0,0,0,0,0,0,0,0,0,0,0,0,0,0,0,0,0,0,0,0,0,0,230,0,0,0,0,0,0,0,0,0,0,0,0,0,0,0,0,0,0,0,0,0,0,0,0,0,0,0,0,0,0,0,0,0,0,0,0,0,0,0,0,0,0,0,0,0,0,0,0,0,0,0,0,0,0,0,0,0,0,0,0,0,0,0,0,0,0,0,0,0,0,0,0,0,0,0,0,0,0,0,0,0,0,0,0,0,0,0,0,0,0,0,0,0,0,230,0,0,0,0,0,0,0,0,0,0,0,0,0,0,0,0,0,0,0,0,0,0,0,0,0,0,234,0,0,0,0,0,0,0,0,0,0,0,0,0,0,0,0,0,0,0,0,0,0,0,0,0,0,0,0,0,
0,0,0,0,0,0,0,0,0,0,0,0,0,0,0,0,0,0,0,0,0,0,0,0,0,0,0,0,231,0,0,0,0,0,0,0,0,0,0,0,0,0,0,0,0,0,0,0,0,0,0,0,0,0,0,0,0,0,0,0,0,0,0,0,0,0,0,0,0,0,0,0,0,0,0,0,0,0,0,0,0,0,0,0,0,0,0,0,0,0,0,0,0,0,0,0,0,0,0,0,0,0,0,0,0,0,0,0,0,0,0,0,0,0,0,0,0,0,0,0,0,0,0,230,0,0,0,0,0,0,0,0,0,0,0,0,0,0,0,0,0,0,0,0,0,0,0,0,0,0,0,0,0,0,0,0,0,0,0,0,0,0,0,0,0,0,0,0,0,0,0,0,0,0,0,0,0,0,0,0,
0,0,0,0,0,0,0,0,0,0,0,0,0,0,0,0,0,0,0,0,0,0,0,0,0,0,0,0,0,0,0,0,0,0,0,0,0,0,0,0,0,0,0,0,0,0,0,0,0,0,0,0,0,0,0,0,0,0,0,0,0,0,0,0,0,0,0,0,0,0,0,0,0,0,0,0,0,0,0,0,0,0,0,0,0,0,0,0,0,0,0,0,0,0,0,0,0,0,0,0,0,0,0,0,0,0,0,0,0,0,0,0,0,0,0,0,0,0,0,0,0,0,0,231,0,0,0,0,0,0,0,0,0,0,0,0,0,0,0,0,0,0,0,0,0,0,0,0,0,0,0,0,0,0,0,0,0,0,0,0,0,0,0,0,0,0,0,0,0,0,0,0,0,0,0,0,0,0,0,0,
0,0,0,0,0,0,0,0,0,0,0,0,0,0,0,0,0,0,0,0,0,0,0,0,0,0,0,0,230,0,0,0,0,0,0,0,0,0,0,0,0,0,0,0,0,0,0,0,0,0,0,0,0,0,0,0,0,0,0,0,0,0,0,0,0,0,0,0,0,0,0,0,0,0,0,0,0,0,0,0,0,0,0,0,0,0,0,0,0,0,0,0,0,0,0,0,0,0,0,0,0,0,0,0,0,0,0,0,0,0,0,0,0,0,0,0,0,0,0,0,0,0,0,230,0,0,0,0,0,0,0,0,0,0,0,0,0,0,0,0,0,0,0,0,0,0,0,0,0,0,0,0,0,0,0,0,0,0,0,0,0,0,0,0,0,0,0,0,0,0,0,0,0,0,0,0,0,0,0,0,
0,0,0,0,0,0,0,0,0,0,0,0,0,0,0,0,0,0,238,0,237,0,238,239,237,0,238,0,237,0,238,0,237,239,238,0,237,0,0,0,0,0,0,0,0,0,0,0,0,0,0,0,0,0,0,0,0,0,0,0,0,0,0,0,0,0,0,0,0,0,0,0,0,0,0,0,0,0,0,0,0,0,0,0,240,0,0,0,0,0,0,0,0,0,0,0,0,0,0,0,0,0,0,0,0,0,0,0,0,0,0,0,0,0,0,0,0,0,0,0,0,0,0,230,0,0,0,0,0,0,0,0,0,0,0,0,0,0,0,0,0,0,0,0,0,0,0,0,237,0,238,0,237,239,238,0,237,0,238,0,237,0,238,239,237,0,238,0,237,0,238,0,0,0,0,0,0,0,0,0,
0,0,0,0,0,0,0,0,0,0,0,0,0,0,0,0,0,0,234,237,0,238,239,237,0,238,0,237,0,238,0,237,239,238,0,237,0,238,0,0,0,0,0,0,0,0,0,0,0,0,0,0,0,0,0,0,0,0,0,0,0,0,0,0,0,0,0,0,0,0,0,0,0,0,0,0,0,0,0,0,0,0,0,0,0,0,0,0,0,0,0,0,0,0,0,0,0,0,0,0,0,0,0,0,0,0,0,0,0,0,0,0,0,0,0,0,0,0,0,0,0,0,0,230,0,0,0,0,0,0,0,0,0,0,0,0,0,0,0,0,0,0,0,0,0,0,0,0,0,238,0,237,239,238,0,237,0,238,0,237,0,238,239,237,0,238,0,237,0,238,0,237,0,0,0,0,0,0,0,0,
0,0,0,0,0,0,0,0,0,0,0,0,0,0,0,0,0,0,237,0,238,239,237,0,238,0,237,0,238,0,237,239,238,0,237,0,238,0,0,0,0,0,0,0,0,0,0,0,0,0,0,0,0,0,0,0,0,0,0,0,0,0,0,0,0,0,0,0,0,0,0,0,0,0,0,0,0,0,0,0,0,0,0,0,238,0,237,0,238,0,237,239,238,0,237,0,238,0,237,0,238,239,237,0,238,0,237,0,0,0,0,0,0,0,0,0,0,0,0,0,0,0,0,230,0,0,0,0,0,0,0,0,0,0,0,0,0,232,0,0,0,0,0,0,0,0,0,0,238,0,237,239,238,0,237,0,238,0,237,0,238,239,237,0,238,0,237,0,238,0,237,239,0,0,0,0,0,0,0,0,
0,0,0,0,0,0,0,0,0,0,0,0,0,0,0,0,0,0,0,238,239,237,0,238,0,237,0,238,0,237,239,238,0,237,0,238,0,237,0,0,0,0,0,0,0,0,0,0,0,0,0,0,0,0,0,0,0,0,0,0,0,0,0,0,0,0,0,0,0,0,0,0,0,0,0,0,0,0,0,0,0,0,0,238,0,237,0,238,0,237,239,238,0,237,0,238,0,237,0,238,239,237,0,238,0,237,0,0,0,0,0,0,0,0,0,0,0,0,0,0,0,0,0,230,0,0,0,0,0,0,0,0,0,0,0,0,0,0,0,0,0,0,0,0,0,0,0,0,0,237,239,238,0,237,0,238,0,237,0,238,239,237,0,238,0,237,0,238,0,237,239,238,0,0,0,0,0,0,0,0,
0,0,0,0,0,0,0,0,0,0,0,0,0,0,0,0,0,0,238,239,237,0,238,0,237,0,238,0,237,239,238,0,237,0,238,0,237,0,0,0,0,0,0,0,0,0,0,0,0,0,0,0,0,0,0,0,0,0,0,0,0,0,0,0,0,0,0,0,0,0,0,0,0,0,0,0,0,0,0,0,0,0,0,0,237,0,238,0,237,239,238,0,237,0,238,0,237,0,238,239,237,0,238,0,237,0,238,0,0,0,0,0,0,0,0,0,0,0,0,0,0,0,0,231,0,0,0,0,0,0,0,0,0,0,0,0,0,0,0,0,0,0,0,0,0,0,0,0,237,239,238,0,237,0,238,0,237,0,238,239,237,0,238,0,237,0,238,0,237,239,238,0,0,0,0,0,0,0,0,0,
0,0,0,0,0,0,0,0,0,0,0,0,0,0,0,0,0,0,239,237,0,238,0,237,0,238,0,237,239,238,0,237,0,238,0,237,0,238,0,0,0,0,0,0,0,0,0,0,0,0,0,0,0,0,0,0,0,0,0,0,0,0,0,0,0,0,0,0,0,0,0,0,0,0,0,0,0,0,0,0,0,0,0,237,0,238,0,237,239,238,0,237,0,238,0,237,0,238,239,237,0,238,0,237,0,238,0,0,0,0,0,0,0,0,0,0,0,0,0,0,0,0,0,0,0,0,0,0,0,0,0,0,0,0,0,0,0,0,0,0,0,0,0,0,0,0,0,0,239,238,0,237,0,238,0,237,0,238,239,237,0,238,0,237,0,238,0,237,239,238,0,237,0,0,0,0,0,0,0,0,
0,0,0,0,0,0,0,0,0,0,0,0,0,0,0,0,0,0,237,0,238,0,237,0,238,0,237,239,238,0,237,0,238,0,237,0,238,239,0,0,0,0,0,0,0,0,0,0,0,0,0,0,0,0,0,0,0,0,0,0,0,0,0,0,0,0,0,0,0,0,0,0,0,0,0,0,0,0,0,0,0,0,0,0,238,0,237,239,238,0,237,0,238,0,237,0,238,239,237,0,238,0,237,0,238,0,237,0,0,0,0,0,0,0,0,0,0,0,0,0,0,0,0,230,0,0,0,0,0,0,0,0,0,0,0,0,0,0,0,0,0,0,0,0,0,0,0,0,238,0,237,0,238,0,237,0,238,239,237,0,238,0,237,0,238,0,237,239,238,0,237,0,0,0,0,0,0,0,0,0,
0,0,0,0,0,0,0,0,0,0,0,0,0,0,0,0,0,0,0,238,0,237,0,238,0,237,239,238,0,237,0,238,0,237,0,238,239,237,0,0,0,0,0,0,0,0,0,0,0,0,0,0,0,0,0,0,0,0,0,0,0,0,0,0,0,0,0,0,0,0,0,0,0,0,0,0,0,0,0,0,0,0,0,238,0,237,239,238,0,237,0,238,0,237,0,238,239,237,0,238,0,237,0,238,0,237,239,0,0,0,0,0,0,0,0,0,0,0,0,0,0,0,0,230,0,0,0,0,0,0,0,0,0,0,0,0,0,0,0,0,0,0,0,0,0,0,0,0,0,237,0,238,0,237,0,238,239,237,0,238,0,237,0,238,0,237,239,238,0,237,0,238,0,0,0,0,0,0,0,0,
0,0,0,0,0,0,0,0,0,0,0,0,0,0,0,0,0,0,238,0,237,0,238,0,237,239,238,0,237,0,238,0,237,0,238,239,237,0,0,0,0,0,0,0,0,0,0,0,0,0,0,0,0,0,0,0,0,0,0,0,0,0,0,0,0,0,0,0,0,0,0,0,0,0,0,0,0,0,0,0,0,0,0,0,237,239,238,0,237,0,238,0,237,0,238,239,237,0,238,0,237,0,238,0,237,239,238,0,0,0,0,0,0,0,0,0,0,0,0,0,0,0,0,230,0,0,0,0,0,0,0,0,0,0,0,0,0,0,0,0,0,0,0,0,0,0,0,0,237,0,238,0,237,0,238,239,237,0,238,0,237,0,238,0,237,239,238,0,237,0,238,0,0,0,0,0,0,0,0,0,
0,0,0,0,0,0,0,0,0,0,0,0,0,0,0,0,0,0,0,0,0,0,0,0,0,0,0,0,0,0,0,0,0,0,0,0,0,0,0,0,0,0,0,0,0,0,0,0,0,0,0,0,0,0,0,0,0,0,0,0,0,0,0,0,0,0,0,0,0,0,0,0,0,0,0,0,0,0,0,0,0,0,0,237,239,238,0,237,0,238,0,237,0,238,239,237,0,238,0,237,0,238,0,237,239,238,0,0,0,0,0,0,0,0,0,0,0,0,0,0,0,0,0,0,0,0,0,0,0,0,0,0,0,0,0,0,0,0,0,0,0,0,0,0,0,0,0,0,0,238,0,237,0,238,239,237,0,238,0,237,0,238,0,237,239,238,0,237,0,238,0,237,0,0,0,0,0,0,0,0,
0,0,0,0,0,0,0,0,0,0,0,0,0,0,0,0,229,229,229,231,229,0,229,229,229,231,229,229,229,229,229,231,0,229,229,229,229,231,229,229,229,229,0,0,0,0,0,0,0,0,0,0,0,0,0,0,0,0,0,0,0,0,0,0,0,0,0,0,0,0,0,0,0,0,0,0,0,0,0,0,0,0,0,239,238,0,237,0,238,0,237,0,238,239,237,0,238,0,237,0,238,0,237,239,238,0,237,0,0,0,0,0,0,0,0,0,0,0,0,0,0,0,0,0,0,0,0,0,0,0,0,0,0,0,0,0,0,0,0,0,0,0,0,0,0,0,0,0,0,0,0,0,0,0,0,0,0,0,0,0,0,0,0,0,0,0,0,0,0,0,0,0,0,0,0,0,0,0,0,0,
0,0,0,0,0,0,0,0,0,0,0,0,0,0,0,0,0,0,0,0,0,0,0,0,0,0,0,0,0,0,0,0,0,0,0,0,0,0,0,0,0,0,0,0,0,0,0,0,0,0,0,0,0,0,0,0,0,0,0,0,0,0,0,0,0,0,0,0,0,0,0,0,0,0,0,0,0,0,0,0,0,0,0,238,0,237,0,238,0,237,0,238,239,237,0,238,0,237,0,238,0,237,239,238,0,237,0,0,0,0,0,0,0,0,0,0,0,0,0,0,0,0,0,0,0,0,0,0,0,0,0,0,0,0,0,0,0,0,0,0,0,0,0,0,0,0,0,0,0,0,0,0,0,0,0,0,0,0,0,0,0,0,0,0,0,0,0,0,0,0,0,0,0,0,0,0,0,0,0,0,
0,0,0,0,0,0,0,0,0,0,0,0,0,0,0,0,0,0,0,0,0,0,0,0,0,0,0,0,0,0,0,0,0,0,0,0,0,0,0,0,0,0,0,0,0,0,0,0,0,0,0,0,0,0,0,0,0,0,0,0,0,0,0,0,0,0,0,0,0,0,0,0,0,0,0,0,0,0,0,0,0,0,0,0,0,0,0,0,0,0,0,0,0,0,0,0,0,0,0,0,0,0,0,0,0,0,0,0,0,0,0,0,0,0,0,0,0,0,0,0,0,0,0,0,0,0,0,0,0,0,0,0,0,0,0,0,0,0,0,0,0,0,0,0,0,229,229,229,231,229,0,229,229,229,231,229,229,229,229,229,231,0,229,229,229,229,231,229,229,229,229,229,0,229,229,229,229,229,0,0,
0,0,0,0,0,0,0,0,0,0,0,0,0,0,0,0,0,0,0,0,0,0,0,0,0,0,0,0,0,0,0,0,0,0,0,0,0,0,0,0,0,0,0,0,0,0,0,0,0,0,0,0,0,0,0,0,0,0,0,0,0,0,0,0,0,0,0,0,0,0,0,0,0,0,0,0,0,0,0,0,0,0,229,229,229,231,229,0,229,229,229,231,229,229,229,229,229,231,0,229,229,229,229,231,229,229,229,229,229,0,229,229,229,229,0,0,0,0,0,0,0,0,0,0,0,0,0,0,0,0,0,0,0,0,0,0,0,0,0,0,0,0,0,0,0,0,0,0,0,0,0,0,0,0,0,0,0,0,0,0,0,0,0,0,0,0,0,0,0,0,0,0,0,0,0,0,0,0,0,0,
0,0,0,0,0,0,0,0,0,0,0,0,0,0,0,0,0,0,0,0,0,0,0,0,0,0,0,0,0,0,0,0,0,0,0,0,0,0,0,0,0,0,0,0,0,0,0,0,0,0,0,0,0,0,0,0,0,0,0,0,0,0,0,0,0,0,0,0,0,0,0,0,0,0,0,0,0,0,0,0,0,0,0,0,0,0,0,0,0,0,0,0,0,0,0,0,0,0,0,0,0,0,0,0,0,0,0,0,0,0,0,0,0,0,0,0,0,0,0,0,0,0,0,0,0,0,0,0,0,0,0,0,0,0,0,0,0,0,0,0,0,0,0,0,0,0,0,0,0,0,0,0,0,0,0,0,0,0,0,0,0,0,0,0,0,0,0,0,0,0,0,0,0,0,0,0,0,0,0,0,
0,0,0,0,0,227,0,0,0,0,0,0,0,0,0,0,0,0,0,0,0,0,0,0,0,0,0,0,0,0,0,0,0,0,0,0,0,0,0,0,227,0,0,0,0,0,0,0,0,0,0,0,0,0,0,0,0,0,0,0,0,0,0,0,0,0,0,0,0,0,0,0,0,0,0,226,0,0,0,0,0,0,0,0,0,0,0,0,0,0,0,0,0,0,0,0,0,0,0,0,0,0,0,0,0,0,0,0,0,0,227,0,0,0,0,0,0,0,0,0,0,0,0,0,0,0,0,0,0,0,0,0,0,0,0,0,0,0,0,0,0,0,0,0,0,227,0,0,0,0,0,0,0,0,0,0,0,0,0,0,0,0,0,0,0,0,0,0,0,0,0,0,0,0,0,0,0,0,0,0,
0,0,0,0,0,0,0,0,0,0,0,0,226,0,0,0,0,0,0,0,0,0,0,0,0,0,0,0,0,0,0,0,0,0,0,0,0,0,0,0,0,0,0,0,0,0,0,227,0,0,0,0,0,0,0,0,0,0,0,0,0,0,0,0,0,0,0,0,0,0,0,0,0,0,0,0,0,0,0,0,0,0,227,0,0,0,0,0,0,0,0,0,0,0,0,0,0,0,0,0,0,0,0,0,0,0,0,0,0,0,0,0,0,0,0,0,0,226,0,0,0,0,0,0,0,0,0,0,0,0,0,0,0,0,0,0,0,0,0,0,0,0,0,0,0,0,0,0,0,0,0,0,227,0,0,0,0,0,0,0,0,0,0,0,0,0,0,0,0,0,0,0,0,0,0,0,0,0,0,0,
0,0,0,0,0,0,0,0,0,0,0,0,0,0,0,0,0,0,0,227,0,0,0,0,0,0,0,0,0,0,0,0,0,0,0,0,0,0,0,0,0,0,0,0,0,0,0,0,0,0,0,0,0,0,226,0,0,0,0,0,0,0,0,0,0,0,0,0,0,0,0,0,0,0,0,0,0,0,0,0,0,0,0,0,0,0,0,0,0,227,0,0,0,0,0,0,0,0,0,0,0,0,0,0,0,0,0,0,0,0,0,0,0,0,0,0,0,0,0,0,0,0,0,0,227,0,0,0,0,0,0,0,0,0,0,0,0,0,0,0,0,0,0,0,0,0,0,0,0,0,0,0,0,0,0,0,0,0,0,226,0,0,0,0,0,0,0,0,0,0,0,0,0,0,0,0,0,0,0,0,
0,0,0,0,0,0,0,0,0,0,0,0,0,0,0,0,0,0,0,0,0,0,0,0,0,0,227,0,0,0,0,0,0,0,0,0,0,0,0,0,0,0,0,0,0,0,0,0,0,0,0,0,0,0,0,0,0,0,0,0,0,227,0,0,0,0,0,0,0,0,0,0,0,0,0,0,0,0,0,0,0,0,0,0,0,0,0,0,0,0,0,0,0,0,0,0,226,0,0,0,0,0,0,0,0,0,0,0,0,0,0,0,0,0,0,0,0,0,0,0,0,0,0,0,0,0,0,0,0,0,0,227,0,0,0,0,0,0,0,0,0,0,0,0,0,0,0,0,0,0,0,0,0,0,0,0,0,0,0,0,0,0,0,0,0,0,227,0,0,0,0,0,0,0,0,0,0,0,0,0,
0,0,0,0,0,0,0,0,0,0,0,0,0,0,0,0,0,0,0,0,0,0,0,0,0,0,0,0,0,0,0,0,0,226,0,0,0,0,0,0,0,0,0,0,0,0,0,0,0,0,0,0,0,0,0,0,0,0,0,0,0,0,0,0,0,0,0,0,227,0,0,0,0,0,0,0,0,0,0,0,0,0,0,0,0,0,0,0,0,0,0,0,0,0,0,0,0,0,0,0,0,0,0,227,0,0,0,0,0,0,0,0,0,0,0,0,0,0,0,0,0,0,0,0,0,0,0,0,0,0,0,0,0,0,0,0,0,0,226,0,0,0,0,0,0,0,0,0,0,0,0,0,0,0,0,0,0,0,0,0,0,0,0,0,0,0,0,0,0,0,0,0,0,227,0,0,0,0,0,0,
0,0,0,0,0,0,0,0,0,0,0,0,0,0,0,0,0,0,0,0,0,0,0,0,0,0,0,0,0,0,0,0,0,0,0,0,0,0,0,0,0,0,0,0,0,0,0,0,0,0,0,0,0,0,0,0,0,0,0,0,0,0,0,0,0,0,0,0,0,0,0,0,0,0,0,0,0,0,0,0,0,0,0,0,0,0,0,0,0,0,0,0,0,0,0,0,0,0,0,0,0,0,0,0,0,0,0,0,0,0,0,0,0,0,0,0,0,0,0,0,0,0,0,0,0,0,0,0,0,0,0,0,0,0,0,0,0,0,0,0,0,0,0,0,0,0,0,0,0,0,0,0,0,0,0,0,0,0,0,0,0,0,0,0,0,0,0,0,0,0,0,0,0,0,0,0,0,0,0,0,
0,0,0,0,0,0,0,0,0,0,0,0,0,0,0,0,0,0,0,0,0,0,0,0,0,0,0,0,0,0,0,0,0,0,0,0,0,0,0,0,0,0,0,0,0,0,0,0,0,0,0,0,0,0,0,0,0,0,0,0,0,0,0,0,0,0,0,0,0,0,0,0,0,0,0,0,0,0,0,0,0,0,0,0,0,0,0,0,0,0,0,0,0,0,0,0,0,0,0,0,0,0,0,0,0,0,0,0,0,0,0,0,0,0,0,0,0,0,0,0,0,0,0,0,0,0,0,0,0,0,0,0,0,0,0,0,0,0,0,0,0,0,0,0,0,0,0,0,0,0,0,0,0,0,0,0,0,0,0,0,0,0,0,0,0,0,0,0,0,0,0,0,0,0,0,0,0,0,0,0
  </data>
 </layer>
 <layer id="4" name="Collision" width="180" height="64" visible="0">
  <data encoding="csv">
0,0,0,0,0,0,0,0,0,0,0,0,0,0,0,0,0,0,0,0,0,0,0,0,0,0,0,0,0,0,0,0,0,0,0,0,0,0,0,0,0,0,0,0,0,0,0,0,0,0,0,0,0,0,0,0,0,0,0,0,0,0,0,0,0,0,0,0,0,0,0,0,0,0,0,0,0,0,0,0,0,0,0,0,0,0,0,0,0,0,0,0,0,0,0,0,0,0,0,0,0,0,0,0,0,0,0,0,0,0,0,0,0,0,0,0,0,0,0,0,0,0,0,0,0,0,0,0,0,0,0,0,0,0,0,0,0,0,0,0,0,0,0,0,0,0,0,0,0,0,0,0,0,0,0,0,0,0,0,0,0,0,0,0,0,0,0,0,0,0,0,0,0,0,0,0,0,0,0,0,
0,0,0,0,0,0,0,0,0,0,0,0,0,0,0,0,225,0,0,0,0,0,0,0,0,0,0,0,0,0,0,0,0,0,0,0,0,0,0,0,0,0,0,0,225,0,0,0,0,0,0,0,0,0,0,0,0,0,0,0,0,0,0,0,0,0,0,0,0,0,0,0,225,0,0,0,0,0,0,0,0,0,0,0,0,0,0,0,0,0,0,0,0,0,0,0,0,0,0,0,225,0,0,0,0,0,0,0,0,0,0,0,0,0,0,0,0,0,0,0,0,0,0,0,0,0,0,0,225,0,0,0,0,0,0,0,0,0,0,0,0,0,0,0,0,0,0,0,0,0,0,0,0,0,0,0,225,0,0,0,0,0,0,0,0,0,0,0,0,0,0,0,0,0,0,0,0,0,0,0,
0,0,0,0,0,0,0,0,0,225,0,0,0,0,0,0,0,0,0,0,0,0,0,0,0,0,0,0,0,0,0,0,0,0,0,0,0,225,0,0,0,0,0,0,0,0,0,0,0,0,0,0,0,0,0,0,0,0,0,0,0,0,0,0,0,225,0,0,0,0,0,0,0,0,0,0,0,0,0,0,0,0,0,0,0,0,0,0,0,0,0,0,0,225,0,0,0,0,0,0,0,0,0,0,0,0,0,0,0,0,0,0,0,0,0,0,0,0,0,0,0,225,0,0,0,0,0,0,0,0,0,0,0,0,0,0,0,0,0,0,0,0,0,0,0,0,0,0,0,225,0,0,0,0,0,0,0,0,0,0,0,0,0,0,0,0,0,0,0,0,0,0,0,0,0,0,0,225,0,0,
0,0,225,0,0,0,0,0,0,0,0,0,0,0,0,0,0,0,0,0,0,0,0,0,0,0,0,0,0,0,225,0,0,0,0,0,0,0,0,0,0,0,0,0,0,0,0,0,0,0,0,0,0,0,0,0,0,0,225,0,0,0,0,0,0,0,229,229,229,231,229,0,229,229,229,231,229,229,229,229,229,231,0,229,229,229,225,231,229,229,229,229,229,0,229,229,229,0,0,0,0,0,0,0,0,0,0,0,0,0,0,0,0,0,225,0,0,0,0,0,0,0,0,0,0,0,0,0,0,0,0,0,0,0,0,0,0,0,0,0,0,0,225,0,0,0,0,0,0,0,0,0,0,0,0,0,0,0,0,0,0,0,0,0,0,0,0,0,0,0,225,0,0,0,0,0,0,0,0,0,
0,0,0,0,0,229,229,229,231,229,0,229,229,229,231,229,229,229,229,229,231,0,229,225,229,229,231,229,229,229,0,0,0,0,0,0,0,0,0,0,0,0,0,0,0,0,0,0,0,0,0,225,0,0,0,0,0,0,0,0,0,0,0,0,0,0,0,0,0,0,0,0,0,0,0,0,0,0,0,225,0,0,0,0,0,0,0,0,0,0,0,0,0,0,0,0,0,0,0,0,0,0,0,0,0,0,0,225,0,0,0,0,0,0,0,0,0,0,0,0,0,0,0,0,0,0,0,0,0,0,0,0,0,0,0,225,0,0,0,0,0,0,0,0,0,0,0,0,0,0,0,0,0,0,0,0,0,0,0,0,0,0,0,225,0,0,0,0,0,0,0,0,0,0,0,0,0,0,0,0,
0,0,0,0,0,0,0,0,0,0,0,0,0,0,0,0,0,0,0,0,0,0,0,0,0,0,0,0,0,0,0,0,0,0,0,0,0,0,0,0,0,0,0,0,0,0,0,0,0,0,0,0,0,0,0,0,0,0,0,0,0,0,0,0,0,0,0,0,0,0,0,0,0,0,0,0,0,0,0,0,0,0,0,0,0,0,0,0,0,0,0,0,0,0,0,0,0,0,0,0,0,0,0,0,0,0,0,0,0,0,0,0,0,0,0,0,0,0,0,0,0,0,0,0,0,0,0,0,0,0,0,0,229,229,229,231,229,0,229,229,229,231,229,229,229,229,229,231,0,229,229,229,229,231,229,229,229,229,229,0,229,229,229,229,0,0,0,0,0,0,0,0,0,0,0,0,0,0,0,0,
0,0,0,0,0,0,0,0,0,0,0,0,0,0,0,0,0,0,0,0,0,0,0,0,0,0,0,0,0,0,0,0,0,0,0,0,0,0,0,0,0,0,0,0,0,0,0,0,0,0,0,0,0,0,0,0,0,0,0,0,0,0,0,0,0,0,0,0,0,0,0,0,0,0,0,0,0,0,0,0,0,0,0,0,0,0,0,0,0,0,0,0,0,0,0,0,0,0,0,0,0,0,0,0,0,0,0,0,0,0,0,0,0,0,0,0,0,0,0,0,0,0,0,0,0,0,0,0,0,0,0,0,0,0,0,0,0,0,0,0,0,0,0,0,0,0,0,0,0,0,0,0,0,0,0,0,0,0,0,0,0,0,0,0,0,0,0,0,0,0,0,0,0,0,0,0,0,0,0,0,
0,0,0,0,0,0,0,0,0,0,0,0,0,0,0,0,0,0,0,0,0,0,0,0,0,0,0,0,0,0,0,0,0,0,0,0,0,0,0,0,0,0,0,0,0,0,0,0,0,0,0,0,0,0,0,0,0,0,0,0,0,0,0,0,0,0,0,0,0,0,0,0,0,0,0,0,0,0,0,0,0,0,0,0,0,0,0,0,0,0,0,0,0,0,0,0,0,0,0,0,0,0,0,0,0,0,0,0,0,0,0,0,0,0,0,0,0,0,0,0,0,0,0,0,0,0,0,0,0,0,0,0,0,0,0,0,0,0,0,0,0,0,0,0,0,0,0,0,0,0,0,0,0,0,0,0,0,0,0,0,0,0,0,0,0,0,0,0,0,0,0,0,0,0,0,0,0,0,0,0,
0,0,0,0,0,0,0,0,0,0,0,0,0,0,0,0,0,0,0,0,0,0,0,0,0,0,0,0,0,0,0,0,0,0,0,0,0,0,0,0,0,0,0,0,0,0,0,0,0,0,0,0,0,0,0,0,0,0,0,0,0,0,0,0,0,0,0,0,0,0,0,0,0,0,0,0,0,0,0,0,0,0,0,0,0,0,0,0,0,0,0,0,0,0,0,0,0,0,0,0,0,0,0,0,0,0,0,0,0,0,0,0,0,0,0,0,0,0,0,0,0,0,0,0,0,0,0,0,0,0,0,0,0,0,0,0,0,0,0,0,0,0,0,0,0,0,0,0,0,0,0,0,0,0,0,0,0,0,0,0,0,0,0,0,0,0,0,0,0,0,0,0,0,0,0,0,0,0,0,0,
0,0,0,0,0,0,0,0,0,0,0,0,0,0,0,0,0,0,0,0,0,0,0,0,0,0,0,0,0,0,0,0,0,0,0,0,0,0,0,0,0,0,0,0,0,0,0,0,0,0,0,0,0,0,0,0,0,0,0,0,0,0,0,0,0,0,0,0,0,0,0,0,0,0,0,0,0,0,0,0,0,0,0,0,0,0,0,0,0,0,0,0,0,0,0,0,0,0,0,0,0,0,0,0,0,0,0,0,0,0,0,0,0,0,0,0,0,0,0,0,0,0,0,0,0,0,0,0,0,0,0,0,0,0,0,0,0,0,0,0,0,0,0,0,0,0,0,0,0,0,0,0,0,0,0,0,0,0,0,0,0,0,0,0,0,0,0,0,0,0,0,0,0,0,0,0,0,0,0,0,
0,0,0,0,0,0,0,0,0,0,0,0,0,0,0,0,0,0,0,0,0,0,0,0,0,0,0,0,0,0,0,0,0,0,0,0,0,0,0,0,0,0,0,0,0,0,0,0,0,0,0,0,0,0,0,0,0,0,0,0,0,0,0,0,0,0,0,0,0,0,0,0,0,0,0,0,0,0,0,0,0,0,0,0,0,0,0,0,0,0,0,0,0,0,0,0,0,0,0,0,0,0,0,0,0,0,0,0,0,0,0,0,0,0,0,0,0,0,0,0,0,0,0,0,0,0,0,0,0,0,0,0,0,0,0,0,0,0,0,0,0,0,0,0,0,0,0,0,0,0,0,0,0,0,0,0,0,0,0,0,0,0,0,0,0,0,0,0,0,0,0,0,0,0,0,0,0,0,0,0,
0,0,0,0,0,0,0,0,0,0,0,0,0,0,0,0,0,0,0,0,0,0,0,0,0,0,0,0,0,0,0,0,0,0,0,0,0,0,0,0,0,0,0,0,0,0,0,0,0,0,0,0,0,0,0,0,0,0,0,0,0,0,0,0,0,0,0,0,0,0,0,0,0,0,0,0,0,0,0,0,0,0,0,0,0,0,0,0,0,0,0,0,0,0,0,0,0,0,0,0,0,0,0,0,0,0,0,0,0,0,0,0,0,0,0,0,0,0,0,0,0,0,0,0,0,0,0,0,0,0,0,0,0,0,0,0,0,0,0,0,0,0,0,0,0,0,0,0,0,0,0,0,0,0,0,0,0,0,0,0,0,0,0,0,0,0,0,0,0,0,0,0,0,0,0,0,0,0,0,0,
0,0,0,0,0,0,0,0,0,0,0,0,0,0,0,0,0,0,0,0,0,0,0,0,0,0,0,0,0,0,0,0,0,0,0,0,0,0,0,0,0,0,0,0,0,0,0,0,0,0,0,0,0,0,0,0,0,0,0,0,0,0,0,0,0,0,0,0,0,0,0,0,0,0,0,0,0,0,0,0,0,0,0,0,0,0,0,0,0,0,0,0,0,0,0,0,0,0,0,0,0,0,0,0,0,0,0,0,0,0,0,0,0,0,0,0,0,0,0,247,246,246,0,0,0,0,0,0,0,0,0,0,0,0,0,0,0,0,0,0,0,0,0,0,0,0,0,0,0,0,0,0,0,0,0,0,0,0,0,0,0,0,0,0,0,0,0,0,0,0,0,0,0,0,0,0,0,0,0,0,
0,0,0,0,0,0,0,0,0,0,0,0,0,0,0,0,0,0,0,0,0,0,0,0,0,0,0,0,0,0,0,0,0,0,0,0,0,0,0,0,0,0,0,0,0,0,0,0,0,0,0,0,0,0,0,0,0,0,0,0,0,0,0,0,0,0,0,0,0,0,0,0,0,0,0,0,0,0,0,0,0,0,0,0,0,0,0,0,0,0,0,0,0,0,0,0,0,0,0,0,0,0,0,0,0,0,0,0,0,0,0,0,0,0,0,0,0,0,0,244,243,245,0,0,0,0,0,0,0,0,0,0,0,0,0,0,0,0,0,0,0,0,0,0,0,0,0,0,0,0,0,0,0,0,0,0,0,0,0,0,0,0,0,0,0,0,0,0,0,0,0,0,0,0,0,0,0,0,0,0,
0,0,0,0,0,0,0,0,0,0,0,0,0,0,0,0,0,0,0,0,0,0,0,0,0,0,0,0,0,0,0,0,0,0,0,0,0,0,0,0,0,0,0,0,0,0,0,0,0,0,0,0,0,0,0,0,0,0,0,0,0,0,0,0,0,0,0,0,0,0,0,0,0,0,0,0,0,0,0,0,0,0,0,0,0,0,0,0,0,0,0,0,0,0,0,0,0,0,0,0,0,0,0,0,0,0,0,0,0,0,0,0,0,0,0,0,0,0,0,233,235,248,0,0,0,0,0,0,0,0,0,0,0,0,0,0,0,0,0,0,0,0,0,0,0,0,0,0,0,0,0,0,0,0,0,0,0,0,0,0,0,0,0,0,0,0,0,0,0,0,0,0,0,0,0,0,0,0,0,0,
0,0,0,0,0,0,0,0,0,0,0,0,0,0,0,0,0,0,0,0,0,0,0,0,0,0,0,0,0,0,0,0,0,0,0,0,0,0,0,0,0,0,0,0,0,0,0,0,0,0,0,0,0,0,0,0,0,0,0,0,0,0,0,0,0,0,0,0,0,0,0,0,0,0,0,0,0,0,0,0,0,0,0,0,0,0,0,0,0,0,0,0,0,0,0,0,0,0,0,0,0,0,0,0,0,0,0,0,0,0,0,0,0,0,0,0,0,0,0,0,0,0,0,0,0,0,0,0,0,0,0,0,0,0,0,0,0,0,0,0,0,0,0,0,0,0,0,0,0,0,0,0,0,0,0,0,0,0,0,0,0,0,0,0,0,0,0,0,0,0,0,0,0,0,0,0,0,0,0,0,
0,0,0,0,0,0,0,0,0,0,0,0,0,0,0,0,0,0,0,0,0,0,0,0,0,0,0,0,0,0,0,0,0,0,0,0,0,0,0,0,0,0,0,0,0,0,0,0,0,0,0,0,0,0,0,0,0,0,0,0,0,0,0,0,0,0,0,0,0,0,0,0,0,0,0,0,0,0,0,0,0,0,0,0,0,0,0,0,0,0,0,0,0,0,0,0,0,0,0,0,0,0,0,0,0,0,0,0,0,0,0,0,0,0,0,0,0,236,0,0,0,0,0,0,0,0,0,0,0,0,0,0,0,0,0,0,0,0,0,0,0,0,0,0,0,0,0,0,0,0,0,0,0,0,0,0,0,0,0,0,0,0,0,0,0,0,0,0,0,0,0,0,0,0,0,0,0,0,0,0,
0,0,0,0,0,0,0,0,0,0,0,0,0,0,0,0,0,0,0,0,0,0,0,0,0,0,0,0,0,0,0,0,0,0,0,0,0,0,0,229,229,229,231,229,0,229,229,229,231,229,229,229,229,229,231,0,229,229,229,229,231,229,229,229,229,229,0,229,0,0,0,0,0,0,0,0,0,0,0,0,0,0,0,0,0,0,0,0,0,0,0,0,0,0,0,0,0,0,0,0,0,0,0,0,0,0,0,0,0,0,0,0,0,0,0,0,0,0,0,0,0,0,0,0,0,0,0,0,0,0,0,0,0,0,0,0,0,0,0,0,0,0,0,0,0,0,0,0,0,0,0,0,0,0,0,0,0,0,0,0,0,0,0,0,0,0,0,0,0,0,0,0,0,0,0,0,0,0,0,0,
0,0,0,0,0,0,0,0,0,0,0,0,0,0,0,0,0,0,0,0,0,0,0,0,0,0,0,0,0,0,0,0,0,0,0,0,0,0,0,0,0,0,0,0,0,0,0,0,0,0,0,0,0,0,0,0,0,0,0,0,0,0,0,0,0,0,0,0,0,0,0,0,0,0,0,0,0,0,0,0,0,0,0,0,0,0,0,0,0,0,0,0,0,0,0,0,0,0,0,0,0,0,0,0,0,0,0,0,0,0,0,0,0,0,0,0,0,0,0,0,0,0,0,0,0,0,0,0,0,0,0,0,0,0,0,0,0,0,0,0,0,0,0,0,0,0,0,0,0,0,0,0,0,0,0,0,0,0,0,0,0,0,0,0,0,0,0,0,0,0,0,0,0,0,0,0,0,0,0,0,
0,0,0,0,0,0,0,0,0,0,0,0,0,0,0,0,0,0,0,0,0,0,0,0,0,0,0,0,0,0,0,0,0,0,0,0,0,0,0,0,0,0,0,0,0,0,0,0,0,0,0,0,0,0,0,0,0,0,0,0,0,0,0,0,0,0,0,0,0,0,0,0,0,0,0,0,0,0,0,0,0,0,0,0,0,0,0,0,0,0,0,0,0,0,0,0,0,0,0,0,0,0,0,0,0,0,0,0,229,229,229,231,229,0,229,229,229,231,229,229,229,229,229,231,0,229,229,229,229,231,229,229,229,229,229,0,229,229,0,0,0,0,0,0,0,0,0,0,0,0,0,0,0,0,0,0,0,0,0,0,0,0,0,0,0,0,0,0,0,0,0,0,0,0,0,0,0,0,0,0,
0,0,0,0,0,0,0,0,0,0,0,0,0,0,0,0,0,0,0,0,0,0,0,0,0,0,0,0,0,0,0,0,0,0,0,0,0,0,0,0,0,0,0,0,0,0,0,0,0,0,0,0,0,0,0,0,0,0,0,0,0,0,0,0,0,0,0,0,0,0,0,0,0,0,0,0,0,0,0,0,0,0,0,0,0,0,0,0,0,0,0,0,0,0,0,0,0,0,0,0,0,0,0,0,241,0,0,0,0,0,0,0,0,0,0,0,0,0,0,0,0,0,0,0,0,0,0,0,0,0,0,0,0,0,0,0,0,0,0,0,0,0,0,0,0,0,0,0,0,0,0,0,0,0,0,0,0,0,0,0,0,0,0,0,0,0,0,0,0,0,0,0,0,0,0,0,0,0,0,0,
0,0,0,0,0,0,0,0,0,0,0,0,0,0,0,0,0,0,0,0,0,0,0,0,0,0,0,0,0,0,0,0,0,0,0,0,0,0,0,0,0,0,0,0,0,0,0,0,0,0,0,0,0,0,0,0,0,0,0,0,0,0,0,0,0,0,0,0,0,0,0,0,0,0,0,0,0,0,0,0,0,0,0,0,0,0,0,0,0,0,0,0,0,0,0,0,0,0,0,0,0,0,0,0,0,0,0,0,0,0,0,0,0,0,0,0,0,0,0,0,0,0,0,0,0,0,0,0,0,0,0,0,0,0,0,0,0,0,0,0,0,0,0,0,0,0,0,0,0,0,0,0,0,0,0,0,0,0,0,0,0,0,0,0,0,0,0,0,0,0,0,0,0,0,0,0,0,0,0,0,
0,0,0,0,0,0,0,0,0,0,0,0,0,0,0,0,0,0,0,0,0,0,0,0,0,0,0,0,0,0,0,0,0,0,0,0,0,0,0,0,0,0,0,0,0,0,0,0,0,0,0,0,0,0,0,0,0,0,0,0,0,0,0,0,0,0,0,0,0,0,0,0,0,0,0,0,0,0,0,0,0,0,0,0,0,0,0,0,0,0,0,0,0,0,0,0,0,0,0,0,0,0,0,0,0,0,0,0,0,0,0,0,0,0,0,0,0,0,0,0,0,0,0,0,0,0,0,0,0,0,0,0,0,0,0,0,0,0,0,0,0,0,0,0,0,0,0,0,0,0,0,0,0,0,0,0,0,0,0,0,0,0,0,0,0,0,0,0,0,0,0,0,0,0,0,0,0,0,0,0,
0,0,0,0,0,0,0,0,0,0,0,0,0,0,0,0,0,0,0,0,0,0,0,0,0,0,0,0,0,0,0,0,0,0,0,0,0,0,0,0,0,0,0,0,0,0,0,0,0,0,0,0,0,0,0,0,0,0,0,0,0,0,0,0,0,0,0,0,0,0,0,0,0,0,0,0,0,0,0,0,0,0,0,0,0,0,0,0,0,0,0,0,0,0,0,0,0,0,0,0,0,0,0,0,0,0,0,0,0,0,0,0,0,0,0,0,0,0,0,0,0,0,0,0,0,0,0,0,0,0,0,0,0,0,0,0,0,0,0,0,0,0,0,0,0,0,0,0,0,0,0,0,0,0,0,0,0,0,0,0,0,0,0,0,0,0,0,0,0,0,0,0,0,0,0,0,0,0,0,0,
0,0,0,0,0,0,0,0,0,0,0,0,0,0,0,0,0,0,0,0,0,0,0,0,0,0,0,0,230,0,0,0,0,0,0,0,0,0,0,0,0,0,0,0,0,0,0,0,0,0,0,0,0,0,0,0,0,0,0,0,0,0,0,0,0,0,0,0,0,0,0,0,0,0,0,0,0,0,0,0,0,0,0,0,0,0,0,0,0,0,0,0,0,0,0,0,0,0,0,0,0,0,0,0,0,0,0,0,0,0,0,0,0,0,0,0,0,0,0,0,0,0,0,0,0,0,0,0,0,0,0,0,0,0,0,0,0,0,0,0,0,0,0,0,0,0,0,0,0,0,0,0,0,0,0,0,0,0,0,0,0,0,0,0,0,0,0,0,0,0,0,0,0,0,0,0,0,0,0,0,
0,0,0,0,0,0,0,0,0,0,0,0,0,0,0,0,0,0,0,0,0,0,0,0,0,0,0,0,230,0,0,0,0,0,0,0,0,0,0,0,0,0,0,0,0,0,0,0,0,0,0,0,0,0,0,0,0,0,0,0,0,0,0,0,0,0,0,0,0,0,0,0,0,0,0,0,0,0,0,0,0,0,0,0,0,0,0,0,0,0,0,0,0,0,0,0,0,0,0,0,0,0,0,0,0,0,0,0,0,0,0,0,0,0,0,0,0,0,0,0,0,0,0,0,0,0,0,0,0,0,0,0,0,0,0,0,0,0,0,0,0,0,0,0,0,0,0,0,0,0,0,0,0,0,0,0,0,0,0,0,0,0,0,0,0,0,0,0,0,0,0,0,0,0,0,0,0,0,0,0,
0,0,0,0,0,0,0,0,0,0,0,0,0,0,0,0,0,0,0,0,0,0,0,0,0,0,0,0,230,0,0,0,0,0,0,0,0,0,0,0,0,0,0,0,0,0,0,0,0,0,0,0,0,0,0,0,0,0,0,0,0,0,0,0,0,0,0,0,0,0,0,0,0,0,0,0,0,0,0,0,0,0,0,0,0,0,0,0,0,0,0,0,0,0,0,0,0,0,0,0,0,0,0,0,0,0,0,0,0,0,0,0,0,0,0,0,0,0,0,0,0,0,0,0,0,0,0,0,0,0,0,0,0,0,0,0,0,0,0,0,0,0,0,0,0,0,0,0,0,0,0,0,0,0,0,0,0,0,0,0,0,0,0,0,0,0,0,0,0,0,0,0,0,0,0,0,0,0,0,0,
0,0,0,0,0,0,0,0,0,0,0,0,0,0,0,0,0,0,0,0,0,0,0,0,0,0,0,0,231,0,0,0,0,0,0,0,0,0,0,0,0,0,0,0,0,0,0,0,0,0,0,0,0,0,0,0,0,0,0,0,0,0,0,0,0,0,0,0,0,0,0,0,0,0,0,0,0,0,0,0,0,0,0,0,0,0,0,0,0,0,0,0,0,0,0,0,0,0,0,0,0,0,0,0,0,0,0,0,0,0,0,0,0,0,0,0,0,0,0,0,0,0,0,0,0,0,0,0,0,0,0,0,0,0,0,0,0,0,0,0,0,0,0,0,0,0,0,0,0,0,0,0,0,0,0,0,0,0,0,0,0,0,0,0,235,0,0,0,0,0,0,0,0,0,0,0,0,0,0,0,
0,0,0,0,0,0,0,0,0,0,0,0,0,0,0,0,0,0,0,0,0,0,0,0,0,0,0,0,230,0,0,0,0,0,0,0,0,0,0,0,0,0,0,0,0,0,0,0,0,0,0,0,0,0,0,0,0,0,0,0,0,0,0,0,0,0,0,0,0,0,0,0,0,0,0,0,0,0,0,0,0,0,0,0,0,0,0,0,0,0,0,0,0,0,0,0,0,0,0,0,0,0,0,0,0,0,0,0,0,0,0,0,0,0,0,0,0,0,0,0,0,0,0,0,0,0,0,0,0,0,0,0,0,0,0,0,0,0,0,0,0,0,0,0,0,0,0,0,0,0,0,0,0,0,0,0,0,0,0,0,0,0,0,0,0,0,0,0,0,0,0,0,0,0,0,0,0,0,0,0,
0,0,0,0,0,0,0,0,0,0,0,0,0,0,0,0,0,0,0,0,0,0,0,0,0,0,0,0,0,0,0,0,0,0,0,0,0,0,0,0,0,0,0,0,0,0,0,0,0,0,0,0,0,0,231,0,0,0,0,0,0,0,0,0,0,0,0,0,0,0,0,0,0,0,0,0,0,0,0,0,0,0,0,0,0,0,0,0,0,0,0,0,0,0,0,0,0,0,0,0,0,0,0,0,0,0,0,0,0,0,0,0,0,0,0,0,0,0,0,0,0,0,0,0,0,0,0,0,0,0,0,0,0,0,0,0,0,0,0,0,0,0,0,0,0,0,0,0,0,0,0,0,0,0,0,0,0,0,0,0,0,0,0,0,0,0,0,0,0,0,0,0,0,0,0,0,0,0,0,0,
0,0,0,0,0,0,0,0,0,0,0,0,0,0,0,0,0,0,0,0,0,0,0,0,0,0,0,0,230,0,0,0,0,0,0,0,0,0,0,0,0,0,0,0,0,0,0,0,0,0,0,0,0,0,0,0,0,0,0,0,0,0,0,0,0,0,0,0,0,0,0,0,0,0,0,0,0,0,0,0,0,0,0,0,0,0,0,0,0,0,0,0,0,0,0,0,0,0,0,0,0,0,0,0,0,0,0,0,0,0,0,0,0,0,0,0,0,0,0,0,0,0,0,0,0,0,0,0,0,0,0,0,0,0,0,0,0,0,0,0,0,0,0,0,0,0,0,0,0,0,0,0,0,0,0,0,0,0,0,0,0,0,0,0,0,0,0,0,0,0,0,0,0,0,0,0,0,0,0,0,
0,0,0,0,0,0,0,0,0,0,0,0,0,0,0,0,0,0,0,0,0,0,0,0,0,0,0,0,230,0,0,0,0,0,0,0,0,0,0,0,0,0,0,0,0,0,0,0,0,0,0,0,0,0,0,0,0,0,0,0,0,0,0,0,0,0,0,0,0,0,0,0,0,0,0,0,0,0,0,0,0,0,0,0,0,0,0,0,0,0,0,0,0,0,0,0,0,0,0,0,0,0,0,0,0,0,0,0,0,0,0,0,0,0,0,0,0,0,0,0,0,0,0,230,0,0,0,0,0,0,0,0,0,0,0,0,0,0,0,0,0,0,0,0,0,0,0,0,0,0,0,0,0,247,246,246,0,0,0,0,0,0,0,0,0,0,0,0,0,0,0,0,0,0,0,0,0,0,0,0,
0,0,0,0,0,0,0,0,0,0,0,0,0,0,0,0,0,0,0,0,0,0,0,0,0,0,0,0,230,0,0,0,0,0,0,0,0,0,0,0,0,0,0,0,0,0,0,0,0,0,0,0,0,0,0,0,0,0,0,0,0,0,0,0,0,0,0,0,0,0,0,0,0,0,0,0,0,0,0,0,0,0,0,0,0,0,0,0,0,0,0,0,0,0,0,0,0,0,0,0,0,0,0,0,0,0,0,0,0,0,0,0,0,0,0,0,0,0,0,0,0,0,0,230,0,0,0,0,0,0,0,0,0,0,0,0,0,0,0,0,0,0,0,0,0,0,0,0,0,0,0,0,0,244,243,245,0,0,0,0,0,0,0,0,0,0,0,0,0,0,0,0,0,0,0,0,0,0,0,0,
0,0,0,0,0,0,0,0,0,0,0,0,0,0,0,0,0,0,0,0,0,0,0,0,0,0,0,0,231,0,0,0,0,0,0,0,0,0,0,0,0,0,0,0,0,0,0,0,0,0,0,0,0,0,0,0,0,0,0,0,0,0,0,0,0,0,0,0,0,0,0,0,0,0,0,0,233,0,0,0,0,0,0,0,0,0,0,0,0,0,0,0,0,0,0,0,0,0,0,0,0,0,0,0,0,0,0,0,0,0,0,0,0,0,0,0,0,0,0,0,0,0,0,230,0,0,0,0,0,0,0,0,0,0,0,0,0,0,0,0,0,0,0,0,0,0,0,0,0,0,0,0,0,233,235,248,0,0,0,0,0,0,0,0,0,0,0,0,0,0,0,0,0,0,0,0,0,0,0,0,
0,0,0,0,0,0,0,0,0,0,0,0,0,0,0,0,0,0,0,0,0,0,0,0,0,0,0,0,230,0,0,0,0,0,0,0,0,0,0,0,0,0,0,235,0,0,0,0,0,0,0,0,0,0,0,0,0,0,0,0,0,0,0,0,0,0,0,0,0,0,0,0,0,0,0,0,0,0,0,0,0,0,0,0,0,0,0,0,0,0,0,0,0,0,0,0,0,0,0,0,0,0,0,0,0,0,0,0,0,0,0,0,0,0,0,0,0,0,0,0,0,0,0,231,0,0,0,0,0,0,0,0,0,0,0,0,0,0,0,0,0,0,0,0,0,0,0,0,0,0,0,0,0,0,0,0,0,0,0,0,0,0,0,0,0,0,0,0,0,0,0,0,0,0,0,0,0,0,0,0,
0,0,0,0,0,0,0,0,0,0,0,0,0,0,0,0,0,0,0,0,0,0,0,0,0,0,0,242,230,0,0,0,0,0,0,0,0,0,0,0,0,0,0,0,0,0,0,0,0,0,0,0,0,0,0,247,246,246,0,0,0,0,0,0,0,0,0,0,0,0,0,0,0,0,0,0,0,0,0,0,0,0,0,0,0,0,0,0,0,0,0,0,0,0,0,0,0,0,0,0,0,0,0,0,0,0,0,0,0,0,0,0,0,0,0,0,0,0,0,0,0,0,0,230,0,0,0,0,0,0,0,0,0,0,0,0,0,0,0,0,0,0,0,0,0,0,0,0,0,0,0,0,0,0,0,0,0,0,0,0,0,0,0,0,0,0,0,0,0,0,0,0,0,0,0,0,0,0,0,0,
0,0,0,0,0,0,0,0,0,0,0,0,0,0,0,0,0,0,0,0,0,0,0,0,0,0,0,0,230,0,0,0,0,0,0,0,0,0,0,0,0,0,0,0,0,0,0,0,0,0,0,0,0,0,0,244,243,245,0,0,0,0,0,0,0,0,0,0,0,0,0,0,0,0,0,0,0,0,0,0,0,0,0,0,0,0,0,0,0,0,0,0,0,0,0,0,0,0,0,0,0,0,0,0,0,0,0,0,0,0,0,0,0,0,0,0,0,0,0,0,0,0,0,0,0,0,0,0,0,0,0,0,0,0,0,0,0,0,0,0,0,0,0,0,0,0,0,0,0,0,0,0,0,0,0,0,0,0,0,0,0,0,0,0,0,0,0,0,0,0,0,0,0,0,0,0,0,0,0,0,
0,0,0,0,0,0,0,0,0,0,0,0,0,0,0,0,0,0,0,0,0,0,0,0,0,0,0,0,230,0,0,0,0,0,0,0,0,0,0,0,0,0,0,0,0,0,0,0,0,0,0,0,0,0,0,233,235,248,0,0,0,0,0,0,0,0,0,0,0,0,0,0,0,0,0,0,0,0,0,0,0,0,0,0,0,0,0,0,0,0,0,0,0,0,0,0,0,0,0,0,0,0,0,0,0,0,0,0,0,0,0,0,0,0,0,0,0,0,0,0,0,0,0,230,0,0,0,0,0,0,0,0,0,0,0,0,0,0,0,0,0,0,0,0,0,0,0,0,0,0,0,0,0,0,0,0,0,0,0,0,0,0,0,0,0,0,0,0,0,0,0,0,0,0,0,0,0,0,0,0,
0,0,0,0,0,0,0,0,0,0,0,0,0,0,0,0,0,0,0,0,0,0,0,0,0,0,0,0,230,0,0,0,0,0,0,0,0,0,0,0,0,0,0,0,0,0,0,0,0,0,0,0,0,0,0,0,0,0,0,0,0,0,0,0,0,0,0,0,0,0,0,0,0,0,0,0,0,0,0,0,0,0,0,0,0,0,0,0,0,0,0,0,0,0,0,0,0,0,0,0,0,0,0,0,0,0,0,0,0,0,0,0,0,0,0,0,0,0,0,0,0,0,0,230,0,0,0,0,0,0,0,0,0,0,0,0,0,0,0,0,0,0,0,0,0,0,0,0,0,0,234,0,0,0,0,0,0,0,0,0,0,0,0,0,0,0,0,0,0,0,0,0,0,0,0,0,0,0,0,0,
0,0,0,0,0,0,0,0,0,0,0,0,0,0,0,0,0,0,0,0,0,0,0,0,0,0,0,0,231,0,0,0,0,0,0,0,0,0,0,0,0,0,0,0,0,0,0,0,0,0,0,0,0,0,0,0,0,0,0,0,0,0,0,0,0,0,0,0,0,0,0,0,0,0,0,0,0,0,0,0,0,0,0,0,0,0,0,0,0,0,0,0,0,0,0,0,0,0,0,0,0,0,0,0,0,0,0,0,0,0,0,0,0,0,0,0,0,0,0,0,0,0,0,230,0,0,0,0,0,0,0,0,0,0,0,0,0,0,0,0,0,0,0,0,0,0,0,0,0,0,0,0,0,0,0,0,0,0,0,0,0,0,0,0,0,0,0,0,0,0,0,0,0,0,0,0,0,0,0,0,
0,0,0,0,0,0,0,0,0,0,0,0,0,0,0,0,0,0,0,0,0,0,0,0,0,0,0,0,0,0,0,0,0,0,0,0,0,0,0,0,0,0,0,0,0,0,0,0,0,0,0,0,0,0,0,0,0,0,0,0,0,0,0,0,0,0,0,0,0,0,0,0,0,0,0,0,0,0,0,0,0,0,0,0,0,0,0,0,0,0,0,0,0,0,0,0,0,0,0,0,0,0,0,0,0,0,0,0,0,0,0,0,0,0,0,0,0,0,0,0,0,0,0,231,0,0,0,0,0,0,0,0,0,0,0,0,0,0,0,0,0,0,0,0,0,0,0,0,0,0,0,0,0,0,0,0,0,0,0,0,0,0,0,0,0,0,0,0,0,0,0,0,0,0,0,0,0,0,0,0,
0,0,0,0,0,0,0,0,0,0,0,0,0,0,0,0,0,0,0,0,0,0,0,0,0,0,0,0,230,0,0,0,0,0,0,0,0,0,0,0,0,0,0,0,0,0,0,0,0,0,0,0,0,0,0,0,0,0,0,0,0,0,0,0,0,0,0,0,0,0,0,0,0,0,0,0,0,0,0,0,0,0,0,0,0,0,0,0,0,0,0,0,0,0,0,0,0,0,0,0,0,0,0,0,0,0,0,0,0,0,0,0,0,0,0,0,0,0,0,0,0,0,0,230,0,0,0,0,0,0,0,0,0,0,0,0,0,0,0,0,0,0,0,0,0,0,0,0,0,0,0,0,0,0,0,0,0,0,0,0,0,0,0,0,0,0,0,0,0,0,0,0,0,0,0,0,0,0,0,0,
0,0,0,0,0,0,0,0,0,0,0,0,0,0,0,0,0,0,0,0,0,0,0,0,0,0,0,0,0,0,0,0,0,0,0,0,0,0,0,0,0,0,0,0,0,0,0,0,0,0,0,0,0,0,0,0,0,0,0,0,0,0,0,0,0,0,0,0,0,0,0,0,0,0,0,0,0,0,0,0,0,0,0,0,240,0,0,0,0,0,0,0,0,0,0,0,0,0,0,0,0,0,0,0,0,0,0,0,0,0,0,0,0,0,0,0,0,0,0,0,0,0,0,230,0,0,0,0,0,0,0,0,0,0,0,0,0,0,0,0,0,0,0,0,0,0,0,0,0,0,0,0,0,0,0,0,0,0,0,0,0,0,0,0,0,0,0,0,0,0,0,0,0,0,0,0,0,0,0,0,
0,0,0,0,0,0,0,0,0,0,0,0,0,0,0,0,0,0,234,0,0,0,0,0,0,0,0,0,0,0,0,0,0,0,0,0,0,0,0,0,0,0,0,0,0,0,0,0,0,0,0,0,0,0,0,0,0,0,0,0,0,0,0,0,0,0,0,0,0,0,0,0,0,0,0,0,0,0,0,0,0,0,0,0,0,0,0,0,0,0,0,0,0,0,0,0,0,0,0,0,0,0,0,0,0,0,0,0,0,0,0,0,0,0,0,0,0,0,0,0,0,0,0,230,0,0,0,0,0,0,0,0,0,0,0,0,0,0,0,0,0,0,0,0,0,0,0,0,0,0,0,0,0,0,0,0,0,0,0,0,0,0,0,0,0,0,0,0,0,0,0,0,0,0,0,0,0,0,0,0,
0,0,0,0,0,0,0,0,0,0,0,0,0,0,0,0,0,0,0,0,0,0,0,0,0,0,0,0,0,0,0,0,0,0,0,0,0,0,0,0,0,0,0,0,0,0,0,0,0,0,0,0,0,0,0,0,0,0,0,0,0,0,0,0,0,0,0,0,0,0,0,0,0,0,0,0,0,0,0,0,0,0,0,0,0,0,0,0,0,0,0,0,0,0,0,0,0,0,0,0,0,0,0,0,0,0,0,0,0,0,0,0,0,0,0,0,0,0,0,0,0,0,0,230,0,0,0,0,0,0,0,0,0,0,0,0,0,232,0,0,0,0,0,0,0,0,0,0,0,0,0,0,0,0,0,0,0,0,0,0,0,0,0,0,0,0,0,0,0,0,0,0,0,0,0,0,0,0,0,0,
0,0,0,0,0,0,0,0,0,0,0,0,0,0,0,0,0,0,0,0,0,0,0,0,0,0,0,0,0,0,0,0,0,0,0,0,0,0,0,0,0,0,0,0,0,0,0,0,0,0,0,0,0,0,0,0,0,0,0,0,0,0,0,0,0,0,0,0,0,0,0,0,0,0,0,0,0,0,0,0,0,0,0,0,0,0,0,0,0,0,0,0,0,0,0,0,0,0,0,0,0,0,0,0,0,0,0,0,0,0,0,0,0,0,0,0,0,0,0,0,0,0,0,230,0,0,0,0,0,0,0,0,0,0,0,0,0,0,0,0,0,0,0,0,0,0,0,0,0,0,0,0,0,0,0,0,0,0,0,0,0,0,0,0,0,0,0,0,0,0,0,0,0,0,0,0,0,0,0,0,
0,0,0,0,0,0,0,0,0,0,0,0,0,0,0,0,0,0,0,0,0,0,0,0,0,0,0,0,0,0,0,0,0,0,0,0,0,0,0,0,0,0,0,0,0,0,0,0,0,0,0,0,0,0,0,0,0,0,0,0,0,0,0,0,0,0,0,0,0,0,0,0,0,0,0,0,0,0,0,0,0,0,0,0,0,0,0,0,0,0,0,0,0,0,0,0,0,0,0,0,0,0,0,0,0,0,0,0,0,0,0,0,0,0,0,0,0,0,0,0,0,0,0,231,0,0,0,0,0,0,0,0,0,0,0,0,0,0,0,0,0,0,0,0,0,0,0,0,0,0,0,0,0,0,0,0,0,0,0,0,0,0,0,0,0,0,0,0,0,0,0,0,0,0,0,0,0,0,0,0,
0,0,0,0,0,0,0,0,0,0,0,0,0,0,0,0,0,0,0,0,0,0,0,0,0,0,0,0,0,0,0,0,0,0,0,0,0,0,0,0,0,0,0,0,0,0,0,0,0,0,0,0,0,0,0,0,0,0,0,0,0,0,0,0,0,0,0,0,0,0,0,0,0,0,0,0,0,0,0,0,0,0,0,0,0,0,0,0,0,0,0,0,0,0,0,0,0,0,0,0,0,0,0,0,0,0,0,0,0,0,0,0,0,0,0,0,0,0,0,0,0,0,0,0,0,0,0,0,0,0,0,0,0,0,0,0,0,0,0,0,0,0,0,0,0,0,0,0,0,0,0,0,0,0,0,0,0,0,0,0,0,0,0,0,0,0,0,0,0,0,0,0,0,0,0,0,0,0,0,0,
0,0,0,0,0,0,0,0,0,0,0,0,0,0,0,0,0,0,0,0,0,0,0,0,0,0,0,0,0,0,0,0,0,0,0,0,0,0,0,0,0,0,0,0,0,0,0,0,0,0,0,0,0,0,0,0,0,0,0,0,0,0,0,0,0,0,0,0,0,0,0,0,0,0,0,0,0,0,0,0,0,0,0,0,0,0,0,0,0,0,0,0,0,0,0,0,0,0,0,0,0,0,0,0,0,0,0,0,0,0,0,0,0,0,0,0,0,0,0,0,0,0,0,230,0,0,0,0,0,0,0,0,0,0,0,0,0,0,0,0,0,0,0,0,0,0,0,0,0,0,0,0,0,0,0,0,0,0,0,0,0,0,0,0,0,0,0,0,0,0,0,0,0,0,0,0,0,0,0,0,
0,0,0,0,0,0,0,0,0,0,0,0,0,0,0,0,0,0,0,0,0,0,0,0,0,0,0,0,0,0,0,0,0,0,0,0,0,0,0,0,0,0,0,0,0,0,0,0,0,0,0,0,0,0,0,0,0,0,0,0,0,0,0,0,0,0,0,0,0,0,0,0,0,0,0,0,0,0,0,0,0,0,0,0,0,0,0,0,0,0,0,0,0,0,0,0,0,0,0,0,0,0,0,0,0,0,0,0,0,0,0,0,0,0,0,0,0,0,0,0,0,0,0,230,0,0,0,0,0,0,0,0,0,0,0,0,0,0,0,0,0,0,0,0,0,0,0,0,0,0,0,0,0,0,0,0,0,0,0,0,0,0,0,0,0,0,0,0,0,0,0,0,0,0,0,0,0,0,0,0,
0,0,0,0,0,0,0,0,0,0,0,0,0,0,0,0,0,0,0,0,0,0,0,0,0,0,0,0,0,0,0,0,0,0,0,0,0,0,0,0,0,0,0,0,0,0,0,0,0,0,0,0,0,0,0,0,0,0,0,0,0,0,0,0,0,0,0,0,0,0,0,0,0,0,0,0,0,0,0,0,0,0,0,0,0,0,0,0,0,0,0,0,0,0,0,0,0,0,0,0,0,0,0,0,0,0,0,0,0,0,0,0,0,0,0,0,0,0,0,0,0,0,0,230,0,0,0,0,0,0,0,0,0,0,0,0,0,0,0,0,0,0,0,0,0,0,0,0,0,0,0,0,0,0,0,0,0,0,0,0,0,0,0,0,0,0,0,0,0,0,0,0,0,0,0,0,0,0,0,0,
0,0,0,0,0,0,0,0,0,0,0,0,0,0,0,0,0,0,0,0,0,0,0,0,0,0,0,0,0,0,0,0,0,0,0,0,0,0,0,0,0,0,0,0,0,0,0,0,0,0,0,0,0,0,0,0,0,0,0,0,0,0,0,0,0,0,0,0,0,0,0,0,0,0,0,0,0,0,0,0,0,0,0,0,0,0,0,0,0,0,0,0,0,0,0,0,0,0,0,0,0,0,0,0,0,0,0,0,0,0,0,0,0,0,0,0,0,0,0,0,0,0,0,0,0,0,0,0,0,0,0,0,0,0,0,0,0,0,0,0,0,0,0,0,0,0,0,0,0,0,0,0,0,0,0,0,0,0,0,0,0,0,0,0,0,0,0,0,0,0,0,0,0,0,0,0,0,0,0,0,
0,0,0,0,0,0,0,0,0,0,0,0,0,0,0,0,229,229,229,231,229,0,229,229,229,231,229,229,229,229,229,231,0,229,229,229,229,231,229,229,229,229,0,0,0,0,0,0,0,0,0,0,0,0,0,0,0,0,0,0,0,0,0,0,0,0,0,0,0,0,0,0,0,0,0,0,0,0,0,0,0,0,0,0,0,0,0,0,0,0,0,0,0,0,0,0,0,0,0,0,0,0,0,0,0,0,0,0,0,0,0,0,0,0,0,0,0,0,0,0,0,0,0,0,0,0,0,0,0,0,0,0,0,0,0,0,0,0,0,0,0,0,0,0,0,0,0,0,0,0,0,0,0,0,0,0,0,0,0,0,0,0,0,0,0,0,0,0,0,0,0,0,0,0,0,0,0,0,0,0,
0,0,0,0,0,0,0,0,0,0,0,0,0,0,0,0,0,0,0,0,0,0,0,0,0,0,0,0,0,0,0,0,0,0,0,0,0,0,0,0,0,0,0,0,0,0,0,0,0,0,0,0,0,0,0,0,0,0,0,0,0,0,0,0,0,0,0,0,0,0,0,0,0,0,0,0,0,0,0,0,0,0,0,0,0,0,0,0,0,0,0,0,0,0,0,0,0,0,0,0,0,0,0,0,0,0,0,0,0,0,0,0,0,0,0,0,0,0,0,0,0,0,0,0,0,0,0,0,0,0,0,0,0,0,0,0,0,0,0,0,0,0,0,0,0,0,0,0,0,0,0,0,0,0,0,0,0,0,0,0,0,0,0,0,0,0,0,0,0,0,0,0,0,0,0,0,0,0,0,0,
0,0,0,0,0,0,0,0,0,0,0,0,0,0,0,0,0,0,0,0,0,0,0,0,0,0,0,0,0,0,0,0,0,0,0,0,0,0,0,0,0,0,0,0,0,0,0,0,0,0,0,0,0,0,0,0,0,0,0,0,0,0,0,0,0,0,0,0,0,0,0,0,0,0,0,0,0,0,0,0,0,0,0,0,0,0,0,0,0,0,0,0,0,0,0,0,0,0,0,0,0,0,0,0,0,0,0,0,0,0,0,0,0,0,0,0,0,0,0,0,0,0,0,0,0,0,0,0,0,0,0,0,0,0,0,0,0,0,0,0,0,0,0,0,0,229,229,229,231,229,0,229,229,229,231,229,229,229,229,229,231,0,229,229,229,229,231,229,229,229,229,229,0,229,229,229,229,229,0,0,
0,0,0,0,0,0,0,0,0,0,0,0,0,0,0,0,0,0,0,0,0,0,0,0,0,0,0,0,0,0,0,0,0,0,0,0,0,0,0,0,0,0,0,0,0,0,0,0,0,0,0,0,0,0,0,0,0,0,0,0,0,0,0,0,0,0,0,0,0,0,0,0,0,0,0,0,0,0,0,0,0,0,229,229,229,231,229,0,229,229,229,231,229,229,229,229,229,231,0,229,229,229,229,231,229,229,229,229,229,0,229,229,229,229,0,0,0,0,0,0,0,0,0,0,0,0,0,0,0,0,0,0,0,0,0,0,0,0,0,0,0,0,0,0,0,0,0,0,0,0,0,0,0,0,0,0,0,0,0,0,0,0,0,0,0,0,0,0,0,0,0,0,0,0,0,0,0,0,0,0,
0,0,0,0,0,0,0,0,0,0,0,0,0,0,0,0,0,0,0,0,0,0,0,0,0,0,0,0,0,0,0,0,0,0,0,0,0,0,0,0,0,0,0,0,0,0,0,0,0,0,0,0,0,0,0,0,0,0,0,0,0,0,0,0,0,0,0,0,0,0,0,0,0,0,0,0,0,0,0,0,0,0,0,0,0,0,0,0,0,0,0,0,0,0,0,0,0,0,0,0,0,0,0,0,0,0,0,0,0,0,0,0,0,0,0,0,0,0,0,0,0,0,0,0,0,0,0,0,0,0,0,0,0,0,0,0,0,0,0,0,0,0,0,0,0,0,0,0,0,0,0,0,0,0,0,0,0,0,0,0,0,0,0,0,0,0,0,0,0,0,0,0,0,0,0,0,0,0,0,0,
0,0,0,0,0,227,0,0,0,0,0,0,0,0,0,0,0,0,0,0,0,0,0,0,0,0,0,0,0,0,0,0,0,0,0,0,0,0,0,0,227,0,0,0,0,0,0,0,0,0,0,0,0,0,0,0,0,0,0,0,0,0,0,0,0,0,0,0,0,0,0,0,0,0,0,226,0,0,0,0,0,0,0,0,0,0,0,0,0,0,0,0,0,0,0,0,0,0,0,0,0,0,0,0,0,0,0,0,0,0,227,0,0,0,0,0,0,0,0,0,0,0,0,0,0,0,0,0,0,0,0,0,0,0,0,0,0,0,0,0,0,0,0,0,0,227,0,0,0,0,0,0,0,0,0,0,0,0,0,0,0,0,0,0,0,0,0,0,0,0,0,0,0,0,0,0,0,0,0,0,
0,0,0,0,0,0,0,0,0,0,0,0,226,0,0,0,0,0,0,0,0,0,0,0,0,0,0,0,0,0,0,0,0,0,0,0,0,0,0,0,0,0,0,0,0,0,0,227,0,0,0,0,0,0,0,0,0,0,0,0,0,0,0,0,0,0,0,0,0,0,0,0,0,0,0,0,0,0,0,0,0,0,227,0,0,0,0,0,0,0,0,0,0,0,0,0,0,0,0,0,0,0,0,0,0,0,0,0,0,0,0,0,0,0,0,0,0,226,0,0,0,0,0,0,0,0,0,0,0,0,0,0,0,0,0,0,0,0,0,0,0,0,0,0,0,0,0,0,0,0,0,0,227,0,0,0,0,0,0,0,0,0,0,0,0,0,0,0,0,0,0,0,0,0,0,0,0,0,0,0,
0,0,0,0,0,0,0,0,0,0,0,0,0,0,0,0,0,0,0,227,0,0,0,0,0,0,0,0,0,0,0,0,0,0,0,0,0,0,0,0,0,0,0,0,0,0,0,0,0,0,0,0,0,0,226,0,0,0,0,0,0,0,0,0,0,0,0,0,0,0,0,0,0,0,0,0,0,0,0,0,0,0,0,0,0,0,0,0,0,227,0,0,0,0,0,0,0,0,0,0,0,0,0,0,0,0,0,0,0,0,0,0,0,0,0,0,0,0,0,0,0,0,0,0,227,0,0,0,0,0,0,0,0,0,0,0,0,0,0,0,0,0,0,0,0,0,0,0,0,0,0,0,0,0,0,0,0,0,0,226,0,0,0,0,0,0,0,0,0,0,0,0,0,0,0,0,0,0,0,0,
0,0,0,0,0,0,0,0,0,0,0,0,0,0,0,0,0,0,0,0,0,0,0,0,0,0,227,0,0,0,0,0,0,0,0,0,0,0,0,0,0,0,0,0,0,0,0,0,0,0,0,0,0,0,0,0,0,0,0,0,0,227,0,0,0,0,0,0,0,0,0,0,0,0,0,0,0,0,0,0,0,0,0,0,0,0,0,0,0,0,0,0,0,0,0,0,226,0,0,0,0,0,0,0,0,0,0,0,0,0,0,0,0,0,0,0,0,0,0,0,0,0,0,0,0,0,0,0,0,0,0,227,0,0,0,0,0,0,0,0,0,0,0,0,0,0,0,0,0,0,0,0,0,0,0,0,0,0,0,0,0,0,0,0,0,0,227,0,0,0,0,0,0,0,0,0,0,0,0,0,
0,0,0,0,0,0,0,0,0,0,0,0,0,0,0,0,0,0,0,0,0,0,0,0,0,0,0,0,0,0,0,0,0,226,0,0,0,0,0,0,0,0,0,0,0,0,0,0,0,0,0,0,0,0,0,0,0,0,0,0,0,0,0,0,0,0,0,0,227,0,0,0,0,0,0,0,0,0,0,0,0,0,0,0,0,0,0,0,0,0,0,0,0,0,0,0,0,0,0,0,0,0,0,227,0,0,0,0,0,0,0,0,0,0,0,0,0,0,0,0,0,0,0,0,0,0,0,0,0,0,0,0,0,0,0,0,0,0,226,0,0,0,0,0,0,0,0,0,0,0,0,0,0,0,0,0,0,0,0,0,0,0,0,0,0,0,0,0,0,0,0,0,0,227,0,0,0,0,0,0,
0,0,0,0,0,0,0,0,0,0,0,0,0,0,0,0,0,0,0,0,0,0,0,0,0,0,0,0,0,0,0,0,0,0,0,0,0,0,0,0,0,0,0,0,0,0,0,0,0,0,0,0,0,0,0,0,0,0,0,0,0,0,0,0,0,0,0,0,0,0,0,0,0,0,0,0,0,0,0,0,0,0,0,0,0,0,0,0,0,0,0,0,0,0,0,0,0,0,0,0,0,0,0,0,0,0,0,0,0,0,0,0,0,0,0,0,0,0,0,0,0,0,0,0,0,0,0,0,0,0,0,0,0,0,0,0,0,0,0,0,0,0,0,0,0,0,0,0,0,0,0,0,0,0,0,0,0,0,0,0,0,0,0,0,0,0,0,0,0,0,0,0,0,0,0,0,0,0,0,0,
0,0,0,0,0,0,0,0,0,0,0,0,0,0,0,0,0,0,0,0,0,0,0,0,0,0,0,0,0,0,0,0,0,0,0,0,0,0,0,0,0,0,0,0,0,0,0,0,0,0,0,0,0,0,0,0,0,0,0,0,0,0,0,0,0,0,0,0,0,0,0,0,0,0,0,0,0,0,0,0,0,0,0,0,0,0,0,0,0,0,0,0,0,0,0,0,0,0,0,0,0,0,0,0,0,0,0,0,0,0,0,0,0,0,0,0,0,0,0,0,0,0,0,0,0,0,0,0,0,0,0,0,0,0,0,0,0,0,0,0,0,0,0,0,0,0,0,0,0,0,0,0,0,0,0,0,0,0,0,0,0,0,0,0,0,0,0,0,0,0,0,0,0,0,0,0,0,0,0,0
  </data>
 </layer>
 <objectgroup id="5" name="RigidBodies" visible="0">
  <object id="1" name="fence_high_e" type="solid" x="291" y="-10" width="58" height="20">
   <properties>
    <property name="worldX" type="float" value="291"/>
    <property name="worldY" type="float" value="-10"/>
    <property name="worldWidth" type="float" value="58"/>
    <property name="worldHeight" type="float" value="20"/>
   </properties>
  </object>
  <object id="2" name="fence_high_e" type="solid" x="323" y="-26" width="58" height="20">
   <properties>
    <property name="worldX" type="float" value="323"/>
    <property name="worldY" type="float" value="-26"/>
    <property name="worldWidth" type="float" value="58"/>
    <property name="worldHeight" type="float" value="20"/>
   </properties>
  </object>
  <object id="3" name="fence_high_e" type="solid" x="355" y="-42" width="58" height="20">
   <properties>
    <property name="worldX" type="float" value="355"/>
    <property name="worldY" type="float" value="-42"/>
    <property name="worldWidth" type="float" value="58"/>
    <property name="worldHeight" type="float" value="20"/>
   </properties>
  </object>
  <object id="4" name="fence_broken_e" type="solid" x="387" y="-58" width="58" height="20">
   <properties>
    <property name="worldX" type="float" value="387"/>
    <property name="worldY" type="float" value="-58"/>
    <property name="worldWidth" type="float" value="58"/>
    <property name="worldHeight" type="float" value="20"/>
   </properties>
  </object>
  <object id="5" name="fence_high_e" type="solid" x="419" y="-74" width="58" height="20">
   <properties>
    <property name="worldX" type="float" value="419"/>
    <property name="worldY" type="float" value="-74"/>
    <property name="worldWidth" type="float" value="58"/>
    <property name="worldHeight" type="float" value="20"/>
   </properties>
  </object>
  <object id="6" name="fence_high_e" type="solid" x="483" y="-106" width="58" height="20">
   <properties>
    <property name="worldX" type="float" value="483"/>
    <property name="worldY" type="float" value="-106"/>
    <property name="worldWidth" type="float" value="58"/>
    <property name="worldHeight" type="float" value="20"/>
   </properties>
  </object>
  <object id="7" name="fence_high_e" type="solid" x="515" y="-122" width="58" height="20">
   <properties>
    <property name="worldX" type="float" value="515"/>
    <property name="worldY" type="float" value="-122"/>
    <property name="worldWidth" type="float" value="58"/>
    <property name="worldHeight" type="float" value="20"/>
   </properties>
  </object>
  <object id="8" name="fence_high_e" type="solid" x="547" y="-138" width="58" height="20">
   <properties>
    <property name="worldX" type="float" value="547"/>
    <property name="worldY" type="float" value="-138"/>
    <property name="worldWidth" type="float" value="58"/>
    <property name="worldHeight" type="float" value="20"/>
   </properties>
  </object>
  <object id="9" name="fence_broken_e" type="solid" x="579" y="-154" width="58" height="20">
   <properties>
    <property name="worldX" type="float" value="579"/>
    <property name="worldY" type="float" value="-154"/>
    <property name="worldWidth" type="float" value="58"/>
    <property name="worldHeight" type="float" value="20"/>
   </properties>
  </object>
  <object id="10" name="fence_high_e" type="solid" x="611" y="-170" width="58" height="20">
   <properties>
    <property name="worldX" type="float" value="611"/>
    <property name="worldY" type="float" value="-170"/>
    <property name="worldWidth" type="float" value="58"/>
    <property name="worldHeight" type="float" value="20"/>
   </properties>
  </object>
  <object id="11" name="fence_high_e" type="solid" x="643" y="-186" width="58" height="20">
   <properties>
    <property name="worldX" type="float" value="643"/>
    <property name="worldY" type="float" value="-186"/>
    <property name="worldWidth" type="float" value="58"/>
    <property name="worldHeight" type="float" value="20"/>
   </properties>
  </object>
  <object id="12" name="fence_high_e" type="solid" x="675" y="-202" width="58" height="20">
   <properties>
    <property name="worldX" type="float" value="675"/>
    <property name="worldY" type="float" value="-202"/>
    <property name="worldWidth" type="float" value="58"/>
    <property name="worldHeight" type="float" value="20"/>
   </properties>
  </object>
  <object id="13" name="fence_high_e" type="solid" x="707" y="-218" width="58" height="20">
   <properties>
    <property name="worldX" type="float" value="707"/>
    <property name="worldY" type="float" value="-218"/>
    <property name="worldWidth" type="float" value="58"/>
    <property name="worldHeight" type="float" value="20"/>
   </properties>
  </object>
  <object id="14" name="fence_high_e" type="solid" x="739" y="-234" width="58" height="20">
   <properties>
    <property name="worldX" type="float" value="739"/>
    <property name="worldY" type="float" value="-234"/>
    <property name="worldWidth" type="float" value="58"/>
    <property name="worldHeight" type="float" value="20"/>
   </properties>
  </object>
  <object id="15" name="fence_broken_e" type="solid" x="771" y="-250" width="58" height="20">
   <properties>
    <property name="worldX" type="float" value="771"/>
    <property name="worldY" type="float" value="-250"/>
    <property name="worldWidth" type="float" value="58"/>
    <property name="worldHeight" type="float" value="20"/>
   </properties>
  </object>
  <object id="16" name="fence_high_e" type="solid" x="835" y="-282" width="58" height="20">
   <properties>
    <property name="worldX" type="float" value="835"/>
    <property name="worldY" type="float" value="-282"/>
    <property name="worldWidth" type="float" value="58"/>
    <property name="worldHeight" type="float" value="20"/>
   </properties>
  </object>
  <object id="17" name="fence_high_e" type="solid" x="867" y="-298" width="58" height="20">
   <properties>
    <property name="worldX" type="float" value="867"/>
    <property name="worldY" type="float" value="-298"/>
    <property name="worldWidth" type="float" value="58"/>
    <property name="worldHeight" type="float" value="20"/>
   </properties>
  </object>
  <object id="18" name="fence_high_e" type="solid" x="899" y="-314" width="58" height="20">
   <properties>
    <property name="worldX" type="float" value="899"/>
    <property name="worldY" type="float" value="-314"/>
    <property name="worldWidth" type="float" value="58"/>
    <property name="worldHeight" type="float" value="20"/>
   </properties>
  </object>
  <object id="19" name="fence_high_e" type="solid" x="931" y="-330" width="58" height="20">
   <properties>
    <property name="worldX" type="float" value="931"/>
    <property name="worldY" type="float" value="-330"/>
    <property name="worldWidth" type="float" value="58"/>
    <property name="worldHeight" type="float" value="20"/>
   </properties>
  </object>
  <object id="20" name="fence_broken_e" type="solid" x="963" y="-346" width="58" height="20">
   <properties>
    <property name="worldX" type="float" value="963"/>
    <property name="worldY" type="float" value="-346"/>
    <property name="worldWidth" type="float" value="58"/>
    <property name="worldHeight" type="float" value="20"/>
   </properties>
  </object>
  <object id="21" name="fence_high_e" type="solid" x="995" y="-362" width="58" height="20">
   <properties>
    <property name="worldX" type="float" value="995"/>
    <property name="worldY" type="float" value="-362"/>
    <property name="worldWidth" type="float" value="58"/>
    <property name="worldHeight" type="float" value="20"/>
   </properties>
  </object>
  <object id="22" name="fence_high_e" type="solid" x="1027" y="-378" width="58" height="20">
   <properties>
    <property name="worldX" type="float" value="1027"/>
    <property name="worldY" type="float" value="-378"/>
    <property name="worldWidth" type="float" value="58"/>
    <property name="worldHeight" type="float" value="20"/>
   </properties>
  </object>
  <object id="23" name="fence_high_e" type="solid" x="1059" y="-394" width="58" height="20">
   <properties>
    <property name="worldX" type="float" value="1059"/>
    <property name="worldY" type="float" value="-394"/>
    <property name="worldWidth" type="float" value="58"/>
    <property name="worldHeight" type="float" value="20"/>
   </properties>
  </object>
  <object id="24" name="fence_high_e" type="solid" x="2179" y="582" width="58" height="20">
   <properties>
    <property name="worldX" type="float" value="2179"/>
    <property name="worldY" type="float" value="582"/>
    <property name="worldWidth" type="float" value="58"/>
    <property name="worldHeight" type="float" value="20"/>
   </properties>
  </object>
  <object id="25" name="fence_high_e" type="solid" x="2211" y="566" width="58" height="20">
   <properties>
    <property name="worldX" type="float" value="2211"/>
    <property name="worldY" type="float" value="566"/>
    <property name="worldWidth" type="float" value="58"/>
    <property name="worldHeight" type="float" value="20"/>
   </properties>
  </object>
  <object id="26" name="fence_high_e" type="solid" x="2243" y="550" width="58" height="20">
   <properties>
    <property name="worldX" type="float" value="2243"/>
    <property name="worldY" type="float" value="550"/>
    <property name="worldWidth" type="float" value="58"/>
    <property name="worldHeight" type="float" value="20"/>
   </properties>
  </object>
  <object id="27" name="fence_broken_e" type="solid" x="2275" y="534" width="58" height="20">
   <properties>
    <property name="worldX" type="float" value="2275"/>
    <property name="worldY" type="float" value="534"/>
    <property name="worldWidth" type="float" value="58"/>
    <property name="worldHeight" type="float" value="20"/>
   </properties>
  </object>
  <object id="28" name="fence_high_e" type="solid" x="2307" y="518" width="58" height="20">
   <properties>
    <property name="worldX" type="float" value="2307"/>
    <property name="worldY" type="float" value="518"/>
    <property name="worldWidth" type="float" value="58"/>
    <property name="worldHeight" type="float" value="20"/>
   </properties>
  </object>
  <object id="29" name="fence_high_e" type="solid" x="2371" y="486" width="58" height="20">
   <properties>
    <property name="worldX" type="float" value="2371"/>
    <property name="worldY" type="float" value="486"/>
    <property name="worldWidth" type="float" value="58"/>
    <property name="worldHeight" type="float" value="20"/>
   </properties>
  </object>
  <object id="30" name="fence_high_e" type="solid" x="2403" y="470" width="58" height="20">
   <properties>
    <property name="worldX" type="float" value="2403"/>
    <property name="worldY" type="float" value="470"/>
    <property name="worldWidth" type="float" value="58"/>
    <property name="worldHeight" type="float" value="20"/>
   </properties>
  </object>
  <object id="31" name="fence_high_e" type="solid" x="2435" y="454" width="58" height="20">
   <properties>
    <property name="worldX" type="float" value="2435"/>
    <property name="worldY" type="float" value="454"/>
    <property name="worldWidth" type="float" value="58"/>
    <property name="worldHeight" type="float" value="20"/>
   </properties>
  </object>
  <object id="32" name="fence_broken_e" type="solid" x="2467" y="438" width="58" height="20">
   <properties>
    <property name="worldX" type="float" value="2467"/>
    <property name="worldY" type="float" value="438"/>
    <property name="worldWidth" type="float" value="58"/>
    <property name="worldHeight" type="float" value="20"/>
   </properties>
  </object>
  <object id="33" name="fence_high_e" type="solid" x="2499" y="422" width="58" height="20">
   <properties>
    <property name="worldX" type="float" value="2499"/>
    <property name="worldY" type="float" value="422"/>
    <property name="worldWidth" type="float" value="58"/>
    <property name="worldHeight" type="float" value="20"/>
   </properties>
  </object>
  <object id="34" name="fence_high_e" type="solid" x="2531" y="406" width="58" height="20">
   <properties>
    <property name="worldX" type="float" value="2531"/>
    <property name="worldY" type="float" value="406"/>
    <property name="worldWidth" type="float" value="58"/>
    <property name="worldHeight" type="float" value="20"/>
   </properties>
  </object>
  <object id="35" name="fence_high_e" type="solid" x="2563" y="390" width="58" height="20">
   <properties>
    <property name="worldX" type="float" value="2563"/>
    <property name="worldY" type="float" value="390"/>
    <property name="worldWidth" type="float" value="58"/>
    <property name="worldHeight" type="float" value="20"/>
   </properties>
  </object>
  <object id="36" name="fence_high_e" type="solid" x="2595" y="374" width="58" height="20">
   <properties>
    <property name="worldX" type="float" value="2595"/>
    <property name="worldY" type="float" value="374"/>
    <property name="worldWidth" type="float" value="58"/>
    <property name="worldHeight" type="float" value="20"/>
   </properties>
  </object>
  <object id="37" name="fence_high_e" type="solid" x="2627" y="358" width="58" height="20">
   <properties>
    <property name="worldX" type="float" value="2627"/>
    <property name="worldY" type="float" value="358"/>
    <property name="worldWidth" type="float" value="58"/>
    <property name="worldHeight" type="float" value="20"/>
   </properties>
  </object>
  <object id="38" name="fence_broken_e" type="solid" x="2659" y="342" width="58" height="20">
   <properties>
    <property name="worldX" type="float" value="2659"/>
    <property name="worldY" type="float" value="342"/>
    <property name="worldWidth" type="float" value="58"/>
    <property name="worldHeight" type="float" value="20"/>
   </properties>
  </object>
  <object id="39" name="fence_high_e" type="solid" x="2723" y="310" width="58" height="20">
   <properties>
    <property name="worldX" type="float" value="2723"/>
    <property name="worldY" type="float" value="310"/>
    <property name="worldWidth" type="float" value="58"/>
    <property name="worldHeight" type="float" value="20"/>
   </properties>
  </object>
  <object id="40" name="fence_high_e" type="solid" x="2755" y="294" width="58" height="20">
   <properties>
    <property name="worldX" type="float" value="2755"/>
    <property name="worldY" type="float" value="294"/>
    <property name="worldWidth" type="float" value="58"/>
    <property name="worldHeight" type="float" value="20"/>
   </properties>
  </object>
  <object id="41" name="fence_high_e" type="solid" x="2787" y="278" width="58" height="20">
   <properties>
    <property name="worldX" type="float" value="2787"/>
    <property name="worldY" type="float" value="278"/>
    <property name="worldWidth" type="float" value="58"/>
    <property name="worldHeight" type="float" value="20"/>
   </properties>
  </object>
  <object id="42" name="fence_high_e" type="solid" x="2819" y="262" width="58" height="20">
   <properties>
    <property name="worldX" type="float" value="2819"/>
    <property name="worldY" type="float" value="262"/>
    <property name="worldWidth" type="float" value="58"/>
    <property name="worldHeight" type="float" value="20"/>
   </properties>
  </object>
  <object id="43" name="fence_broken_e" type="solid" x="2851" y="246" width="58" height="20">
   <properties>
    <property name="worldX" type="float" value="2851"/>
    <property name="worldY" type="float" value="246"/>
    <property name="worldWidth" type="float" value="58"/>
    <property name="worldHeight" type="float" value="20"/>
   </properties>
  </object>
  <object id="44" name="fence_high_e" type="solid" x="2883" y="230" width="58" height="20">
   <properties>
    <property name="worldX" type="float" value="2883"/>
    <property name="worldY" type="float" value="230"/>
    <property name="worldWidth" type="float" value="58"/>
    <property name="worldHeight" type="float" value="20"/>
   </properties>
  </object>
  <object id="45" name="fence_high_e" type="solid" x="2915" y="214" width="58" height="20">
   <properties>
    <property name="worldX" type="float" value="2915"/>
    <property name="worldY" type="float" value="214"/>
    <property name="worldWidth" type="float" value="58"/>
    <property name="worldHeight" type="float" value="20"/>
   </properties>
  </object>
  <object id="46" name="fence_high_e" type="solid" x="2947" y="198" width="58" height="20">
   <properties>
    <property name="worldX" type="float" value="2947"/>
    <property name="worldY" type="float" value="198"/>
    <property name="worldWidth" type="float" value="58"/>
    <property name="worldHeight" type="float" value="20"/>
   </properties>
  </object>
  <object id="47" name="fence_high_e" type="solid" x="2979" y="182" width="58" height="20">
   <properties>
    <property name="worldX" type="float" value="2979"/>
    <property name="worldY" type="float" value="182"/>
    <property name="worldWidth" type="float" value="58"/>
    <property name="worldHeight" type="float" value="20"/>
   </properties>
  </object>
  <object id="48" name="fence_high_e" type="solid" x="1795" y="-346" width="58" height="20">
   <properties>
    <property name="worldX" type="float" value="1795"/>
    <property name="worldY" type="float" value="-346"/>
    <property name="worldWidth" type="float" value="58"/>
    <property name="worldHeight" type="float" value="20"/>
   </properties>
  </object>
  <object id="49" name="fence_high_e" type="solid" x="1827" y="-362" width="58" height="20">
   <properties>
    <property name="worldX" type="float" value="1827"/>
    <property name="worldY" type="float" value="-362"/>
    <property name="worldWidth" type="float" value="58"/>
    <property name="worldHeight" type="float" value="20"/>
   </properties>
  </object>
  <object id="50" name="fence_high_e" type="solid" x="1859" y="-378" width="58" height="20">
   <properties>
    <property name="worldX" type="float" value="1859"/>
    <property name="worldY" type="float" value="-378"/>
    <property name="worldWidth" type="float" value="58"/>
    <property name="worldHeight" type="float" value="20"/>
   </properties>
  </object>
  <object id="51" name="fence_broken_e" type="solid" x="1891" y="-394" width="58" height="20">
   <properties>
    <property name="worldX" type="float" value="1891"/>
    <property name="worldY" type="float" value="-394"/>
    <property name="worldWidth" type="float" value="58"/>
    <property name="worldHeight" type="float" value="20"/>
   </properties>
  </object>
  <object id="52" name="fence_high_e" type="solid" x="1923" y="-410" width="58" height="20">
   <properties>
    <property name="worldX" type="float" value="1923"/>
    <property name="worldY" type="float" value="-410"/>
    <property name="worldWidth" type="float" value="58"/>
    <property name="worldHeight" type="float" value="20"/>
   </properties>
  </object>
  <object id="53" name="fence_high_e" type="solid" x="1987" y="-442" width="58" height="20">
   <properties>
    <property name="worldX" type="float" value="1987"/>
    <property name="worldY" type="float" value="-442"/>
    <property name="worldWidth" type="float" value="58"/>
    <property name="worldHeight" type="float" value="20"/>
   </properties>
  </object>
  <object id="54" name="fence_high_e" type="solid" x="2019" y="-458" width="58" height="20">
   <properties>
    <property name="worldX" type="float" value="2019"/>
    <property name="worldY" type="float" value="-458"/>
    <property name="worldWidth" type="float" value="58"/>
    <property name="worldHeight" type="float" value="20"/>
   </properties>
  </object>
  <object id="55" name="fence_high_e" type="solid" x="2051" y="-474" width="58" height="20">
   <properties>
    <property name="worldX" type="float" value="2051"/>
    <property name="worldY" type="float" value="-474"/>
    <property name="worldWidth" type="float" value="58"/>
    <property name="worldHeight" type="float" value="20"/>
   </properties>
  </object>
  <object id="56" name="fence_broken_e" type="solid" x="2083" y="-490" width="58" height="20">
   <properties>
    <property name="worldX" type="float" value="2083"/>
    <property name="worldY" type="float" value="-490"/>
    <property name="worldWidth" type="float" value="58"/>
    <property name="worldHeight" type="float" value="20"/>
   </properties>
  </object>
  <object id="57" name="fence_high_e" type="solid" x="2115" y="-506" width="58" height="20">
   <properties>
    <property name="worldX" type="float" value="2115"/>
    <property name="worldY" type="float" value="-506"/>
    <property name="worldWidth" type="float" value="58"/>
    <property name="worldHeight" type="float" value="20"/>
   </properties>
  </object>
  <object id="58" name="fence_high_e" type="solid" x="2147" y="-522" width="58" height="20">
   <properties>
    <property name="worldX" type="float" value="2147"/>
    <property name="worldY" type="float" value="-522"/>
    <property name="worldWidth" type="float" value="58"/>
    <property name="worldHeight" type="float" value="20"/>
   </properties>
  </object>
  <object id="59" name="fence_high_e" type="solid" x="2179" y="-538" width="58" height="20">
   <properties>
    <property name="worldX" type="float" value="2179"/>
    <property name="worldY" type="float" value="-538"/>
    <property name="worldWidth" type="float" value="58"/>
    <property name="worldHeight" type="float" value="20"/>
   </properties>
  </object>
  <object id="60" name="fence_high_e" type="solid" x="2211" y="-554" width="58" height="20">
   <properties>
    <property name="worldX" type="float" value="2211"/>
    <property name="worldY" type="float" value="-554"/>
    <property name="worldWidth" type="float" value="58"/>
    <property name="worldHeight" type="float" value="20"/>
   </properties>
  </object>
  <object id="61" name="fence_high_e" type="solid" x="2243" y="-570" width="58" height="20">
   <properties>
    <property name="worldX" type="float" value="2243"/>
    <property name="worldY" type="float" value="-570"/>
    <property name="worldWidth" type="float" value="58"/>
    <property name="worldHeight" type="float" value="20"/>
   </properties>
  </object>
  <object id="62" name="fence_broken_e" type="solid" x="2275" y="-586" width="58" height="20">
   <properties>
    <property name="worldX" type="float" value="2275"/>
    <property name="worldY" type="float" value="-586"/>
    <property name="worldWidth" type="float" value="58"/>
    <property name="worldHeight" type="float" value="20"/>
   </properties>
  </object>
  <object id="63" name="fence_high_e" type="solid" x="2339" y="-618" width="58" height="20">
   <properties>
    <property name="worldX" type="float" value="2339"/>
    <property name="worldY" type="float" value="-618"/>
    <property name="worldWidth" type="float" value="58"/>
    <property name="worldHeight" type="float" value="20"/>
   </properties>
  </object>
  <object id="64" name="fence_high_e" type="solid" x="2371" y="-634" width="58" height="20">
   <properties>
    <property name="worldX" type="float" value="2371"/>
    <property name="worldY" type="float" value="-634"/>
    <property name="worldWidth" type="float" value="58"/>
    <property name="worldHeight" type="float" value="20"/>
   </properties>
  </object>
  <object id="65" name="fence_high_e" type="solid" x="2403" y="-650" width="58" height="20">
   <properties>
    <property name="worldX" type="float" value="2403"/>
    <property name="worldY" type="float" value="-650"/>
    <property name="worldWidth" type="float" value="58"/>
    <property name="worldHeight" type="float" value="20"/>
   </properties>
  </object>
  <object id="66" name="fence_high_e" type="solid" x="2435" y="-666" width="58" height="20">
   <properties>
    <property name="worldX" type="float" value="2435"/>
    <property name="worldY" type="float" value="-666"/>
    <property name="worldWidth" type="float" value="58"/>
    <property name="worldHeight" type="float" value="20"/>
   </properties>
  </object>
  <object id="67" name="fence_broken_e" type="solid" x="2467" y="-682" width="58" height="20">
   <properties>
    <property name="worldX" type="float" value="2467"/>
    <property name="worldY" type="float" value="-682"/>
    <property name="worldWidth" type="float" value="58"/>
    <property name="worldHeight" type="float" value="20"/>
   </properties>
  </object>
  <object id="68" name="fence_high_e" type="solid" x="2499" y="-698" width="58" height="20">
   <properties>
    <property name="worldX" type="float" value="2499"/>
    <property name="worldY" type="float" value="-698"/>
    <property name="worldWidth" type="float" value="58"/>
    <property name="worldHeight" type="float" value="20"/>
   </properties>
  </object>
  <object id="69" name="fence_high_e" type="solid" x="2531" y="-714" width="58" height="20">
   <properties>
    <property name="worldX" type="float" value="2531"/>
    <property name="worldY" type="float" value="-714"/>
    <property name="worldWidth" type="float" value="58"/>
    <property name="worldHeight" type="float" value="20"/>
   </properties>
  </object>
  <object id="70" name="fence_high_e" type="solid" x="2563" y="-730" width="58" height="20">
   <properties>
    <property name="worldX" type="float" value="2563"/>
    <property name="worldY" type="float" value="-730"/>
    <property name="worldWidth" type="float" value="58"/>
    <property name="worldHeight" type="float" value="20"/>
   </properties>
  </object>
  <object id="71" name="fence_high_e" type="solid" x="2595" y="-746" width="58" height="20">
   <properties>
    <property name="worldX" type="float" value="2595"/>
    <property name="worldY" type="float" value="-746"/>
    <property name="worldWidth" type="float" value="58"/>
    <property name="worldHeight" type="float" value="20"/>
   </properties>
  </object>
  <object id="72" name="fence_high_e" type="solid" x="2627" y="-762" width="58" height="20">
   <properties>
    <property name="worldX" type="float" value="2627"/>
    <property name="worldY" type="float" value="-762"/>
    <property name="worldWidth" type="float" value="58"/>
    <property name="worldHeight" type="float" value="20"/>
   </properties>
  </object>
  <object id="73" name="fence_high_e" type="solid" x="2691" y="-794" width="58" height="20">
   <properties>
    <property name="worldX" type="float" value="2691"/>
    <property name="worldY" type="float" value="-794"/>
    <property name="worldWidth" type="float" value="58"/>
    <property name="worldHeight" type="float" value="20"/>
   </properties>
  </object>
  <object id="74" name="fence_high_e" type="solid" x="2211" y="-1002" width="58" height="20">
   <properties>
    <property name="worldX" type="float" value="2211"/>
    <property name="worldY" type="float" value="-1002"/>
    <property name="worldWidth" type="float" value="58"/>
    <property name="worldHeight" type="float" value="20"/>
   </properties>
  </object>
  <object id="75" name="fence_high_e" type="solid" x="2243" y="-1018" width="58" height="20">
   <properties>
    <property name="worldX" type="float" value="2243"/>
    <property name="worldY" type="float" value="-1018"/>
    <property name="worldWidth" type="float" value="58"/>
    <property name="worldHeight" type="float" value="20"/>
   </properties>
  </object>
  <object id="76" name="fence_high_e" type="solid" x="2275" y="-1034" width="58" height="20">
   <properties>
    <property name="worldX" type="float" value="2275"/>
    <property name="worldY" type="float" value="-1034"/>
    <property name="worldWidth" type="float" value="58"/>
    <property name="worldHeight" type="float" value="20"/>
   </properties>
  </object>
  <object id="77" name="fence_broken_e" type="solid" x="2307" y="-1050" width="58" height="20">
   <properties>
    <property name="worldX" type="float" value="2307"/>
    <property name="worldY" type="float" value="-1050"/>
    <property name="worldWidth" type="float" value="58"/>
    <property name="worldHeight" type="float" value="20"/>
   </properties>
  </object>
  <object id="78" name="fence_high_e" type="solid" x="2339" y="-1066" width="58" height="20">
   <properties>
    <property name="worldX" type="float" value="2339"/>
    <property name="worldY" type="float" value="-1066"/>
    <property name="worldWidth" type="float" value="58"/>
    <property name="worldHeight" type="float" value="20"/>
   </properties>
  </object>
  <object id="79" name="fence_high_e" type="solid" x="2403" y="-1098" width="58" height="20">
   <properties>
    <property name="worldX" type="float" value="2403"/>
    <property name="worldY" type="float" value="-1098"/>
    <property name="worldWidth" type="float" value="58"/>
    <property name="worldHeight" type="float" value="20"/>
   </properties>
  </object>
  <object id="80" name="fence_high_e" type="solid" x="2435" y="-1114" width="58" height="20">
   <properties>
    <property name="worldX" type="float" value="2435"/>
    <property name="worldY" type="float" value="-1114"/>
    <property name="worldWidth" type="float" value="58"/>
    <property name="worldHeight" type="float" value="20"/>
   </properties>
  </object>
  <object id="81" name="fence_high_e" type="solid" x="2467" y="-1130" width="58" height="20">
   <properties>
    <property name="worldX" type="float" value="2467"/>
    <property name="worldY" type="float" value="-1130"/>
    <property name="worldWidth" type="float" value="58"/>
    <property name="worldHeight" type="float" value="20"/>
   </properties>
  </object>
  <object id="82" name="fence_broken_e" type="solid" x="2499" y="-1146" width="58" height="20">
   <properties>
    <property name="worldX" type="float" value="2499"/>
    <property name="worldY" type="float" value="-1146"/>
    <property name="worldWidth" type="float" value="58"/>
    <property name="worldHeight" type="float" value="20"/>
   </properties>
  </object>
  <object id="83" name="fence_high_e" type="solid" x="2531" y="-1162" width="58" height="20">
   <properties>
    <property name="worldX" type="float" value="2531"/>
    <property name="worldY" type="float" value="-1162"/>
    <property name="worldWidth" type="float" value="58"/>
    <property name="worldHeight" type="float" value="20"/>
   </properties>
  </object>
  <object id="84" name="fence_high_e" type="solid" x="2563" y="-1178" width="58" height="20">
   <properties>
    <property name="worldX" type="float" value="2563"/>
    <property name="worldY" type="float" value="-1178"/>
    <property name="worldWidth" type="float" value="58"/>
    <property name="worldHeight" type="float" value="20"/>
   </properties>
  </object>
  <object id="85" name="fence_high_e" type="solid" x="2595" y="-1194" width="58" height="20">
   <properties>
    <property name="worldX" type="float" value="2595"/>
    <property name="worldY" type="float" value="-1194"/>
    <property name="worldWidth" type="float" value="58"/>
    <property name="worldHeight" type="float" value="20"/>
   </properties>
  </object>
  <object id="86" name="fence_high_e" type="solid" x="2627" y="-1210" width="58" height="20">
   <properties>
    <property name="worldX" type="float" value="2627"/>
    <property name="worldY" type="float" value="-1210"/>
    <property name="worldWidth" type="float" value="58"/>
    <property name="worldHeight" type="float" value="20"/>
   </properties>
  </object>
  <object id="87" name="fence_high_e" type="solid" x="2659" y="-1226" width="58" height="20">
   <properties>
    <property name="worldX" type="float" value="2659"/>
    <property name="worldY" type="float" value="-1226"/>
    <property name="worldWidth" type="float" value="58"/>
    <property name="worldHeight" type="float" value="20"/>
   </properties>
  </object>
  <object id="88" name="fence_broken_e" type="solid" x="2691" y="-1242" width="58" height="20">
   <properties>
    <property name="worldX" type="float" value="2691"/>
    <property name="worldY" type="float" value="-1242"/>
    <property name="worldWidth" type="float" value="58"/>
    <property name="worldHeight" type="float" value="20"/>
   </properties>
  </object>
  <object id="89" name="fence_high_e" type="solid" x="2755" y="-1274" width="58" height="20">
   <properties>
    <property name="worldX" type="float" value="2755"/>
    <property name="worldY" type="float" value="-1274"/>
    <property name="worldWidth" type="float" value="58"/>
    <property name="worldHeight" type="float" value="20"/>
   </properties>
  </object>
  <object id="90" name="fence_high_e" type="solid" x="2787" y="-1290" width="58" height="20">
   <properties>
    <property name="worldX" type="float" value="2787"/>
    <property name="worldY" type="float" value="-1290"/>
    <property name="worldWidth" type="float" value="58"/>
    <property name="worldHeight" type="float" value="20"/>
   </properties>
  </object>
  <object id="91" name="fence_high_e" type="solid" x="2819" y="-1306" width="58" height="20">
   <properties>
    <property name="worldX" type="float" value="2819"/>
    <property name="worldY" type="float" value="-1306"/>
    <property name="worldWidth" type="float" value="58"/>
    <property name="worldHeight" type="float" value="20"/>
   </properties>
  </object>
  <object id="92" name="fence_high_e" type="solid" x="2851" y="-1322" width="58" height="20">
   <properties>
    <property name="worldX" type="float" value="2851"/>
    <property name="worldY" type="float" value="-1322"/>
    <property name="worldWidth" type="float" value="58"/>
    <property name="worldHeight" type="float" value="20"/>
   </properties>
  </object>
  <object id="93" name="fence_broken_e" type="solid" x="2883" y="-1338" width="58" height="20">
   <properties>
    <property name="worldX" type="float" value="2883"/>
    <property name="worldY" type="float" value="-1338"/>
    <property name="worldWidth" type="float" value="58"/>
    <property name="worldHeight" type="float" value="20"/>
   </properties>
  </object>
  <object id="94" name="fence_high_e" type="solid" x="2915" y="-1354" width="58" height="20">
   <properties>
    <property name="worldX" type="float" value="2915"/>
    <property name="worldY" type="float" value="-1354"/>
    <property name="worldWidth" type="float" value="58"/>
    <property name="worldHeight" type="float" value="20"/>
   </properties>
  </object>
  <object id="95" name="fence_high_e" type="solid" x="2947" y="-1370" width="58" height="20">
   <properties>
    <property name="worldX" type="float" value="2947"/>
    <property name="worldY" type="float" value="-1370"/>
    <property name="worldWidth" type="float" value="58"/>
    <property name="worldHeight" type="float" value="20"/>
   </properties>
  </object>
  <object id="96" name="fence_high_e" type="solid" x="2979" y="-1386" width="58" height="20">
   <properties>
    <property name="worldX" type="float" value="2979"/>
    <property name="worldY" type="float" value="-1386"/>
    <property name="worldWidth" type="float" value="58"/>
    <property name="worldHeight" type="float" value="20"/>
   </properties>
  </object>
  <object id="97" name="fence_high_e" type="solid" x="3011" y="-1402" width="58" height="20">
   <properties>
    <property name="worldX" type="float" value="3011"/>
    <property name="worldY" type="float" value="-1402"/>
    <property name="worldWidth" type="float" value="58"/>
    <property name="worldHeight" type="float" value="20"/>
   </properties>
  </object>
  <object id="98" name="fence_high_e" type="solid" x="3043" y="-1418" width="58" height="20">
   <properties>
    <property name="worldX" type="float" value="3043"/>
    <property name="worldY" type="float" value="-1418"/>
    <property name="worldWidth" type="float" value="58"/>
    <property name="worldHeight" type="float" value="20"/>
   </properties>
  </object>
  <object id="99" name="fence_high_e" type="solid" x="3107" y="-1450" width="58" height="20">
   <properties>
    <property name="worldX" type="float" value="3107"/>
    <property name="worldY" type="float" value="-1450"/>
    <property name="worldWidth" type="float" value="58"/>
    <property name="worldHeight" type="float" value="20"/>
   </properties>
  </object>
  <object id="100" name="fence_high_e" type="solid" x="3139" y="-1466" width="58" height="20">
   <properties>
    <property name="worldX" type="float" value="3139"/>
    <property name="worldY" type="float" value="-1466"/>
    <property name="worldWidth" type="float" value="58"/>
    <property name="worldHeight" type="float" value="20"/>
   </properties>
  </object>
  <object id="101" name="fence_high_e" type="solid" x="3171" y="-1482" width="58" height="20">
   <properties>
    <property name="worldX" type="float" value="3171"/>
    <property name="worldY" type="float" value="-1482"/>
    <property name="worldWidth" type="float" value="58"/>
    <property name="worldHeight" type="float" value="20"/>
   </properties>
  </object>
  <object id="102" name="fence_high_e" type="solid" x="4387" y="-426" width="58" height="20">
   <properties>
    <property name="worldX" type="float" value="4387"/>
    <property name="worldY" type="float" value="-426"/>
    <property name="worldWidth" type="float" value="58"/>
    <property name="worldHeight" type="float" value="20"/>
   </properties>
  </object>
  <object id="103" name="fence_high_e" type="solid" x="4419" y="-442" width="58" height="20">
   <properties>
    <property name="worldX" type="float" value="4419"/>
    <property name="worldY" type="float" value="-442"/>
    <property name="worldWidth" type="float" value="58"/>
    <property name="worldHeight" type="float" value="20"/>
   </properties>
  </object>
  <object id="104" name="fence_high_e" type="solid" x="4451" y="-458" width="58" height="20">
   <properties>
    <property name="worldX" type="float" value="4451"/>
    <property name="worldY" type="float" value="-458"/>
    <property name="worldWidth" type="float" value="58"/>
    <property name="worldHeight" type="float" value="20"/>
   </properties>
  </object>
  <object id="105" name="fence_broken_e" type="solid" x="4483" y="-474" width="58" height="20">
   <properties>
    <property name="worldX" type="float" value="4483"/>
    <property name="worldY" type="float" value="-474"/>
    <property name="worldWidth" type="float" value="58"/>
    <property name="worldHeight" type="float" value="20"/>
   </properties>
  </object>
  <object id="106" name="fence_high_e" type="solid" x="4515" y="-490" width="58" height="20">
   <properties>
    <property name="worldX" type="float" value="4515"/>
    <property name="worldY" type="float" value="-490"/>
    <property name="worldWidth" type="float" value="58"/>
    <property name="worldHeight" type="float" value="20"/>
   </properties>
  </object>
  <object id="107" name="fence_high_e" type="solid" x="4579" y="-522" width="58" height="20">
   <properties>
    <property name="worldX" type="float" value="4579"/>
    <property name="worldY" type="float" value="-522"/>
    <property name="worldWidth" type="float" value="58"/>
    <property name="worldHeight" type="float" value="20"/>
   </properties>
  </object>
  <object id="108" name="fence_high_e" type="solid" x="4611" y="-538" width="58" height="20">
   <properties>
    <property name="worldX" type="float" value="4611"/>
    <property name="worldY" type="float" value="-538"/>
    <property name="worldWidth" type="float" value="58"/>
    <property name="worldHeight" type="float" value="20"/>
   </properties>
  </object>
  <object id="109" name="fence_high_e" type="solid" x="4643" y="-554" width="58" height="20">
   <properties>
    <property name="worldX" type="float" value="4643"/>
    <property name="worldY" type="float" value="-554"/>
    <property name="worldWidth" type="float" value="58"/>
    <property name="worldHeight" type="float" value="20"/>
   </properties>
  </object>
  <object id="110" name="fence_broken_e" type="solid" x="4675" y="-570" width="58" height="20">
   <properties>
    <property name="worldX" type="float" value="4675"/>
    <property name="worldY" type="float" value="-570"/>
    <property name="worldWidth" type="float" value="58"/>
    <property name="worldHeight" type="float" value="20"/>
   </properties>
  </object>
  <object id="111" name="fence_high_e" type="solid" x="4707" y="-586" width="58" height="20">
   <properties>
    <property name="worldX" type="float" value="4707"/>
    <property name="worldY" type="float" value="-586"/>
    <property name="worldWidth" type="float" value="58"/>
    <property name="worldHeight" type="float" value="20"/>
   </properties>
  </object>
  <object id="112" name="fence_high_e" type="solid" x="4739" y="-602" width="58" height="20">
   <properties>
    <property name="worldX" type="float" value="4739"/>
    <property name="worldY" type="float" value="-602"/>
    <property name="worldWidth" type="float" value="58"/>
    <property name="worldHeight" type="float" value="20"/>
   </properties>
  </object>
  <object id="113" name="fence_high_e" type="solid" x="4771" y="-618" width="58" height="20">
   <properties>
    <property name="worldX" type="float" value="4771"/>
    <property name="worldY" type="float" value="-618"/>
    <property name="worldWidth" type="float" value="58"/>
    <property name="worldHeight" type="float" value="20"/>
   </properties>
  </object>
  <object id="114" name="fence_high_e" type="solid" x="4803" y="-634" width="58" height="20">
   <properties>
    <property name="worldX" type="float" value="4803"/>
    <property name="worldY" type="float" value="-634"/>
    <property name="worldWidth" type="float" value="58"/>
    <property name="worldHeight" type="float" value="20"/>
   </properties>
  </object>
  <object id="115" name="fence_high_e" type="solid" x="4835" y="-650" width="58" height="20">
   <properties>
    <property name="worldX" type="float" value="4835"/>
    <property name="worldY" type="float" value="-650"/>
    <property name="worldWidth" type="float" value="58"/>
    <property name="worldHeight" type="float" value="20"/>
   </properties>
  </object>
  <object id="116" name="fence_broken_e" type="solid" x="4867" y="-666" width="58" height="20">
   <properties>
    <property name="worldX" type="float" value="4867"/>
    <property name="worldY" type="float" value="-666"/>
    <property name="worldWidth" type="float" value="58"/>
    <property name="worldHeight" type="float" value="20"/>
   </properties>
  </object>
  <object id="117" name="fence_high_e" type="solid" x="4931" y="-698" width="58" height="20">
   <properties>
    <property name="worldX" type="float" value="4931"/>
    <property name="worldY" type="float" value="-698"/>
    <property name="worldWidth" type="float" value="58"/>
    <property name="worldHeight" type="float" value="20"/>
   </properties>
  </object>
  <object id="118" name="fence_high_e" type="solid" x="4963" y="-714" width="58" height="20">
   <properties>
    <property name="worldX" type="float" value="4963"/>
    <property name="worldY" type="float" value="-714"/>
    <property name="worldWidth" type="float" value="58"/>
    <property name="worldHeight" type="float" value="20"/>
   </properties>
  </object>
  <object id="119" name="fence_high_e" type="solid" x="4995" y="-730" width="58" height="20">
   <properties>
    <property name="worldX" type="float" value="4995"/>
    <property name="worldY" type="float" value="-730"/>
    <property name="worldWidth" type="float" value="58"/>
    <property name="worldHeight" type="float" value="20"/>
   </properties>
  </object>
  <object id="120" name="fence_high_e" type="solid" x="5027" y="-746" width="58" height="20">
   <properties>
    <property name="worldX" type="float" value="5027"/>
    <property name="worldY" type="float" value="-746"/>
    <property name="worldWidth" type="float" value="58"/>
    <property name="worldHeight" type="float" value="20"/>
   </properties>
  </object>
  <object id="121" name="fence_broken_e" type="solid" x="5059" y="-762" width="58" height="20">
   <properties>
    <property name="worldX" type="float" value="5059"/>
    <property name="worldY" type="float" value="-762"/>
    <property name="worldWidth" type="float" value="58"/>
    <property name="worldHeight" type="float" value="20"/>
   </properties>
  </object>
  <object id="122" name="fence_high_e" type="solid" x="5091" y="-778" width="58" height="20">
   <properties>
    <property name="worldX" type="float" value="5091"/>
    <property name="worldY" type="float" value="-778"/>
    <property name="worldWidth" type="float" value="58"/>
    <property name="worldHeight" type="float" value="20"/>
   </properties>
  </object>
  <object id="123" name="fence_high_e" type="solid" x="5123" y="-794" width="58" height="20">
   <properties>
    <property name="worldX" type="float" value="5123"/>
    <property name="worldY" type="float" value="-794"/>
    <property name="worldWidth" type="float" value="58"/>
    <property name="worldHeight" type="float" value="20"/>
   </properties>
  </object>
  <object id="124" name="fence_high_e" type="solid" x="5155" y="-810" width="58" height="20">
   <properties>
    <property name="worldX" type="float" value="5155"/>
    <property name="worldY" type="float" value="-810"/>
    <property name="worldWidth" type="float" value="58"/>
    <property name="worldHeight" type="float" value="20"/>
   </properties>
  </object>
  <object id="125" name="fence_high_e" type="solid" x="5187" y="-826" width="58" height="20">
   <properties>
    <property name="worldX" type="float" value="5187"/>
    <property name="worldY" type="float" value="-826"/>
    <property name="worldWidth" type="float" value="58"/>
    <property name="worldHeight" type="float" value="20"/>
   </properties>
  </object>
  <object id="126" name="fence_high_e" type="solid" x="5219" y="-842" width="58" height="20">
   <properties>
    <property name="worldX" type="float" value="5219"/>
    <property name="worldY" type="float" value="-842"/>
    <property name="worldWidth" type="float" value="58"/>
    <property name="worldHeight" type="float" value="20"/>
   </properties>
  </object>
  <object id="127" name="fence_high_e" type="solid" x="5283" y="-874" width="58" height="20">
   <properties>
    <property name="worldX" type="float" value="5283"/>
    <property name="worldY" type="float" value="-874"/>
    <property name="worldWidth" type="float" value="58"/>
    <property name="worldHeight" type="float" value="20"/>
   </properties>
  </object>
  <object id="128" name="fence_high_e" type="solid" x="5315" y="-890" width="58" height="20">
   <properties>
    <property name="worldX" type="float" value="5315"/>
    <property name="worldY" type="float" value="-890"/>
    <property name="worldWidth" type="float" value="58"/>
    <property name="worldHeight" type="float" value="20"/>
   </properties>
  </object>
  <object id="129" name="fence_high_e" type="solid" x="5347" y="-906" width="58" height="20">
   <properties>
    <property name="worldX" type="float" value="5347"/>
    <property name="worldY" type="float" value="-906"/>
    <property name="worldWidth" type="float" value="58"/>
    <property name="worldHeight" type="float" value="20"/>
   </properties>
  </object>
  <object id="130" name="fence_high_e" type="solid" x="5379" y="-922" width="58" height="20">
   <properties>
    <property name="worldX" type="float" value="5379"/>
    <property name="worldY" type="float" value="-922"/>
    <property name="worldWidth" type="float" value="58"/>
    <property name="worldHeight" type="float" value="20"/>
   </properties>
  </object>
  <object id="131" name="fence_high_e" type="solid" x="4067" y="-1418" width="58" height="20">
   <properties>
    <property name="worldX" type="float" value="4067"/>
    <property name="worldY" type="float" value="-1418"/>
    <property name="worldWidth" type="float" value="58"/>
    <property name="worldHeight" type="float" value="20"/>
   </properties>
  </object>
  <object id="132" name="fence_high_e" type="solid" x="4099" y="-1434" width="58" height="20">
   <properties>
    <property name="worldX" type="float" value="4099"/>
    <property name="worldY" type="float" value="-1434"/>
    <property name="worldWidth" type="float" value="58"/>
    <property name="worldHeight" type="float" value="20"/>
   </properties>
  </object>
  <object id="133" name="fence_high_e" type="solid" x="4131" y="-1450" width="58" height="20">
   <properties>
    <property name="worldX" type="float" value="4131"/>
    <property name="worldY" type="float" value="-1450"/>
    <property name="worldWidth" type="float" value="58"/>
    <property name="worldHeight" type="float" value="20"/>
   </properties>
  </object>
  <object id="134" name="fence_broken_e" type="solid" x="4163" y="-1466" width="58" height="20">
   <properties>
    <property name="worldX" type="float" value="4163"/>
    <property name="worldY" type="float" value="-1466"/>
    <property name="worldWidth" type="float" value="58"/>
    <property name="worldHeight" type="float" value="20"/>
   </properties>
  </object>
  <object id="135" name="fence_high_e" type="solid" x="4195" y="-1482" width="58" height="20">
   <properties>
    <property name="worldX" type="float" value="4195"/>
    <property name="worldY" type="float" value="-1482"/>
    <property name="worldWidth" type="float" value="58"/>
    <property name="worldHeight" type="float" value="20"/>
   </properties>
  </object>
  <object id="136" name="fence_high_e" type="solid" x="4259" y="-1514" width="58" height="20">
   <properties>
    <property name="worldX" type="float" value="4259"/>
    <property name="worldY" type="float" value="-1514"/>
    <property name="worldWidth" type="float" value="58"/>
    <property name="worldHeight" type="float" value="20"/>
   </properties>
  </object>
  <object id="137" name="fence_high_e" type="solid" x="4291" y="-1530" width="58" height="20">
   <properties>
    <property name="worldX" type="float" value="4291"/>
    <property name="worldY" type="float" value="-1530"/>
    <property name="worldWidth" type="float" value="58"/>
    <property name="worldHeight" type="float" value="20"/>
   </properties>
  </object>
  <object id="138" name="fence_high_e" type="solid" x="4323" y="-1546" width="58" height="20">
   <properties>
    <property name="worldX" type="float" value="4323"/>
    <property name="worldY" type="float" value="-1546"/>
    <property name="worldWidth" type="float" value="58"/>
    <property name="worldHeight" type="float" value="20"/>
   </properties>
  </object>
  <object id="139" name="fence_broken_e" type="solid" x="4355" y="-1562" width="58" height="20">
   <properties>
    <property name="worldX" type="float" value="4355"/>
    <property name="worldY" type="float" value="-1562"/>
    <property name="worldWidth" type="float" value="58"/>
    <property name="worldHeight" type="float" value="20"/>
   </properties>
  </object>
  <object id="140" name="fence_high_e" type="solid" x="4387" y="-1578" width="58" height="20">
   <properties>
    <property name="worldX" type="float" value="4387"/>
    <property name="worldY" type="float" value="-1578"/>
    <property name="worldWidth" type="float" value="58"/>
    <property name="worldHeight" type="float" value="20"/>
   </properties>
  </object>
  <object id="141" name="fence_high_e" type="solid" x="4419" y="-1594" width="58" height="20">
   <properties>
    <property name="worldX" type="float" value="4419"/>
    <property name="worldY" type="float" value="-1594"/>
    <property name="worldWidth" type="float" value="58"/>
    <property name="worldHeight" type="float" value="20"/>
   </properties>
  </object>
  <object id="142" name="fence_high_e" type="solid" x="4451" y="-1610" width="58" height="20">
   <properties>
    <property name="worldX" type="float" value="4451"/>
    <property name="worldY" type="float" value="-1610"/>
    <property name="worldWidth" type="float" value="58"/>
    <property name="worldHeight" type="float" value="20"/>
   </properties>
  </object>
  <object id="143" name="fence_high_e" type="solid" x="4483" y="-1626" width="58" height="20">
   <properties>
    <property name="worldX" type="float" value="4483"/>
    <property name="worldY" type="float" value="-1626"/>
    <property name="worldWidth" type="float" value="58"/>
    <property name="worldHeight" type="float" value="20"/>
   </properties>
  </object>
  <object id="144" name="fence_high_e" type="solid" x="4515" y="-1642" width="58" height="20">
   <properties>
    <property name="worldX" type="float" value="4515"/>
    <property name="worldY" type="float" value="-1642"/>
    <property name="worldWidth" type="float" value="58"/>
    <property name="worldHeight" type="float" value="20"/>
   </properties>
  </object>
  <object id="145" name="fence_broken_e" type="solid" x="4547" y="-1658" width="58" height="20">
   <properties>
    <property name="worldX" type="float" value="4547"/>
    <property name="worldY" type="float" value="-1658"/>
    <property name="worldWidth" type="float" value="58"/>
    <property name="worldHeight" type="float" value="20"/>
   </properties>
  </object>
  <object id="146" name="fence_high_e" type="solid" x="4611" y="-1690" width="58" height="20">
   <properties>
    <property name="worldX" type="float" value="4611"/>
    <property name="worldY" type="float" value="-1690"/>
    <property name="worldWidth" type="float" value="58"/>
    <property name="worldHeight" type="float" value="20"/>
   </properties>
  </object>
  <object id="147" name="fence_high_e" type="solid" x="4643" y="-1706" width="58" height="20">
   <properties>
    <property name="worldX" type="float" value="4643"/>
    <property name="worldY" type="float" value="-1706"/>
    <property name="worldWidth" type="float" value="58"/>
    <property name="worldHeight" type="float" value="20"/>
   </properties>
  </object>
  <object id="148" name="fence_high_e" type="solid" x="4675" y="-1722" width="58" height="20">
   <properties>
    <property name="worldX" type="float" value="4675"/>
    <property name="worldY" type="float" value="-1722"/>
    <property name="worldWidth" type="float" value="58"/>
    <property name="worldHeight" type="float" value="20"/>
   </properties>
  </object>
  <object id="149" name="fence_high_e" type="solid" x="4707" y="-1738" width="58" height="20">
   <properties>
    <property name="worldX" type="float" value="4707"/>
    <property name="worldY" type="float" value="-1738"/>
    <property name="worldWidth" type="float" value="58"/>
    <property name="worldHeight" type="float" value="20"/>
   </properties>
  </object>
  <object id="150" name="fence_broken_e" type="solid" x="4739" y="-1754" width="58" height="20">
   <properties>
    <property name="worldX" type="float" value="4739"/>
    <property name="worldY" type="float" value="-1754"/>
    <property name="worldWidth" type="float" value="58"/>
    <property name="worldHeight" type="float" value="20"/>
   </properties>
  </object>
  <object id="151" name="fence_high_e" type="solid" x="4771" y="-1770" width="58" height="20">
   <properties>
    <property name="worldX" type="float" value="4771"/>
    <property name="worldY" type="float" value="-1770"/>
    <property name="worldWidth" type="float" value="58"/>
    <property name="worldHeight" type="float" value="20"/>
   </properties>
  </object>
  <object id="152" name="fence_high_e" type="solid" x="4803" y="-1786" width="58" height="20">
   <properties>
    <property name="worldX" type="float" value="4803"/>
    <property name="worldY" type="float" value="-1786"/>
    <property name="worldWidth" type="float" value="58"/>
    <property name="worldHeight" type="float" value="20"/>
   </properties>
  </object>
  <object id="153" name="fence_high_e" type="solid" x="4835" y="-1802" width="58" height="20">
   <properties>
    <property name="worldX" type="float" value="4835"/>
    <property name="worldY" type="float" value="-1802"/>
    <property name="worldWidth" type="float" value="58"/>
    <property name="worldHeight" type="float" value="20"/>
   </properties>
  </object>
  <object id="154" name="fence_high_e" type="solid" x="4867" y="-1818" width="58" height="20">
   <properties>
    <property name="worldX" type="float" value="4867"/>
    <property name="worldY" type="float" value="-1818"/>
    <property name="worldWidth" type="float" value="58"/>
    <property name="worldHeight" type="float" value="20"/>
   </properties>
  </object>
  <object id="155" name="fence_high_e" type="solid" x="4899" y="-1834" width="58" height="20">
   <properties>
    <property name="worldX" type="float" value="4899"/>
    <property name="worldY" type="float" value="-1834"/>
    <property name="worldWidth" type="float" value="58"/>
    <property name="worldHeight" type="float" value="20"/>
   </properties>
  </object>
  <object id="156" name="fence_high_e" type="solid" x="4963" y="-1866" width="58" height="20">
   <properties>
    <property name="worldX" type="float" value="4963"/>
    <property name="worldY" type="float" value="-1866"/>
    <property name="worldWidth" type="float" value="58"/>
    <property name="worldHeight" type="float" value="20"/>
   </properties>
  </object>
  <object id="157" name="fence_high_e" type="solid" x="4995" y="-1882" width="58" height="20">
   <properties>
    <property name="worldX" type="float" value="4995"/>
    <property name="worldY" type="float" value="-1882"/>
    <property name="worldWidth" type="float" value="58"/>
    <property name="worldHeight" type="float" value="20"/>
   </properties>
  </object>
  <object id="158" name="fence_high_e" type="solid" x="4387" y="-2026" width="58" height="20">
   <properties>
    <property name="worldX" type="float" value="4387"/>
    <property name="worldY" type="float" value="-2026"/>
    <property name="worldWidth" type="float" value="58"/>
    <property name="worldHeight" type="float" value="20"/>
   </properties>
  </object>
  <object id="159" name="fence_high_e" type="solid" x="4419" y="-2042" width="58" height="20">
   <properties>
    <property name="worldX" type="float" value="4419"/>
    <property name="worldY" type="float" value="-2042"/>
    <property name="worldWidth" type="float" value="58"/>
    <property name="worldHeight" type="float" value="20"/>
   </properties>
  </object>
  <object id="160" name="fence_high_e" type="solid" x="4451" y="-2058" width="58" height="20">
   <properties>
    <property name="worldX" type="float" value="4451"/>
    <property name="worldY" type="float" value="-2058"/>
    <property name="worldWidth" type="float" value="58"/>
    <property name="worldHeight" type="float" value="20"/>
   </properties>
  </object>
  <object id="161" name="fence_broken_e" type="solid" x="4483" y="-2074" width="58" height="20">
   <properties>
    <property name="worldX" type="float" value="4483"/>
    <property name="worldY" type="float" value="-2074"/>
    <property name="worldWidth" type="float" value="58"/>
    <property name="worldHeight" type="float" value="20"/>
   </properties>
  </object>
  <object id="162" name="fence_high_e" type="solid" x="4515" y="-2090" width="58" height="20">
   <properties>
    <property name="worldX" type="float" value="4515"/>
    <property name="worldY" type="float" value="-2090"/>
    <property name="worldWidth" type="float" value="58"/>
    <property name="worldHeight" type="float" value="20"/>
   </properties>
  </object>
  <object id="163" name="fence_high_e" type="solid" x="4579" y="-2122" width="58" height="20">
   <properties>
    <property name="worldX" type="float" value="4579"/>
    <property name="worldY" type="float" value="-2122"/>
    <property name="worldWidth" type="float" value="58"/>
    <property name="worldHeight" type="float" value="20"/>
   </properties>
  </object>
  <object id="164" name="fence_high_e" type="solid" x="4611" y="-2138" width="58" height="20">
   <properties>
    <property name="worldX" type="float" value="4611"/>
    <property name="worldY" type="float" value="-2138"/>
    <property name="worldWidth" type="float" value="58"/>
    <property name="worldHeight" type="float" value="20"/>
   </properties>
  </object>
  <object id="165" name="fence_high_e" type="solid" x="4643" y="-2154" width="58" height="20">
   <properties>
    <property name="worldX" type="float" value="4643"/>
    <property name="worldY" type="float" value="-2154"/>
    <property name="worldWidth" type="float" value="58"/>
    <property name="worldHeight" type="float" value="20"/>
   </properties>
  </object>
  <object id="166" name="fence_broken_e" type="solid" x="4675" y="-2170" width="58" height="20">
   <properties>
    <property name="worldX" type="float" value="4675"/>
    <property name="worldY" type="float" value="-2170"/>
    <property name="worldWidth" type="float" value="58"/>
    <property name="worldHeight" type="float" value="20"/>
   </properties>
  </object>
  <object id="167" name="fence_high_e" type="solid" x="4707" y="-2186" width="58" height="20">
   <properties>
    <property name="worldX" type="float" value="4707"/>
    <property name="worldY" type="float" value="-2186"/>
    <property name="worldWidth" type="float" value="58"/>
    <property name="worldHeight" type="float" value="20"/>
   </properties>
  </object>
  <object id="168" name="fence_high_e" type="solid" x="4739" y="-2202" width="58" height="20">
   <properties>
    <property name="worldX" type="float" value="4739"/>
    <property name="worldY" type="float" value="-2202"/>
    <property name="worldWidth" type="float" value="58"/>
    <property name="worldHeight" type="float" value="20"/>
   </properties>
  </object>
  <object id="169" name="fence_high_e" type="solid" x="4771" y="-2218" width="58" height="20">
   <properties>
    <property name="worldX" type="float" value="4771"/>
    <property name="worldY" type="float" value="-2218"/>
    <property name="worldWidth" type="float" value="58"/>
    <property name="worldHeight" type="float" value="20"/>
   </properties>
  </object>
  <object id="170" name="fence_high_e" type="solid" x="4803" y="-2234" width="58" height="20">
   <properties>
    <property name="worldX" type="float" value="4803"/>
    <property name="worldY" type="float" value="-2234"/>
    <property name="worldWidth" type="float" value="58"/>
    <property name="worldHeight" type="float" value="20"/>
   </properties>
  </object>
  <object id="171" name="fence_high_e" type="solid" x="4835" y="-2250" width="58" height="20">
   <properties>
    <property name="worldX" type="float" value="4835"/>
    <property name="worldY" type="float" value="-2250"/>
    <property name="worldWidth" type="float" value="58"/>
    <property name="worldHeight" type="float" value="20"/>
   </properties>
  </object>
  <object id="172" name="fence_broken_e" type="solid" x="4867" y="-2266" width="58" height="20">
   <properties>
    <property name="worldX" type="float" value="4867"/>
    <property name="worldY" type="float" value="-2266"/>
    <property name="worldWidth" type="float" value="58"/>
    <property name="worldHeight" type="float" value="20"/>
   </properties>
  </object>
  <object id="173" name="fence_high_e" type="solid" x="4931" y="-2298" width="58" height="20">
   <properties>
    <property name="worldX" type="float" value="4931"/>
    <property name="worldY" type="float" value="-2298"/>
    <property name="worldWidth" type="float" value="58"/>
    <property name="worldHeight" type="float" value="20"/>
   </properties>
  </object>
  <object id="174" name="fence_high_e" type="solid" x="4963" y="-2314" width="58" height="20">
   <properties>
    <property name="worldX" type="float" value="4963"/>
    <property name="worldY" type="float" value="-2314"/>
    <property name="worldWidth" type="float" value="58"/>
    <property name="worldHeight" type="float" value="20"/>
   </properties>
  </object>
  <object id="175" name="fence_high_e" type="solid" x="4995" y="-2330" width="58" height="20">
   <properties>
    <property name="worldX" type="float" value="4995"/>
    <property name="worldY" type="float" value="-2330"/>
    <property name="worldWidth" type="float" value="58"/>
    <property name="worldHeight" type="float" value="20"/>
   </properties>
  </object>
  <object id="176" name="fence_high_e" type="solid" x="5027" y="-2346" width="58" height="20">
   <properties>
    <property name="worldX" type="float" value="5027"/>
    <property name="worldY" type="float" value="-2346"/>
    <property name="worldWidth" type="float" value="58"/>
    <property name="worldHeight" type="float" value="20"/>
   </properties>
  </object>
  <object id="177" name="fence_broken_e" type="solid" x="5059" y="-2362" width="58" height="20">
   <properties>
    <property name="worldX" type="float" value="5059"/>
    <property name="worldY" type="float" value="-2362"/>
    <property name="worldWidth" type="float" value="58"/>
    <property name="worldHeight" type="float" value="20"/>
   </properties>
  </object>
  <object id="178" name="fence_high_e" type="solid" x="5091" y="-2378" width="58" height="20">
   <properties>
    <property name="worldX" type="float" value="5091"/>
    <property name="worldY" type="float" value="-2378"/>
    <property name="worldWidth" type="float" value="58"/>
    <property name="worldHeight" type="float" value="20"/>
   </properties>
  </object>
  <object id="179" name="fence_high_e" type="solid" x="5123" y="-2394" width="58" height="20">
   <properties>
    <property name="worldX" type="float" value="5123"/>
    <property name="worldY" type="float" value="-2394"/>
    <property name="worldWidth" type="float" value="58"/>
    <property name="worldHeight" type="float" value="20"/>
   </properties>
  </object>
  <object id="180" name="fence_high_e" type="solid" x="5155" y="-2410" width="58" height="20">
   <properties>
    <property name="worldX" type="float" value="5155"/>
    <property name="worldY" type="float" value="-2410"/>
    <property name="worldWidth" type="float" value="58"/>
    <property name="worldHeight" type="float" value="20"/>
   </properties>
  </object>
  <object id="181" name="fence_high_e" type="solid" x="5187" y="-2426" width="58" height="20">
   <properties>
    <property name="worldX" type="float" value="5187"/>
    <property name="worldY" type="float" value="-2426"/>
    <property name="worldWidth" type="float" value="58"/>
    <property name="worldHeight" type="float" value="20"/>
   </properties>
  </object>
  <object id="182" name="fence_high_e" type="solid" x="5219" y="-2442" width="58" height="20">
   <properties>
    <property name="worldX" type="float" value="5219"/>
    <property name="worldY" type="float" value="-2442"/>
    <property name="worldWidth" type="float" value="58"/>
    <property name="worldHeight" type="float" value="20"/>
   </properties>
  </object>
  <object id="183" name="fence_high_e" type="solid" x="5283" y="-2474" width="58" height="20">
   <properties>
    <property name="worldX" type="float" value="5283"/>
    <property name="worldY" type="float" value="-2474"/>
    <property name="worldWidth" type="float" value="58"/>
    <property name="worldHeight" type="float" value="20"/>
   </properties>
  </object>
  <object id="184" name="fence_high_e" type="solid" x="5315" y="-2490" width="58" height="20">
   <properties>
    <property name="worldX" type="float" value="5315"/>
    <property name="worldY" type="float" value="-2490"/>
    <property name="worldWidth" type="float" value="58"/>
    <property name="worldHeight" type="float" value="20"/>
   </properties>
  </object>
  <object id="185" name="fence_high_e" type="solid" x="5347" y="-2506" width="58" height="20">
   <properties>
    <property name="worldX" type="float" value="5347"/>
    <property name="worldY" type="float" value="-2506"/>
    <property name="worldWidth" type="float" value="58"/>
    <property name="worldHeight" type="float" value="20"/>
   </properties>
  </object>
  <object id="186" name="fence_high_e" type="solid" x="5379" y="-2522" width="58" height="20">
   <properties>
    <property name="worldX" type="float" value="5379"/>
    <property name="worldY" type="float" value="-2522"/>
    <property name="worldWidth" type="float" value="58"/>
    <property name="worldHeight" type="float" value="20"/>
   </properties>
  </object>
  <object id="187" name="fence_high_e" type="solid" x="6371" y="-1450" width="58" height="20">
   <properties>
    <property name="worldX" type="float" value="6371"/>
    <property name="worldY" type="float" value="-1450"/>
    <property name="worldWidth" type="float" value="58"/>
    <property name="worldHeight" type="float" value="20"/>
   </properties>
  </object>
  <object id="188" name="fence_high_e" type="solid" x="6403" y="-1466" width="58" height="20">
   <properties>
    <property name="worldX" type="float" value="6403"/>
    <property name="worldY" type="float" value="-1466"/>
    <property name="worldWidth" type="float" value="58"/>
    <property name="worldHeight" type="float" value="20"/>
   </properties>
  </object>
  <object id="189" name="fence_high_e" type="solid" x="6435" y="-1482" width="58" height="20">
   <properties>
    <property name="worldX" type="float" value="6435"/>
    <property name="worldY" type="float" value="-1482"/>
    <property name="worldWidth" type="float" value="58"/>
    <property name="worldHeight" type="float" value="20"/>
   </properties>
  </object>
  <object id="190" name="fence_broken_e" type="solid" x="6467" y="-1498" width="58" height="20">
   <properties>
    <property name="worldX" type="float" value="6467"/>
    <property name="worldY" type="float" value="-1498"/>
    <property name="worldWidth" type="float" value="58"/>
    <property name="worldHeight" type="float" value="20"/>
   </properties>
  </object>
  <object id="191" name="fence_high_e" type="solid" x="6499" y="-1514" width="58" height="20">
   <properties>
    <property name="worldX" type="float" value="6499"/>
    <property name="worldY" type="float" value="-1514"/>
    <property name="worldWidth" type="float" value="58"/>
    <property name="worldHeight" type="float" value="20"/>
   </properties>
  </object>
  <object id="192" name="fence_high_e" type="solid" x="6563" y="-1546" width="58" height="20">
   <properties>
    <property name="worldX" type="float" value="6563"/>
    <property name="worldY" type="float" value="-1546"/>
    <property name="worldWidth" type="float" value="58"/>
    <property name="worldHeight" type="float" value="20"/>
   </properties>
  </object>
  <object id="193" name="fence_high_e" type="solid" x="6595" y="-1562" width="58" height="20">
   <properties>
    <property name="worldX" type="float" value="6595"/>
    <property name="worldY" type="float" value="-1562"/>
    <property name="worldWidth" type="float" value="58"/>
    <property name="worldHeight" type="float" value="20"/>
   </properties>
  </object>
  <object id="194" name="fence_high_e" type="solid" x="6627" y="-1578" width="58" height="20">
   <properties>
    <property name="worldX" type="float" value="6627"/>
    <property name="worldY" type="float" value="-1578"/>
    <property name="worldWidth" type="float" value="58"/>
    <property name="worldHeight" type="float" value="20"/>
   </properties>
  </object>
  <object id="195" name="fence_broken_e" type="solid" x="6659" y="-1594" width="58" height="20">
   <properties>
    <property name="worldX" type="float" value="6659"/>
    <property name="worldY" type="float" value="-1594"/>
    <property name="worldWidth" type="float" value="58"/>
    <property name="worldHeight" type="float" value="20"/>
   </properties>
  </object>
  <object id="196" name="fence_high_e" type="solid" x="6691" y="-1610" width="58" height="20">
   <properties>
    <property name="worldX" type="float" value="6691"/>
    <property name="worldY" type="float" value="-1610"/>
    <property name="worldWidth" type="float" value="58"/>
    <property name="worldHeight" type="float" value="20"/>
   </properties>
  </object>
  <object id="197" name="fence_high_e" type="solid" x="6723" y="-1626" width="58" height="20">
   <properties>
    <property name="worldX" type="float" value="6723"/>
    <property name="worldY" type="float" value="-1626"/>
    <property name="worldWidth" type="float" value="58"/>
    <property name="worldHeight" type="float" value="20"/>
   </properties>
  </object>
  <object id="198" name="fence_high_e" type="solid" x="6755" y="-1642" width="58" height="20">
   <properties>
    <property name="worldX" type="float" value="6755"/>
    <property name="worldY" type="float" value="-1642"/>
    <property name="worldWidth" type="float" value="58"/>
    <property name="worldHeight" type="float" value="20"/>
   </properties>
  </object>
  <object id="199" name="fence_high_e" type="solid" x="6787" y="-1658" width="58" height="20">
   <properties>
    <property name="worldX" type="float" value="6787"/>
    <property name="worldY" type="float" value="-1658"/>
    <property name="worldWidth" type="float" value="58"/>
    <property name="worldHeight" type="float" value="20"/>
   </properties>
  </object>
  <object id="200" name="fence_high_e" type="solid" x="6819" y="-1674" width="58" height="20">
   <properties>
    <property name="worldX" type="float" value="6819"/>
    <property name="worldY" type="float" value="-1674"/>
    <property name="worldWidth" type="float" value="58"/>
    <property name="worldHeight" type="float" value="20"/>
   </properties>
  </object>
  <object id="201" name="fence_broken_e" type="solid" x="6851" y="-1690" width="58" height="20">
   <properties>
    <property name="worldX" type="float" value="6851"/>
    <property name="worldY" type="float" value="-1690"/>
    <property name="worldWidth" type="float" value="58"/>
    <property name="worldHeight" type="float" value="20"/>
   </properties>
  </object>
  <object id="202" name="fence_high_e" type="solid" x="6915" y="-1722" width="58" height="20">
   <properties>
    <property name="worldX" type="float" value="6915"/>
    <property name="worldY" type="float" value="-1722"/>
    <property name="worldWidth" type="float" value="58"/>
    <property name="worldHeight" type="float" value="20"/>
   </properties>
  </object>
  <object id="203" name="fence_high_e" type="solid" x="6947" y="-1738" width="58" height="20">
   <properties>
    <property name="worldX" type="float" value="6947"/>
    <property name="worldY" type="float" value="-1738"/>
    <property name="worldWidth" type="float" value="58"/>
    <property name="worldHeight" type="float" value="20"/>
   </properties>
  </object>
  <object id="204" name="fence_high_e" type="solid" x="6979" y="-1754" width="58" height="20">
   <properties>
    <property name="worldX" type="float" value="6979"/>
    <property name="worldY" type="float" value="-1754"/>
    <property name="worldWidth" type="float" value="58"/>
    <property name="worldHeight" type="float" value="20"/>
   </properties>
  </object>
  <object id="205" name="fence_high_e" type="solid" x="7011" y="-1770" width="58" height="20">
   <properties>
    <property name="worldX" type="float" value="7011"/>
    <property name="worldY" type="float" value="-1770"/>
    <property name="worldWidth" type="float" value="58"/>
    <property name="worldHeight" type="float" value="20"/>
   </properties>
  </object>
  <object id="206" name="fence_broken_e" type="solid" x="7043" y="-1786" width="58" height="20">
   <properties>
    <property name="worldX" type="float" value="7043"/>
    <property name="worldY" type="float" value="-1786"/>
    <property name="worldWidth" type="float" value="58"/>
    <property name="worldHeight" type="float" value="20"/>
   </properties>
  </object>
  <object id="207" name="fence_high_e" type="solid" x="7075" y="-1802" width="58" height="20">
   <properties>
    <property name="worldX" type="float" value="7075"/>
    <property name="worldY" type="float" value="-1802"/>
    <property name="worldWidth" type="float" value="58"/>
    <property name="worldHeight" type="float" value="20"/>
   </properties>
  </object>
  <object id="208" name="fence_high_e" type="solid" x="7107" y="-1818" width="58" height="20">
   <properties>
    <property name="worldX" type="float" value="7107"/>
    <property name="worldY" type="float" value="-1818"/>
    <property name="worldWidth" type="float" value="58"/>
    <property name="worldHeight" type="float" value="20"/>
   </properties>
  </object>
  <object id="209" name="fence_high_e" type="solid" x="7139" y="-1834" width="58" height="20">
   <properties>
    <property name="worldX" type="float" value="7139"/>
    <property name="worldY" type="float" value="-1834"/>
    <property name="worldWidth" type="float" value="58"/>
    <property name="worldHeight" type="float" value="20"/>
   </properties>
  </object>
  <object id="210" name="fence_high_e" type="solid" x="7171" y="-1850" width="58" height="20">
   <properties>
    <property name="worldX" type="float" value="7171"/>
    <property name="worldY" type="float" value="-1850"/>
    <property name="worldWidth" type="float" value="58"/>
    <property name="worldHeight" type="float" value="20"/>
   </properties>
  </object>
  <object id="211" name="fence_high_e" type="solid" x="7203" y="-1866" width="58" height="20">
   <properties>
    <property name="worldX" type="float" value="7203"/>
    <property name="worldY" type="float" value="-1866"/>
    <property name="worldWidth" type="float" value="58"/>
    <property name="worldHeight" type="float" value="20"/>
   </properties>
  </object>
  <object id="212" name="fence_high_e" type="solid" x="7267" y="-1898" width="58" height="20">
   <properties>
    <property name="worldX" type="float" value="7267"/>
    <property name="worldY" type="float" value="-1898"/>
    <property name="worldWidth" type="float" value="58"/>
    <property name="worldHeight" type="float" value="20"/>
   </properties>
  </object>
  <object id="213" name="fence_high_e" type="solid" x="7299" y="-1914" width="58" height="20">
   <properties>
    <property name="worldX" type="float" value="7299"/>
    <property name="worldY" type="float" value="-1914"/>
    <property name="worldWidth" type="float" value="58"/>
    <property name="worldHeight" type="float" value="20"/>
   </properties>
  </object>
  <object id="214" name="fence_high_e" type="solid" x="7331" y="-1930" width="58" height="20">
   <properties>
    <property name="worldX" type="float" value="7331"/>
    <property name="worldY" type="float" value="-1930"/>
    <property name="worldWidth" type="float" value="58"/>
    <property name="worldHeight" type="float" value="20"/>
   </properties>
  </object>
  <object id="215" name="fence_high_e" type="solid" x="7363" y="-1946" width="58" height="20">
   <properties>
    <property name="worldX" type="float" value="7363"/>
    <property name="worldY" type="float" value="-1946"/>
    <property name="worldWidth" type="float" value="58"/>
    <property name="worldHeight" type="float" value="20"/>
   </properties>
  </object>
  <object id="216" name="fence_high_e" type="solid" x="7395" y="-1962" width="58" height="20">
   <properties>
    <property name="worldX" type="float" value="7395"/>
    <property name="worldY" type="float" value="-1962"/>
    <property name="worldWidth" type="float" value="58"/>
    <property name="worldHeight" type="float" value="20"/>
   </properties>
  </object>
  <object id="217" name="fence_high_s" type="solid" x="1667" y="-58" width="58" height="20">
   <properties>
    <property name="worldX" type="float" value="1667"/>
    <property name="worldY" type="float" value="-58"/>
    <property name="worldWidth" type="float" value="58"/>
    <property name="worldHeight" type="float" value="20"/>
   </properties>
  </object>
  <object id="218" name="fence_high_s" type="solid" x="1699" y="-42" width="58" height="20">
   <properties>
    <property name="worldX" type="float" value="1699"/>
    <property name="worldY" type="float" value="-42"/>
    <property name="worldWidth" type="float" value="58"/>
    <property name="worldHeight" type="float" value="20"/>
   </properties>
  </object>
  <object id="219" name="fence_high_s" type="solid" x="1731" y="-26" width="58" height="20">
   <properties>
    <property name="worldX" type="float" value="1731"/>
    <property name="worldY" type="float" value="-26"/>
    <property name="worldWidth" type="float" value="58"/>
    <property name="worldHeight" type="float" value="20"/>
   </properties>
  </object>
  <object id="220" name="fence_broken_e" type="solid" x="1763" y="-10" width="58" height="20">
   <properties>
    <property name="worldX" type="float" value="1763"/>
    <property name="worldY" type="float" value="-10"/>
    <property name="worldWidth" type="float" value="58"/>
    <property name="worldHeight" type="float" value="20"/>
   </properties>
  </object>
  <object id="221" name="fence_high_s" type="solid" x="1795" y="6" width="58" height="20">
   <properties>
    <property name="worldX" type="float" value="1795"/>
    <property name="worldY" type="float" value="6"/>
    <property name="worldWidth" type="float" value="58"/>
    <property name="worldHeight" type="float" value="20"/>
   </properties>
  </object>
  <object id="222" name="fence_high_s" type="solid" x="1859" y="38" width="58" height="20">
   <properties>
    <property name="worldX" type="float" value="1859"/>
    <property name="worldY" type="float" value="38"/>
    <property name="worldWidth" type="float" value="58"/>
    <property name="worldHeight" type="float" value="20"/>
   </properties>
  </object>
  <object id="223" name="fence_high_s" type="solid" x="1891" y="54" width="58" height="20">
   <properties>
    <property name="worldX" type="float" value="1891"/>
    <property name="worldY" type="float" value="54"/>
    <property name="worldWidth" type="float" value="58"/>
    <property name="worldHeight" type="float" value="20"/>
   </properties>
  </object>
  <object id="224" name="fence_high_s" type="solid" x="1923" y="70" width="58" height="20">
   <properties>
    <property name="worldX" type="float" value="1923"/>
    <property name="worldY" type="float" value="70"/>
    <property name="worldWidth" type="float" value="58"/>
    <property name="worldHeight" type="float" value="20"/>
   </properties>
  </object>
  <object id="225" name="fence_broken_e" type="solid" x="1955" y="86" width="58" height="20">
   <properties>
    <property name="worldX" type="float" value="1955"/>
    <property name="worldY" type="float" value="86"/>
    <property name="worldWidth" type="float" value="58"/>
    <property name="worldHeight" type="float" value="20"/>
   </properties>
  </object>
  <object id="226" name="fence_high_s" type="solid" x="1987" y="102" width="58" height="20">
   <properties>
    <property name="worldX" type="float" value="1987"/>
    <property name="worldY" type="float" value="102"/>
    <property name="worldWidth" type="float" value="58"/>
    <property name="worldHeight" type="float" value="20"/>
   </properties>
  </object>
  <object id="227" name="fence_high_s" type="solid" x="2019" y="118" width="58" height="20">
   <properties>
    <property name="worldX" type="float" value="2019"/>
    <property name="worldY" type="float" value="118"/>
    <property name="worldWidth" type="float" value="58"/>
    <property name="worldHeight" type="float" value="20"/>
   </properties>
  </object>
  <object id="228" name="fence_high_s" type="solid" x="2051" y="134" width="58" height="20">
   <properties>
    <property name="worldX" type="float" value="2051"/>
    <property name="worldY" type="float" value="134"/>
    <property name="worldWidth" type="float" value="58"/>
    <property name="worldHeight" type="float" value="20"/>
   </properties>
  </object>
  <object id="229" name="fence_high_s" type="solid" x="2083" y="150" width="58" height="20">
   <properties>
    <property name="worldX" type="float" value="2083"/>
    <property name="worldY" type="float" value="150"/>
    <property name="worldWidth" type="float" value="58"/>
    <property name="worldHeight" type="float" value="20"/>
   </properties>
  </object>
  <object id="230" name="fence_high_s" type="solid" x="2115" y="166" width="58" height="20">
   <properties>
    <property name="worldX" type="float" value="2115"/>
    <property name="worldY" type="float" value="166"/>
    <property name="worldWidth" type="float" value="58"/>
    <property name="worldHeight" type="float" value="20"/>
   </properties>
  </object>
  <object id="231" name="fence_broken_e" type="solid" x="2147" y="182" width="58" height="20">
   <properties>
    <property name="worldX" type="float" value="2147"/>
    <property name="worldY" type="float" value="182"/>
    <property name="worldWidth" type="float" value="58"/>
    <property name="worldHeight" type="float" value="20"/>
   </properties>
  </object>
  <object id="232" name="fence_high_s" type="solid" x="2211" y="214" width="58" height="20">
   <properties>
    <property name="worldX" type="float" value="2211"/>
    <property name="worldY" type="float" value="214"/>
    <property name="worldWidth" type="float" value="58"/>
    <property name="worldHeight" type="float" value="20"/>
   </properties>
  </object>
  <object id="233" name="fence_high_s" type="solid" x="4931" y="-1466" width="58" height="20">
   <properties>
    <property name="worldX" type="float" value="4931"/>
    <property name="worldY" type="float" value="-1466"/>
    <property name="worldWidth" type="float" value="58"/>
    <property name="worldHeight" type="float" value="20"/>
   </properties>
  </object>
  <object id="234" name="fence_high_s" type="solid" x="4963" y="-1450" width="58" height="20">
   <properties>
    <property name="worldX" type="float" value="4963"/>
    <property name="worldY" type="float" value="-1450"/>
    <property name="worldWidth" type="float" value="58"/>
    <property name="worldHeight" type="float" value="20"/>
   </properties>
  </object>
  <object id="235" name="fence_high_s" type="solid" x="4995" y="-1434" width="58" height="20">
   <properties>
    <property name="worldX" type="float" value="4995"/>
    <property name="worldY" type="float" value="-1434"/>
    <property name="worldWidth" type="float" value="58"/>
    <property name="worldHeight" type="float" value="20"/>
   </properties>
  </object>
  <object id="236" name="fence_broken_e" type="solid" x="5027" y="-1418" width="58" height="20">
   <properties>
    <property name="worldX" type="float" value="5027"/>
    <property name="worldY" type="float" value="-1418"/>
    <property name="worldWidth" type="float" value="58"/>
    <property name="worldHeight" type="float" value="20"/>
   </properties>
  </object>
  <object id="237" name="fence_high_s" type="solid" x="5059" y="-1402" width="58" height="20">
   <properties>
    <property name="worldX" type="float" value="5059"/>
    <property name="worldY" type="float" value="-1402"/>
    <property name="worldWidth" type="float" value="58"/>
    <property name="worldHeight" type="float" value="20"/>
   </properties>
  </object>
  <object id="238" name="fence_high_s" type="solid" x="5123" y="-1370" width="58" height="20">
   <properties>
    <property name="worldX" type="float" value="5123"/>
    <property name="worldY" type="float" value="-1370"/>
    <property name="worldWidth" type="float" value="58"/>
    <property name="worldHeight" type="float" value="20"/>
   </properties>
  </object>
  <object id="239" name="fence_high_s" type="solid" x="5155" y="-1354" width="58" height="20">
   <properties>
    <property name="worldX" type="float" value="5155"/>
    <property name="worldY" type="float" value="-1354"/>
    <property name="worldWidth" type="float" value="58"/>
    <property name="worldHeight" type="float" value="20"/>
   </properties>
  </object>
  <object id="240" name="fence_high_s" type="solid" x="5187" y="-1338" width="58" height="20">
   <properties>
    <property name="worldX" type="float" value="5187"/>
    <property name="worldY" type="float" value="-1338"/>
    <property name="worldWidth" type="float" value="58"/>
    <property name="worldHeight" type="float" value="20"/>
   </properties>
  </object>
  <object id="241" name="fence_broken_e" type="solid" x="5219" y="-1322" width="58" height="20">
   <properties>
    <property name="worldX" type="float" value="5219"/>
    <property name="worldY" type="float" value="-1322"/>
    <property name="worldWidth" type="float" value="58"/>
    <property name="worldHeight" type="float" value="20"/>
   </properties>
  </object>
  <object id="242" name="fence_high_s" type="solid" x="5251" y="-1306" width="58" height="20">
   <properties>
    <property name="worldX" type="float" value="5251"/>
    <property name="worldY" type="float" value="-1306"/>
    <property name="worldWidth" type="float" value="58"/>
    <property name="worldHeight" type="float" value="20"/>
   </properties>
  </object>
  <object id="243" name="fence_high_s" type="solid" x="5283" y="-1290" width="58" height="20">
   <properties>
    <property name="worldX" type="float" value="5283"/>
    <property name="worldY" type="float" value="-1290"/>
    <property name="worldWidth" type="float" value="58"/>
    <property name="worldHeight" type="float" value="20"/>
   </properties>
  </object>
  <object id="244" name="fence_high_s" type="solid" x="5315" y="-1274" width="58" height="20">
   <properties>
    <property name="worldX" type="float" value="5315"/>
    <property name="worldY" type="float" value="-1274"/>
    <property name="worldWidth" type="float" value="58"/>
    <property name="worldHeight" type="float" value="20"/>
   </properties>
  </object>
  <object id="245" name="fence_high_s" type="solid" x="5347" y="-1258" width="58" height="20">
   <properties>
    <property name="worldX" type="float" value="5347"/>
    <property name="worldY" type="float" value="-1258"/>
    <property name="worldWidth" type="float" value="58"/>
    <property name="worldHeight" type="float" value="20"/>
   </properties>
  </object>
  <object id="246" name="fence_high_s" type="solid" x="5379" y="-1242" width="58" height="20">
   <properties>
    <property name="worldX" type="float" value="5379"/>
    <property name="worldY" type="float" value="-1242"/>
    <property name="worldWidth" type="float" value="58"/>
    <property name="worldHeight" type="float" value="20"/>
   </properties>
  </object>
  <object id="247" name="fence_broken_e" type="solid" x="5411" y="-1226" width="58" height="20">
   <properties>
    <property name="worldX" type="float" value="5411"/>
    <property name="worldY" type="float" value="-1226"/>
    <property name="worldWidth" type="float" value="58"/>
    <property name="worldHeight" type="float" value="20"/>
   </properties>
  </object>
  <object id="248" name="fence_high_s" type="solid" x="5475" y="-1194" width="58" height="20">
   <properties>
    <property name="worldX" type="float" value="5475"/>
    <property name="worldY" type="float" value="-1194"/>
    <property name="worldWidth" type="float" value="58"/>
    <property name="worldHeight" type="float" value="20"/>
   </properties>
  </object>
  <object id="249" name="fence_high_s" type="solid" x="5507" y="-1178" width="58" height="20">
   <properties>
    <property name="worldX" type="float" value="5507"/>
    <property name="worldY" type="float" value="-1178"/>
    <property name="worldWidth" type="float" value="58"/>
    <property name="worldHeight" type="float" value="20"/>
   </properties>
  </object>
  <object id="250" name="fence_high_s" type="solid" x="5539" y="-1162" width="58" height="20">
   <properties>
    <property name="worldX" type="float" value="5539"/>
    <property name="worldY" type="float" value="-1162"/>
    <property name="worldWidth" type="float" value="58"/>
    <property name="worldHeight" type="float" value="20"/>
   </properties>
  </object>
  <object id="251" name="hay_stack" type="solid" x="1963" y="399" width="42" height="34">
   <properties>
    <property name="worldX" type="float" value="1963"/>
    <property name="worldY" type="float" value="399"/>
    <property name="worldWidth" type="float" value="42"/>
    <property name="worldHeight" type="float" value="34"/>
   </properties>
  </object>
  <object id="252" name="planks_old" type="solid" x="1995" y="127" width="42" height="34">
   <properties>
    <property name="worldX" type="float" value="1995"/>
    <property name="worldY" type="float" value="127"/>
    <property name="worldWidth" type="float" value="42"/>
    <property name="worldHeight" type="float" value="34"/>
   </properties>
  </object>
  <object id="253" name="sacks_crate" type="solid" x="2475" y="-145" width="42" height="34">
   <properties>
    <property name="worldX" type="float" value="2475"/>
    <property name="worldY" type="float" value="-145"/>
    <property name="worldWidth" type="float" value="42"/>
    <property name="worldHeight" type="float" value="34"/>
   </properties>
  </object>
  <object id="254" name="fence_broken_e" type="solid" x="2659" y="-394" width="58" height="20">
   <properties>
    <property name="worldX" type="float" value="2659"/>
    <property name="worldY" type="float" value="-394"/>
    <property name="worldWidth" type="float" value="58"/>
    <property name="worldHeight" type="float" value="20"/>
   </properties>
  </object>
  <object id="255" name="hay_bales" type="solid" x="3499" y="-689" width="42" height="34">
   <properties>
    <property name="worldX" type="float" value="3499"/>
    <property name="worldY" type="float" value="-689"/>
    <property name="worldWidth" type="float" value="42"/>
    <property name="worldHeight" type="float" value="34"/>
   </properties>
  </object>
  <object id="256" name="ladder_stand" type="solid" x="4043" y="-673" width="42" height="34">
   <properties>
    <property name="worldX" type="float" value="4043"/>
    <property name="worldY" type="float" value="-673"/>
    <property name="worldWidth" type="float" value="42"/>
    <property name="worldHeight" type="float" value="34"/>
   </properties>
  </object>
  <object id="257" name="planks" type="solid" x="3979" y="-1345" width="42" height="34">
   <properties>
    <property name="worldX" type="float" value="3979"/>
    <property name="worldY" type="float" value="-1345"/>
    <property name="worldWidth" type="float" value="42"/>
    <property name="worldHeight" type="float" value="34"/>
   </properties>
  </object>
  <object id="258" name="sack" type="solid" x="4267" y="-1617" width="42" height="34">
   <properties>
    <property name="worldX" type="float" value="4267"/>
    <property name="worldY" type="float" value="-1617"/>
    <property name="worldWidth" type="float" value="42"/>
    <property name="worldHeight" type="float" value="34"/>
   </properties>
  </object>
  <object id="259" name="fence_broken_s" type="solid" x="5795" y="-1482" width="58" height="20">
   <properties>
    <property name="worldX" type="float" value="5795"/>
    <property name="worldY" type="float" value="-1482"/>
    <property name="worldWidth" type="float" value="58"/>
    <property name="worldHeight" type="float" value="20"/>
   </properties>
  </object>
  <object id="260" name="hay_stack" type="solid" x="6027" y="-1793" width="42" height="34">
   <properties>
    <property name="worldX" type="float" value="6027"/>
    <property name="worldY" type="float" value="-1793"/>
    <property name="worldWidth" type="float" value="42"/>
    <property name="worldHeight" type="float" value="34"/>
   </properties>
  </object>
  <object id="261" name="sacks_crate" type="solid" x="6123" y="-2193" width="42" height="34">
   <properties>
    <property name="worldX" type="float" value="6123"/>
    <property name="worldY" type="float" value="-2193"/>
    <property name="worldWidth" type="float" value="42"/>
    <property name="worldHeight" type="float" value="34"/>
   </properties>
  </object>
  <object id="262" name="tree_oak" type="solid" x="175" y="16" width="34" height="32">
   <properties>
    <property name="worldX" type="float" value="175"/>
    <property name="worldY" type="float" value="16"/>
    <property name="worldWidth" type="float" value="34"/>
    <property name="worldHeight" type="float" value="32"/>
   </properties>
  </object>
  <object id="263" name="tree_round" type="solid" x="1999" y="832" width="34" height="32">
   <properties>
    <property name="worldX" type="float" value="1999"/>
    <property name="worldY" type="float" value="832"/>
    <property name="worldWidth" type="float" value="34"/>
    <property name="worldHeight" type="float" value="32"/>
   </properties>
  </object>
  <object id="264" name="tree_oak" type="solid" x="367" y="-112" width="34" height="32">
   <properties>
    <property name="worldX" type="float" value="367"/>
    <property name="worldY" type="float" value="-112"/>
    <property name="worldWidth" type="float" value="34"/>
    <property name="worldHeight" type="float" value="32"/>
   </properties>
  </object>
  <object id="265" name="tree_pine" type="solid" x="2255" y="736" width="34" height="32">
   <properties>
    <property name="worldX" type="float" value="2255"/>
    <property name="worldY" type="float" value="736"/>
    <property name="worldWidth" type="float" value="34"/>
    <property name="worldHeight" type="float" value="32"/>
   </properties>
  </object>
  <object id="266" name="tree_oak" type="solid" x="559" y="-240" width="34" height="32">
   <properties>
    <property name="worldX" type="float" value="559"/>
    <property name="worldY" type="float" value="-240"/>
    <property name="worldWidth" type="float" value="34"/>
    <property name="worldHeight" type="float" value="32"/>
   </properties>
  </object>
  <object id="267" name="tree_round" type="solid" x="2511" y="640" width="34" height="32">
   <properties>
    <property name="worldX" type="float" value="2511"/>
    <property name="worldY" type="float" value="640"/>
    <property name="worldWidth" type="float" value="34"/>
    <property name="worldHeight" type="float" value="32"/>
   </properties>
  </object>
  <object id="268" name="tree_oak" type="solid" x="879" y="-304" width="34" height="32">
   <properties>
    <property name="worldX" type="float" value="879"/>
    <property name="worldY" type="float" value="-304"/>
    <property name="worldWidth" type="float" value="34"/>
    <property name="worldHeight" type="float" value="32"/>
   </properties>
  </object>
  <object id="269" name="tree_round" type="solid" x="2767" y="544" width="34" height="32">
   <properties>
    <property name="worldX" type="float" value="2767"/>
    <property name="worldY" type="float" value="544"/>
    <property name="worldWidth" type="float" value="34"/>
    <property name="worldHeight" type="float" value="32"/>
   </properties>
  </object>
  <object id="270" name="tree_oak" type="solid" x="1071" y="-432" width="34" height="32">
   <properties>
    <property name="worldX" type="float" value="1071"/>
    <property name="worldY" type="float" value="-432"/>
    <property name="worldWidth" type="float" value="34"/>
    <property name="worldHeight" type="float" value="32"/>
   </properties>
  </object>
  <object id="271" name="tree_pine" type="solid" x="3023" y="448" width="34" height="32">
   <properties>
    <property name="worldX" type="float" value="3023"/>
    <property name="worldY" type="float" value="448"/>
    <property name="worldWidth" type="float" value="34"/>
    <property name="worldHeight" type="float" value="32"/>
   </properties>
  </object>
  <object id="272" name="tree_oak" type="solid" x="1263" y="-560" width="34" height="32">
   <properties>
    <property name="worldX" type="float" value="1263"/>
    <property name="worldY" type="float" value="-560"/>
    <property name="worldWidth" type="float" value="34"/>
    <property name="worldHeight" type="float" value="32"/>
   </properties>
  </object>
  <object id="273" name="tree_round" type="solid" x="3119" y="272" width="34" height="32">
   <properties>
    <property name="worldX" type="float" value="3119"/>
    <property name="worldY" type="float" value="272"/>
    <property name="worldWidth" type="float" value="34"/>
    <property name="worldHeight" type="float" value="32"/>
   </properties>
  </object>
  <object id="274" name="tree_oak" type="solid" x="1455" y="-688" width="34" height="32">
   <properties>
    <property name="worldX" type="float" value="1455"/>
    <property name="worldY" type="float" value="-688"/>
    <property name="worldWidth" type="float" value="34"/>
    <property name="worldHeight" type="float" value="32"/>
   </properties>
  </object>
  <object id="275" name="tree_round" type="solid" x="3375" y="176" width="34" height="32">
   <properties>
    <property name="worldX" type="float" value="3375"/>
    <property name="worldY" type="float" value="176"/>
    <property name="worldWidth" type="float" value="34"/>
    <property name="worldHeight" type="float" value="32"/>
   </properties>
  </object>
  <object id="276" name="tree_oak" type="solid" x="1775" y="-752" width="34" height="32">
   <properties>
    <property name="worldX" type="float" value="1775"/>
    <property name="worldY" type="float" value="-752"/>
    <property name="worldWidth" type="float" value="34"/>
    <property name="worldHeight" type="float" value="32"/>
   </properties>
  </object>
  <object id="277" name="tree_pine" type="solid" x="3631" y="80" width="34" height="32">
   <properties>
    <property name="worldX" type="float" value="3631"/>
    <property name="worldY" type="float" value="80"/>
    <property name="worldWidth" type="float" value="34"/>
    <property name="worldHeight" type="float" value="32"/>
   </properties>
  </object>
  <object id="278" name="tree_oak" type="solid" x="1967" y="-880" width="34" height="32">
   <properties>
    <property name="worldX" type="float" value="1967"/>
    <property name="worldY" type="float" value="-880"/>
    <property name="worldWidth" type="float" value="34"/>
    <property name="worldHeight" type="float" value="32"/>
   </properties>
  </object>
  <object id="279" name="tree_round" type="solid" x="3887" y="-16" width="34" height="32">
   <properties>
    <property name="worldX" type="float" value="3887"/>
    <property name="worldY" type="float" value="-16"/>
    <property name="worldWidth" type="float" value="34"/>
    <property name="worldHeight" type="float" value="32"/>
   </properties>
  </object>
  <object id="280" name="tree_oak" type="solid" x="2159" y="-1008" width="34" height="32">
   <properties>
    <property name="worldX" type="float" value="2159"/>
    <property name="worldY" type="float" value="-1008"/>
    <property name="worldWidth" type="float" value="34"/>
    <property name="worldHeight" type="float" value="32"/>
   </properties>
  </object>
  <object id="281" name="tree_round" type="solid" x="4143" y="-112" width="34" height="32">
   <properties>
    <property name="worldX" type="float" value="4143"/>
    <property name="worldY" type="float" value="-112"/>
    <property name="worldWidth" type="float" value="34"/>
    <property name="worldHeight" type="float" value="32"/>
   </properties>
  </object>
  <object id="282" name="tree_oak" type="solid" x="2351" y="-1136" width="34" height="32">
   <properties>
    <property name="worldX" type="float" value="2351"/>
    <property name="worldY" type="float" value="-1136"/>
    <property name="worldWidth" type="float" value="34"/>
    <property name="worldHeight" type="float" value="32"/>
   </properties>
  </object>
  <object id="283" name="tree_pine" type="solid" x="4239" y="-288" width="34" height="32">
   <properties>
    <property name="worldX" type="float" value="4239"/>
    <property name="worldY" type="float" value="-288"/>
    <property name="worldWidth" type="float" value="34"/>
    <property name="worldHeight" type="float" value="32"/>
   </properties>
  </object>
  <object id="284" name="tree_oak" type="solid" x="2671" y="-1200" width="34" height="32">
   <properties>
    <property name="worldX" type="float" value="2671"/>
    <property name="worldY" type="float" value="-1200"/>
    <property name="worldWidth" type="float" value="34"/>
    <property name="worldHeight" type="float" value="32"/>
   </properties>
  </object>
  <object id="285" name="tree_round" type="solid" x="4495" y="-384" width="34" height="32">
   <properties>
    <property name="worldX" type="float" value="4495"/>
    <property name="worldY" type="float" value="-384"/>
    <property name="worldWidth" type="float" value="34"/>
    <property name="worldHeight" type="float" value="32"/>
   </properties>
  </object>
  <object id="286" name="tree_oak" type="solid" x="2863" y="-1328" width="34" height="32">
   <properties>
    <property name="worldX" type="float" value="2863"/>
    <property name="worldY" type="float" value="-1328"/>
    <property name="worldWidth" type="float" value="34"/>
    <property name="worldHeight" type="float" value="32"/>
   </properties>
  </object>
  <object id="287" name="tree_round" type="solid" x="4751" y="-480" width="34" height="32">
   <properties>
    <property name="worldX" type="float" value="4751"/>
    <property name="worldY" type="float" value="-480"/>
    <property name="worldWidth" type="float" value="34"/>
    <property name="worldHeight" type="float" value="32"/>
   </properties>
  </object>
  <object id="288" name="tree_oak" type="solid" x="3055" y="-1456" width="34" height="32">
   <properties>
    <property name="worldX" type="float" value="3055"/>
    <property name="worldY" type="float" value="-1456"/>
    <property name="worldWidth" type="float" value="34"/>
    <property name="worldHeight" type="float" value="32"/>
   </properties>
  </object>
  <object id="289" name="tree_pine" type="solid" x="5007" y="-576" width="34" height="32">
   <properties>
    <property name="worldX" type="float" value="5007"/>
    <property name="worldY" type="float" value="-576"/>
    <property name="worldWidth" type="float" value="34"/>
    <property name="worldHeight" type="float" value="32"/>
   </properties>
  </object>
  <object id="290" name="tree_oak" type="solid" x="3247" y="-1584" width="34" height="32">
   <properties>
    <property name="worldX" type="float" value="3247"/>
    <property name="worldY" type="float" value="-1584"/>
    <property name="worldWidth" type="float" value="34"/>
    <property name="worldHeight" type="float" value="32"/>
   </properties>
  </object>
  <object id="291" name="tree_round" type="solid" x="5263" y="-672" width="34" height="32">
   <properties>
    <property name="worldX" type="float" value="5263"/>
    <property name="worldY" type="float" value="-672"/>
    <property name="worldWidth" type="float" value="34"/>
    <property name="worldHeight" type="float" value="32"/>
   </properties>
  </object>
  <object id="292" name="tree_oak" type="solid" x="3567" y="-1648" width="34" height="32">
   <properties>
    <property name="worldX" type="float" value="3567"/>
    <property name="worldY" type="float" value="-1648"/>
    <property name="worldWidth" type="float" value="34"/>
    <property name="worldHeight" type="float" value="32"/>
   </properties>
  </object>
  <object id="293" name="tree_round" type="solid" x="5359" y="-848" width="34" height="32">
   <properties>
    <property name="worldX" type="float" value="5359"/>
    <property name="worldY" type="float" value="-848"/>
    <property name="worldWidth" type="float" value="34"/>
    <property name="worldHeight" type="float" value="32"/>
   </properties>
  </object>
  <object id="294" name="tree_oak" type="solid" x="3759" y="-1776" width="34" height="32">
   <properties>
    <property name="worldX" type="float" value="3759"/>
    <property name="worldY" type="float" value="-1776"/>
    <property name="worldWidth" type="float" value="34"/>
    <property name="worldHeight" type="float" value="32"/>
   </properties>
  </object>
  <object id="295" name="tree_pine" type="solid" x="5615" y="-944" width="34" height="32">
   <properties>
    <property name="worldX" type="float" value="5615"/>
    <property name="worldY" type="float" value="-944"/>
    <property name="worldWidth" type="float" value="34"/>
    <property name="worldHeight" type="float" value="32"/>
   </properties>
  </object>
  <object id="296" name="tree_oak" type="solid" x="3951" y="-1904" width="34" height="32">
   <properties>
    <property name="worldX" type="float" value="3951"/>
    <property name="worldY" type="float" value="-1904"/>
    <property name="worldWidth" type="float" value="34"/>
    <property name="worldHeight" type="float" value="32"/>
   </properties>
  </object>
  <object id="297" name="tree_round" type="solid" x="5871" y="-1040" width="34" height="32">
   <properties>
    <property name="worldX" type="float" value="5871"/>
    <property name="worldY" type="float" value="-1040"/>
    <property name="worldWidth" type="float" value="34"/>
    <property name="worldHeight" type="float" value="32"/>
   </properties>
  </object>
  <object id="298" name="tree_oak" type="solid" x="4143" y="-2032" width="34" height="32">
   <properties>
    <property name="worldX" type="float" value="4143"/>
    <property name="worldY" type="float" value="-2032"/>
    <property name="worldWidth" type="float" value="34"/>
    <property name="worldHeight" type="float" value="32"/>
   </properties>
  </object>
  <object id="299" name="tree_round" type="solid" x="6127" y="-1136" width="34" height="32">
   <properties>
    <property name="worldX" type="float" value="6127"/>
    <property name="worldY" type="float" value="-1136"/>
    <property name="worldWidth" type="float" value="34"/>
    <property name="worldHeight" type="float" value="32"/>
   </properties>
  </object>
  <object id="300" name="tree_oak" type="solid" x="4463" y="-2096" width="34" height="32">
   <properties>
    <property name="worldX" type="float" value="4463"/>
    <property name="worldY" type="float" value="-2096"/>
    <property name="worldWidth" type="float" value="34"/>
    <property name="worldHeight" type="float" value="32"/>
   </properties>
  </object>
  <object id="301" name="tree_pine" type="solid" x="6383" y="-1232" width="34" height="32">
   <properties>
    <property name="worldX" type="float" value="6383"/>
    <property name="worldY" type="float" value="-1232"/>
    <property name="worldWidth" type="float" value="34"/>
    <property name="worldHeight" type="float" value="32"/>
   </properties>
  </object>
  <object id="302" name="tree_oak" type="solid" x="4655" y="-2224" width="34" height="32">
   <properties>
    <property name="worldX" type="float" value="4655"/>
    <property name="worldY" type="float" value="-2224"/>
    <property name="worldWidth" type="float" value="34"/>
    <property name="worldHeight" type="float" value="32"/>
   </properties>
  </object>
  <object id="303" name="tree_round" type="solid" x="6479" y="-1408" width="34" height="32">
   <properties>
    <property name="worldX" type="float" value="6479"/>
    <property name="worldY" type="float" value="-1408"/>
    <property name="worldWidth" type="float" value="34"/>
    <property name="worldHeight" type="float" value="32"/>
   </properties>
  </object>
  <object id="304" name="tree_oak" type="solid" x="4847" y="-2352" width="34" height="32">
   <properties>
    <property name="worldX" type="float" value="4847"/>
    <property name="worldY" type="float" value="-2352"/>
    <property name="worldWidth" type="float" value="34"/>
    <property name="worldHeight" type="float" value="32"/>
   </properties>
  </object>
  <object id="305" name="tree_round" type="solid" x="6735" y="-1504" width="34" height="32">
   <properties>
    <property name="worldX" type="float" value="6735"/>
    <property name="worldY" type="float" value="-1504"/>
    <property name="worldWidth" type="float" value="34"/>
    <property name="worldHeight" type="float" value="32"/>
   </properties>
  </object>
  <object id="306" name="tree_oak" type="solid" x="5039" y="-2480" width="34" height="32">
   <properties>
    <property name="worldX" type="float" value="5039"/>
    <property name="worldY" type="float" value="-2480"/>
    <property name="worldWidth" type="float" value="34"/>
    <property name="worldHeight" type="float" value="32"/>
   </properties>
  </object>
  <object id="307" name="tree_pine" type="solid" x="6991" y="-1600" width="34" height="32">
   <properties>
    <property name="worldX" type="float" value="6991"/>
    <property name="worldY" type="float" value="-1600"/>
    <property name="worldWidth" type="float" value="34"/>
    <property name="worldHeight" type="float" value="32"/>
   </properties>
  </object>
  <object id="308" name="tree_oak" type="solid" x="5359" y="-2544" width="34" height="32">
   <properties>
    <property name="worldX" type="float" value="5359"/>
    <property name="worldY" type="float" value="-2544"/>
    <property name="worldWidth" type="float" value="34"/>
    <property name="worldHeight" type="float" value="32"/>
   </properties>
  </object>
  <object id="309" name="tree_round" type="solid" x="7247" y="-1696" width="34" height="32">
   <properties>
    <property name="worldX" type="float" value="7247"/>
    <property name="worldY" type="float" value="-1696"/>
    <property name="worldWidth" type="float" value="34"/>
    <property name="worldHeight" type="float" value="32"/>
   </properties>
  </object>
  <object id="310" name="tree_oak" type="solid" x="5551" y="-2672" width="34" height="32">
   <properties>
    <property name="worldX" type="float" value="5551"/>
    <property name="worldY" type="float" value="-2672"/>
    <property name="worldWidth" type="float" value="34"/>
    <property name="worldHeight" type="float" value="32"/>
   </properties>
  </object>
  <object id="311" name="tree_round" type="solid" x="7503" y="-1792" width="34" height="32">
   <properties>
    <property name="worldX" type="float" value="7503"/>
    <property name="worldY" type="float" value="-1792"/>
    <property name="worldWidth" type="float" value="34"/>
    <property name="worldHeight" type="float" value="32"/>
   </properties>
  </object>
  <object id="312" name="tree_oak" type="solid" x="5743" y="-2800" width="34" height="32">
   <properties>
    <property name="worldX" type="float" value="5743"/>
    <property name="worldY" type="float" value="-2800"/>
    <property name="worldWidth" type="float" value="34"/>
    <property name="worldHeight" type="float" value="32"/>
   </properties>
  </object>
  <object id="313" name="roof_corner" type="solid" x="2885" y="-326" width="54" height="44">
   <properties>
    <property name="worldX" type="float" value="2885"/>
    <property name="worldY" type="float" value="-326"/>
    <property name="worldWidth" type="float" value="54"/>
    <property name="worldHeight" type="float" value="44"/>
   </properties>
  </object>
  <object id="314" name="roof" type="solid" x="2917" y="-342" width="54" height="44">
   <properties>
    <property name="worldX" type="float" value="2917"/>
    <property name="worldY" type="float" value="-342"/>
    <property name="worldWidth" type="float" value="54"/>
    <property name="worldHeight" type="float" value="44"/>
   </properties>
  </object>
  <object id="315" name="roof" type="solid" x="2949" y="-358" width="54" height="44">
   <properties>
    <property name="worldX" type="float" value="2949"/>
    <property name="worldY" type="float" value="-358"/>
    <property name="worldWidth" type="float" value="54"/>
    <property name="worldHeight" type="float" value="44"/>
   </properties>
  </object>
  <object id="316" name="wall_window" type="solid" x="2917" y="-310" width="54" height="44">
   <properties>
    <property name="worldX" type="float" value="2917"/>
    <property name="worldY" type="float" value="-310"/>
    <property name="worldWidth" type="float" value="54"/>
    <property name="worldHeight" type="float" value="44"/>
   </properties>
  </object>
  <object id="317" name="wall" type="solid" x="2949" y="-326" width="54" height="44">
   <properties>
    <property name="worldX" type="float" value="2949"/>
    <property name="worldY" type="float" value="-326"/>
    <property name="worldWidth" type="float" value="54"/>
    <property name="worldHeight" type="float" value="44"/>
   </properties>
  </object>
  <object id="318" name="wall_door" type="solid" x="2981" y="-342" width="54" height="44">
   <properties>
    <property name="worldX" type="float" value="2981"/>
    <property name="worldY" type="float" value="-342"/>
    <property name="worldWidth" type="float" value="54"/>
    <property name="worldHeight" type="float" value="44"/>
   </properties>
  </object>
  <object id="319" name="hay_bales" type="solid" x="2955" y="-289" width="42" height="34">
   <properties>
    <property name="worldX" type="float" value="2955"/>
    <property name="worldY" type="float" value="-289"/>
    <property name="worldWidth" type="float" value="42"/>
    <property name="worldHeight" type="float" value="34"/>
   </properties>
  </object>
  <object id="320" name="sacks_crate" type="solid" x="2987" y="-305" width="42" height="34">
   <properties>
    <property name="worldX" type="float" value="2987"/>
    <property name="worldY" type="float" value="-305"/>
    <property name="worldWidth" type="float" value="42"/>
    <property name="worldHeight" type="float" value="34"/>
   </properties>
  </object>
  <object id="321" name="chimney" type="solid" x="3019" y="-321" width="42" height="34">
   <properties>
    <property name="worldX" type="float" value="3019"/>
    <property name="worldY" type="float" value="-321"/>
    <property name="worldWidth" type="float" value="42"/>
    <property name="worldHeight" type="float" value="34"/>
   </properties>
  </object>
  <object id="322" name="roof_corner" type="solid" x="4197" y="-1718" width="54" height="44">
   <properties>
    <property name="worldX" type="float" value="4197"/>
    <property name="worldY" type="float" value="-1718"/>
    <property name="worldWidth" type="float" value="54"/>
    <property name="worldHeight" type="float" value="44"/>
   </properties>
  </object>
  <object id="323" name="roof" type="solid" x="4229" y="-1734" width="54" height="44">
   <properties>
    <property name="worldX" type="float" value="4229"/>
    <property name="worldY" type="float" value="-1734"/>
    <property name="worldWidth" type="float" value="54"/>
    <property name="worldHeight" type="float" value="44"/>
   </properties>
  </object>
  <object id="324" name="roof" type="solid" x="4261" y="-1750" width="54" height="44">
   <properties>
    <property name="worldX" type="float" value="4261"/>
    <property name="worldY" type="float" value="-1750"/>
    <property name="worldWidth" type="float" value="54"/>
    <property name="worldHeight" type="float" value="44"/>
   </properties>
  </object>
  <object id="325" name="wall_window" type="solid" x="4229" y="-1702" width="54" height="44">
   <properties>
    <property name="worldX" type="float" value="4229"/>
    <property name="worldY" type="float" value="-1702"/>
    <property name="worldWidth" type="float" value="54"/>
    <property name="worldHeight" type="float" value="44"/>
   </properties>
  </object>
  <object id="326" name="wall" type="solid" x="4261" y="-1718" width="54" height="44">
   <properties>
    <property name="worldX" type="float" value="4261"/>
    <property name="worldY" type="float" value="-1718"/>
    <property name="worldWidth" type="float" value="54"/>
    <property name="worldHeight" type="float" value="44"/>
   </properties>
  </object>
  <object id="327" name="wall_door" type="solid" x="4293" y="-1734" width="54" height="44">
   <properties>
    <property name="worldX" type="float" value="4293"/>
    <property name="worldY" type="float" value="-1734"/>
    <property name="worldWidth" type="float" value="54"/>
    <property name="worldHeight" type="float" value="44"/>
   </properties>
  </object>
  <object id="328" name="hay_bales" type="solid" x="4267" y="-1681" width="42" height="34">
   <properties>
    <property name="worldX" type="float" value="4267"/>
    <property name="worldY" type="float" value="-1681"/>
    <property name="worldWidth" type="float" value="42"/>
    <property name="worldHeight" type="float" value="34"/>
   </properties>
  </object>
  <object id="329" name="sacks_crate" type="solid" x="4299" y="-1697" width="42" height="34">
   <properties>
    <property name="worldX" type="float" value="4299"/>
    <property name="worldY" type="float" value="-1697"/>
    <property name="worldWidth" type="float" value="42"/>
    <property name="worldHeight" type="float" value="34"/>
   </properties>
  </object>
  <object id="330" name="chimney" type="solid" x="4331" y="-1713" width="42" height="34">
   <properties>
    <property name="worldX" type="float" value="4331"/>
    <property name="worldY" type="float" value="-1713"/>
    <property name="worldWidth" type="float" value="42"/>
    <property name="worldHeight" type="float" value="34"/>
   </properties>
  </object>
  <object id="331" name="roof_corner" type="solid" x="5893" y="-1958" width="54" height="44">
   <properties>
    <property name="worldX" type="float" value="5893"/>
    <property name="worldY" type="float" value="-1958"/>
    <property name="worldWidth" type="float" value="54"/>
    <property name="worldHeight" type="float" value="44"/>
   </properties>
  </object>
  <object id="332" name="roof" type="solid" x="5925" y="-1974" width="54" height="44">
   <properties>
    <property name="worldX" type="float" value="5925"/>
    <property name="worldY" type="float" value="-1974"/>
    <property name="worldWidth" type="float" value="54"/>
    <property name="worldHeight" type="float" value="44"/>
   </properties>
  </object>
  <object id="333" name="roof" type="solid" x="5957" y="-1990" width="54" height="44">
   <properties>
    <property name="worldX" type="float" value="5957"/>
    <property name="worldY" type="float" value="-1990"/>
    <property name="worldWidth" type="float" value="54"/>
    <property name="worldHeight" type="float" value="44"/>
   </properties>
  </object>
  <object id="334" name="wall_window" type="solid" x="5925" y="-1942" width="54" height="44">
   <properties>
    <property name="worldX" type="float" value="5925"/>
    <property name="worldY" type="float" value="-1942"/>
    <property name="worldWidth" type="float" value="54"/>
    <property name="worldHeight" type="float" value="44"/>
   </properties>
  </object>
  <object id="335" name="wall" type="solid" x="5957" y="-1958" width="54" height="44">
   <properties>
    <property name="worldX" type="float" value="5957"/>
    <property name="worldY" type="float" value="-1958"/>
    <property name="worldWidth" type="float" value="54"/>
    <property name="worldHeight" type="float" value="44"/>
   </properties>
  </object>
  <object id="336" name="wall_door" type="solid" x="5989" y="-1974" width="54" height="44">
   <properties>
    <property name="worldX" type="float" value="5989"/>
    <property name="worldY" type="float" value="-1974"/>
    <property name="worldWidth" type="float" value="54"/>
    <property name="worldHeight" type="float" value="44"/>
   </properties>
  </object>
  <object id="337" name="hay_bales" type="solid" x="5963" y="-1921" width="42" height="34">
   <properties>
    <property name="worldX" type="float" value="5963"/>
    <property name="worldY" type="float" value="-1921"/>
    <property name="worldWidth" type="float" value="42"/>
    <property name="worldHeight" type="float" value="34"/>
   </properties>
  </object>
  <object id="338" name="sacks_crate" type="solid" x="5995" y="-1937" width="42" height="34">
   <properties>
    <property name="worldX" type="float" value="5995"/>
    <property name="worldY" type="float" value="-1937"/>
    <property name="worldWidth" type="float" value="42"/>
    <property name="worldHeight" type="float" value="34"/>
   </properties>
  </object>
  <object id="339" name="chimney" type="solid" x="6027" y="-1953" width="42" height="34">
   <properties>
    <property name="worldX" type="float" value="6027"/>
    <property name="worldY" type="float" value="-1953"/>
    <property name="worldWidth" type="float" value="42"/>
    <property name="worldHeight" type="float" value="34"/>
   </properties>
  </object>
  <object id="340" name="north_bound" type="boundary" x="0" y="1120" width="7808" height="32">
   <properties>
    <property name="worldX" type="float" value="0"/>
    <property name="worldY" type="float" value="1120"/>
    <property name="worldWidth" type="float" value="7808"/>
    <property name="worldHeight" type="float" value="32"/>
   </properties>
  </object>
  <object id="341" name="south_bound" type="boundary" x="0" y="-2912" width="7808" height="32">
   <properties>
    <property name="worldX" type="float" value="0"/>
    <property name="worldY" type="float" value="-2912"/>
    <property name="worldWidth" type="float" value="7808"/>
    <property name="worldHeight" type="float" value="32"/>
   </properties>
  </object>
  <object id="342" name="west_bound" type="boundary" x="-32" y="-2880" width="32" height="4000">
   <properties>
    <property name="worldX" type="float" value="-32"/>
    <property name="worldY" type="float" value="-2880"/>
    <property name="worldWidth" type="float" value="32"/>
    <property name="worldHeight" type="float" value="4000"/>
   </properties>
  </object>
  <object id="343" name="east_bound" type="boundary" x="7808" y="-2880" width="32" height="4000">
   <properties>
    <property name="worldX" type="float" value="7808"/>
    <property name="worldY" type="float" value="-2880"/>
    <property name="worldWidth" type="float" value="32"/>
    <property name="worldHeight" type="float" value="4000"/>
   </properties>
  </object>
 </objectgroup>
</map>
