<?xml version="1.0" encoding="UTF-8"?>
<map version="1.10" tiledversion="1.11.0" orientation="isometric" renderorder="right-down" width="64" height="40" tilewidth="64" tileheight="32" infinite="0" nextlayerid="11" nextobjectid="39">
 <properties>
  <property name="level_id" value="level_01_countryside_crash"/>
  <property name="mood" value="rural alien crash site"/>
  <property name="recommended_spawn" value="player_spawn"/>
 </properties>
 <tileset firstgid="1" name="level01_ground" tilewidth="64" tileheight="32" tilecount="32" columns="8">
  <image source="level01_ground_tiles.png" width="512" height="128"/>
 </tileset>
 <tileset firstgid="33" name="level01_props" tilewidth="128" tileheight="128" tilecount="16" columns="4">
  <tileoffset x="-32" y="-96"/>
  <tile id="0" type="wheat_dense"><properties><property name="collidable" type="bool" value="false"/></properties></tile>
  <tile id="1" type="corn_tall"><properties><property name="collidable" type="bool" value="false"/></properties></tile>
  <tile id="2" type="crop_trampled"><properties><property name="collidable" type="bool" value="false"/></properties></tile>
  <tile id="3" type="grass_tuft"><properties><property name="collidable" type="bool" value="false"/></properties></tile>
  <tile id="4" type="scorch_patch"><properties><property name="collidable" type="bool" value="false"/></properties></tile>
  <tile id="5" type="rocks"><properties><property name="collidable" type="bool" value="true"/></properties></tile>
  <tile id="6" type="broken_fence"><properties><property name="collidable" type="bool" value="true"/></properties></tile>
  <tile id="7" type="alien_shard_large"><properties><property name="collidable" type="bool" value="true"/></properties></tile>
  <tile id="8" type="alien_shard_small"><properties><property name="collidable" type="bool" value="true"/></properties></tile>
  <tile id="9" type="glow_crystal"><properties><property name="collidable" type="bool" value="true"/></properties></tile>
  <tile id="10" type="energy_puddle"><properties><property name="collidable" type="bool" value="false"/></properties></tile>
  <tile id="11" type="hay_bale"><properties><property name="collidable" type="bool" value="true"/></properties></tile>
  <tile id="12" type="signpost"><properties><property name="collidable" type="bool" value="true"/></properties></tile>
  <tile id="13" type="metal_shard_marker"><properties><property name="collidable" type="bool" value="true"/></properties></tile>
  <tile id="14" type="wheat_low"><properties><property name="collidable" type="bool" value="false"/></properties></tile>
  <tile id="15" type="corn_low"><properties><property name="collidable" type="bool" value="false"/></properties></tile>
  <image source="level01_props.png" width="512" height="512"/>
 </tileset>
 <tileset firstgid="49" name="level01_crash_ship" tilewidth="512" tileheight="320" tilecount="1" columns="1">
  <tileoffset x="-224" y="-288"/>
  <tile id="0" type="crash_ship"/>
  <image source="level01_crash_ship.png" width="512" height="320"/>
 </tileset>
 <layer id="1" name="Ground_Base" width="64" height="40" visible="1">
  <data encoding="csv">
2,1,6,2,1,1,1,1,2,2,1,3,1,6,3,1,1,1,1,2,1,3,1,1,1,1,1,1,1,1,1,1,1,3,1,1,1,1,1,1,1,3,1,1,1,1,1,1,1,1,1,1,2,1,1,1,1,1,1,1,1,1,3,1,
1,1,1,1,1,1,1,1,6,1,2,1,1,1,3,1,3,1,3,1,1,1,6,1,1,1,1,1,6,1,6,2,1,1,1,6,1,1,1,1,1,1,1,1,1,1,1,1,6,1,1,1,1,1,2,1,1,1,6,3,1,1,6,2,
1,1,2,1,1,1,1,1,1,3,1,1,1,1,1,1,1,1,1,1,2,1,3,1,1,1,1,1,1,1,3,1,2,2,1,1,2,2,2,1,1,1,1,1,1,1,6,1,1,1,1,2,3,6,1,1,2,2,1,1,1,1,1,1,
1,1,2,1,1,1,6,1,1,1,1,6,1,1,2,1,1,1,1,1,1,1,3,1,1,1,1,23,24,21,22,23,24,21,22,23,1,6,1,1,1,1,1,2,1,1,1,1,1,1,1,2,1,1,1,1,1,1,2,1,2,1,2,1,
1,1,6,2,2,22,23,24,21,22,23,24,21,22,23,24,21,22,23,24,1,6,1,1,1,1,6,24,21,22,23,24,21,22,23,24,1,1,1,2,1,1,1,1,1,1,1,2,1,2,1,2,3,1,6,1,3,2,1,1,1,1,1,1,
2,1,1,1,3,23,24,21,22,23,24,21,22,23,24,21,22,23,24,21,2,3,1,2,1,1,1,21,22,23,24,21,22,23,24,21,1,1,1,3,1,6,24,21,22,23,24,21,22,23,24,21,22,23,24,21,22,23,1,1,1,3,1,2,
1,1,1,1,1,24,21,22,23,24,21,22,23,24,21,22,23,24,21,22,1,1,1,1,1,2,1,22,23,24,21,22,23,24,21,22,1,3,1,1,2,1,21,22,23,24,21,22,23,24,21,22,23,24,21,22,23,24,1,1,1,1,2,3,
6,3,1,1,1,21,22,23,24,21,22,23,24,21,22,23,24,21,22,23,1,1,1,2,1,2,1,23,24,21,22,23,24,21,22,23,6,6,1,1,1,1,22,23,24,21,22,23,24,21,22,23,24,21,22,23,24,21,1,1,3,1,3,2,
1,1,1,1,1,22,23,24,21,22,23,24,21,22,23,24,21,22,23,24,2,1,1,1,1,1,1,24,21,22,23,24,21,22,23,24,1,1,1,1,1,1,23,24,21,22,23,24,21,22,23,24,21,22,23,24,21,22,1,1,1,2,1,1,
1,1,3,3,1,23,24,21,22,23,24,21,22,23,24,21,22,23,24,21,3,1,1,2,1,1,1,21,22,23,24,21,22,23,24,21,6,1,1,1,6,1,24,21,22,23,24,21,22,23,24,21,22,23,24,21,22,23,1,1,1,1,1,1,
1,2,1,1,1,24,21,22,23,24,21,22,23,24,21,22,23,24,21,22,1,1,1,1,1,1,3,22,23,24,21,22,23,24,21,22,2,1,1,1,1,3,21,22,23,24,21,22,23,24,21,22,23,24,21,22,23,24,1,3,1,1,1,1,
1,1,1,6,1,21,22,23,24,21,22,23,24,21,22,23,24,21,22,23,3,1,3,1,1,2,1,1,3,1,1,2,1,1,2,1,1,1,1,1,2,1,22,23,24,21,22,23,24,21,22,23,24,21,22,23,24,21,1,3,1,1,3,1,
1,1,1,3,1,22,23,24,21,22,23,24,21,22,23,24,21,22,23,24,1,1,2,1,6,1,1,3,1,1,1,1,1,1,1,1,1,1,1,1,1,2,23,24,21,22,23,24,21,22,23,24,21,22,23,24,21,22,1,1,2,1,2,1,
1,6,1,1,1,23,24,21,22,23,24,21,22,23,24,21,22,23,24,21,1,1,1,1,1,1,1,1,3,1,2,1,1,3,1,1,1,1,1,6,1,3,24,21,22,23,24,21,22,23,24,21,22,23,24,21,22,23,1,2,1,3,3,1,
1,1,1,1,1,1,1,2,1,1,1,1,1,1,1,1,1,1,3,1,1,1,1,1,1,1,1,1,1,1,1,1,1,1,1,1,1,6,3,2,2,1,1,1,1,1,1,1,1,1,1,1,2,1,2,1,1,1,1,1,3,1,1,1,
3,1,1,1,1,1,1,1,1,6,6,1,1,1,1,6,2,1,1,1,1,6,2,1,3,1,1,1,1,1,1,1,1,1,1,1,3,1,1,1,1,1,2,1,1,1,1,6,1,6,1,1,1,1,1,6,2,1,1,1,1,1,1,1,
1,1,1,1,1,1,2,1,2,3,1,1,2,1,1,1,1,3,1,1,1,1,1,1,1,2,1,2,1,1,1,1,2,6,1,2,1,1,1,1,1,1,1,1,1,2,1,3,3,1,1,1,1,3,1,3,1,1,1,1,6,1,3,3,
1,1,3,1,1,1,3,1,6,1,1,1,2,3,1,1,3,1,1,1,2,1,1,3,1,1,1,1,1,1,1,6,1,2,1,6,1,2,1,1,1,6,1,1,1,2,1,1,6,1,3,1,3,1,1,3,1,1,2,6,3,1,3,1,
1,6,1,1,1,1,1,2,2,1,1,1,1,2,1,1,1,1,6,1,1,1,1,1,1,1,1,6,1,1,1,1,1,1,1,1,2,1,1,1,1,6,2,6,1,1,1,3,1,1,1,1,1,1,3,1,2,1,1,3,3,1,1,1,
1,1,2,1,1,1,1,1,1,6,1,1,1,1,3,1,1,1,2,3,1,1,1,1,1,1,1,1,1,1,1,1,2,1,1,1,1,6,1,3,1,3,1,1,1,3,6,1,1,1,2,1,1,2,1,1,2,1,3,2,1,2,1,1,
1,1,1,1,2,1,1,2,1,3,2,1,1,1,1,2,1,1,1,3,1,1,1,1,3,1,1,1,1,1,1,1,1,1,1,1,2,1,1,2,1,2,1,1,1,1,1,1,1,1,1,1,1,1,2,1,1,2,1,1,1,1,1,2,
2,6,1,1,2,1,2,1,1,3,1,1,1,1,2,1,1,2,1,6,1,1,1,1,1,1,1,1,1,1,1,2,1,3,1,1,6,1,2,1,1,1,1,1,2,1,1,1,1,1,2,1,2,1,1,1,3,1,1,1,1,1,1,1,
2,1,2,1,1,6,1,1,1,1,1,1,1,1,1,1,1,1,1,1,2,1,2,1,2,1,1,1,1,1,6,1,1,1,3,1,6,1,3,1,1,1,1,1,2,1,6,1,2,3,1,6,2,1,2,1,1,3,3,1,1,2,1,1,
6,1,1,1,3,1,1,1,1,1,1,1,3,1,1,1,1,1,1,3,1,1,1,1,1,1,3,2,1,3,1,1,1,1,1,1,1,1,2,1,1,1,1,2,1,6,3,1,1,1,1,1,1,1,1,3,1,6,1,2,1,1,1,3,
2,1,2,1,1,1,1,1,3,1,1,6,1,1,1,1,2,1,2,1,1,1,1,1,1,1,1,1,1,1,1,1,1,1,3,1,1,1,1,1,2,1,1,1,1,1,1,1,1,2,1,1,3,1,1,1,1,1,1,1,6,3,6,3,
1,6,1,1,1,1,1,1,1,1,1,1,1,1,1,1,1,1,2,6,1,1,1,1,1,1,6,6,1,1,3,1,2,1,3,6,1,1,3,1,3,2,1,1,1,1,1,2,1,1,1,1,1,1,1,1,1,1,1,3,6,3,1,1,
1,6,1,1,1,1,1,2,3,24,21,22,23,24,21,22,23,24,21,22,23,24,21,22,23,1,1,2,1,1,1,1,1,1,1,3,1,1,1,1,1,1,2,1,23,24,21,22,23,24,21,22,23,24,21,22,23,1,1,1,1,1,1,2,
1,3,1,1,1,1,1,6,1,21,22,23,24,21,22,23,24,21,22,23,24,21,22,23,24,1,1,3,1,1,1,2,1,1,1,1,6,1,1,1,1,1,1,1,24,21,22,23,24,21,22,23,24,21,22,23,24,6,1,1,1,1,1,1,
3,1,1,3,1,2,2,1,1,22,23,24,21,22,23,24,21,22,23,24,21,22,23,24,21,2,3,1,1,1,1,2,6,1,1,1,1,1,1,6,2,1,1,1,21,22,23,24,21,22,23,24,21,22,23,24,21,1,1,1,1,1,1,1,
1,3,2,1,1,1,1,6,2,23,24,21,22,23,24,21,22,23,24,21,22,23,24,21,22,1,1,1,1,1,2,2,1,1,2,1,1,2,1,1,1,1,1,1,22,23,24,21,22,23,24,21,22,23,24,21,22,2,1,1,1,1,1,1,
1,6,1,1,1,1,1,1,1,24,21,22,23,24,21,22,23,24,21,22,23,24,21,22,23,1,6,1,1,1,2,3,3,1,1,1,1,6,1,1,1,1,1,1,23,24,21,22,23,24,21,22,23,24,21,22,23,6,1,1,1,1,1,1,
1,1,1,1,1,1,1,1,1,21,22,23,24,21,22,23,24,21,22,23,24,21,22,23,24,1,2,6,1,2,1,1,2,1,1,1,1,1,1,3,1,1,2,1,24,21,22,23,24,21,22,23,24,21,22,23,24,3,1,1,1,3,1,1,
1,1,3,1,1,1,1,3,2,22,23,24,21,22,23,24,21,22,23,24,21,22,23,24,21,1,1,1,3,6,1,1,1,2,3,1,1,1,1,1,1,1,2,1,21,22,23,24,21,22,23,24,21,22,23,24,21,1,1,3,2,1,1,3,
3,2,1,1,1,1,3,1,1,23,24,21,22,23,24,21,22,23,24,21,22,23,24,21,22,3,1,1,6,3,1,1,6,1,1,1,1,1,1,1,1,1,1,1,22,23,24,21,22,23,24,21,22,23,24,21,22,1,1,1,1,1,1,1,
1,1,1,2,1,1,2,1,1,3,1,1,1,3,1,1,1,1,1,1,1,1,1,1,1,6,2,1,1,1,1,1,1,1,1,6,1,1,1,2,1,1,1,1,3,1,1,6,1,1,1,3,1,1,6,1,1,1,1,1,1,1,3,2,
2,2,6,1,1,1,1,1,1,1,3,1,1,2,1,1,1,2,1,1,1,2,1,1,6,1,1,3,3,1,2,1,1,1,1,1,3,1,1,3,2,1,1,1,1,1,2,1,1,1,1,1,1,3,1,2,6,3,1,3,3,1,2,2,
1,3,1,1,3,1,1,2,2,1,1,6,1,1,1,1,2,1,1,6,3,1,3,1,1,1,1,1,1,1,1,1,1,1,1,1,1,1,2,1,1,1,1,1,6,1,3,1,1,1,6,1,1,1,2,3,6,1,1,1,1,1,1,1,
1,1,6,1,1,1,2,1,1,1,1,1,3,1,3,1,1,1,1,1,1,1,1,1,1,1,1,3,1,1,1,1,1,2,1,2,2,1,1,1,1,6,1,1,1,1,2,1,2,1,1,1,1,1,2,1,1,1,1,1,1,1,1,1,
1,1,1,2,3,1,1,1,1,1,1,1,1,3,2,1,1,1,1,2,1,1,1,6,1,1,1,1,1,1,6,2,1,1,1,1,1,1,1,1,1,1,3,1,1,1,1,1,1,3,1,3,1,1,2,1,1,1,1,3,1,1,2,1,
1,3,1,1,1,1,1,1,1,1,1,1,1,1,1,1,1,1,2,1,1,2,1,1,3,1,1,1,1,1,2,1,2,1,3,6,1,1,3,1,1,1,1,1,6,1,1,1,1,1,1,1,1,3,1,1,3,6,1,1,1,1,2,1
  </data>
 </layer>
 <layer id="2" name="Ground_Variation" width="64" height="40" visible="1">
  <data encoding="csv">
0,11,0,0,0,0,0,0,0,0,0,0,0,0,0,0,0,10,0,0,0,0,0,0,0,0,12,0,0,0,0,0,0,0,0,9,0,0,0,0,0,0,0,0,9,0,0,0,0,0,0,0,0,10,0,0,0,0,0,0,0,0,0,0,
0,0,0,0,0,0,0,0,0,0,0,0,0,0,0,10,0,0,0,0,0,0,0,0,0,11,0,0,0,0,0,0,0,0,0,0,0,0,0,9,0,0,9,0,0,0,0,0,0,0,0,0,0,0,0,0,0,0,0,0,0,0,0,0,
0,0,0,0,0,0,0,0,0,0,0,0,0,0,10,12,0,12,0,0,0,0,0,0,0,0,0,0,0,0,0,0,0,0,0,0,0,0,0,0,0,0,0,0,0,0,0,0,0,0,0,0,0,0,0,0,0,0,0,0,0,0,0,0,
0,10,0,0,0,0,0,0,12,0,10,0,0,0,0,0,0,0,0,0,0,0,0,10,0,0,0,28,0,0,0,10,0,26,0,10,0,0,9,0,0,9,0,0,0,0,11,0,0,10,0,0,0,11,0,0,0,0,0,0,0,9,0,0,
0,0,0,0,0,10,11,0,25,0,0,0,0,0,27,0,0,0,0,0,9,0,0,10,0,0,0,0,0,0,0,0,25,0,0,0,0,0,12,0,0,9,0,0,0,0,0,0,0,0,0,0,0,0,0,0,0,0,0,0,0,0,0,0,
0,0,10,0,0,0,11,28,0,0,0,12,0,26,0,0,0,0,0,28,0,0,0,0,0,0,0,0,0,0,0,28,0,0,0,0,0,0,0,0,0,0,0,28,0,0,0,0,0,26,0,0,0,0,0,28,0,0,0,0,0,0,0,0,
0,0,0,0,0,9,27,0,0,0,0,0,25,0,0,0,11,0,27,0,11,0,0,0,0,0,0,0,0,0,27,0,0,0,0,0,0,0,0,0,0,0,27,0,0,0,0,0,25,0,0,0,0,0,27,0,0,0,0,0,0,0,0,0,
0,0,0,11,0,26,0,0,0,0,0,28,0,0,9,0,10,26,0,0,11,0,0,0,0,0,0,0,0,26,0,0,0,0,0,28,0,0,0,0,0,0,9,0,0,0,0,28,0,0,0,0,0,26,0,10,0,0,0,0,0,0,0,0,
0,0,0,0,0,0,0,0,0,0,27,0,0,0,0,0,25,0,0,0,0,0,0,0,0,10,0,0,25,0,0,0,0,0,27,0,11,0,0,0,0,0,0,0,0,0,27,0,0,9,0,0,25,0,9,0,0,12,0,0,0,0,11,0,
0,10,0,0,0,0,0,0,0,26,0,0,0,0,0,28,0,0,0,0,0,0,0,0,0,0,0,28,0,0,0,0,0,26,0,0,0,0,0,0,0,0,0,0,9,26,0,0,9,12,0,28,0,0,0,0,0,26,0,0,0,0,0,0,
0,0,0,0,0,0,0,0,25,0,0,0,0,0,27,0,0,10,0,0,0,0,0,0,0,0,0,0,0,0,10,0,25,0,0,0,0,0,0,0,0,0,0,0,25,0,0,0,0,0,27,0,0,0,0,12,25,0,0,0,0,0,0,0,
0,0,0,0,0,0,0,28,0,0,0,0,0,26,0,0,0,0,0,28,0,0,0,0,0,0,0,0,0,0,0,27,9,25,0,27,0,25,0,27,0,25,0,28,11,0,0,0,0,26,0,0,0,0,0,28,0,0,0,0,0,0,0,0,
0,0,0,0,0,0,27,0,0,0,0,0,25,0,0,0,0,0,27,0,0,0,0,0,0,0,0,0,25,0,27,0,0,0,0,0,0,0,0,0,0,0,27,0,0,0,0,0,25,0,0,10,0,0,27,0,0,0,0,0,0,0,0,0,
0,0,0,0,0,26,0,0,0,0,0,28,0,0,0,9,0,26,0,0,0,0,0,0,0,0,0,25,0,0,0,0,0,0,0,9,0,0,0,0,0,0,11,25,0,0,0,28,0,0,0,0,9,26,0,0,0,10,0,0,0,0,0,0,
0,0,0,0,0,0,0,0,0,0,0,0,0,0,0,0,0,0,0,0,0,9,0,0,0,0,25,0,0,0,0,0,0,0,31,9,0,29,0,0,0,0,0,0,27,0,11,0,0,0,11,0,0,0,0,0,10,0,0,10,0,0,0,11,
0,0,0,10,12,0,0,0,0,0,0,0,0,0,0,0,0,0,0,0,0,0,0,0,0,0,0,0,0,0,0,12,0,30,0,0,32,0,0,30,0,0,0,0,11,25,0,0,0,0,0,0,0,0,0,0,0,0,0,0,0,0,0,0,
0,0,0,0,0,9,0,0,0,0,0,0,0,0,0,0,0,0,0,0,0,0,0,0,0,0,0,0,0,0,9,0,29,0,0,31,9,0,29,0,0,31,0,0,0,0,0,0,0,0,0,0,0,0,0,0,0,0,0,12,0,0,0,0,
11,0,0,0,0,0,0,0,0,0,0,0,0,0,0,0,0,0,0,0,0,0,0,0,0,0,0,0,0,0,0,32,0,0,30,0,0,32,0,0,30,0,0,12,0,0,0,0,0,0,0,0,0,0,9,0,0,0,0,0,0,0,0,0,
0,0,0,12,0,0,0,0,0,0,0,0,0,0,0,0,0,0,0,0,0,0,0,0,9,0,0,0,0,0,31,12,0,29,0,12,31,0,0,29,0,0,31,0,0,0,0,0,0,0,0,0,0,0,0,0,0,0,10,0,0,0,0,0,
0,0,0,10,0,0,0,0,0,0,0,0,0,0,0,0,0,0,0,0,11,0,0,0,0,0,0,0,9,30,0,0,32,0,0,30,9,0,32,0,0,30,0,0,11,0,0,0,0,0,0,0,0,0,0,9,0,0,0,0,0,0,0,0,
0,0,0,0,0,0,0,0,0,0,0,9,0,0,0,0,0,0,12,0,0,0,0,0,0,0,0,0,10,0,0,31,0,10,29,0,0,31,0,0,29,0,0,0,0,0,0,0,0,11,0,0,0,10,0,0,0,0,0,0,0,0,0,0,
0,0,0,0,0,0,0,0,0,0,0,9,0,0,0,0,0,0,0,0,0,0,0,0,0,0,0,0,0,0,0,0,0,32,12,0,30,0,0,32,0,0,0,0,0,27,0,0,0,9,0,0,0,0,0,0,0,0,0,0,9,0,0,0,
0,0,0,0,0,0,0,0,0,0,0,0,0,0,0,0,0,0,0,0,0,0,0,0,0,0,25,0,0,0,0,0,31,0,0,29,0,0,31,0,0,0,0,0,27,0,0,0,0,0,0,0,0,0,0,0,0,0,0,0,0,0,0,0,
0,0,0,11,0,0,0,0,0,12,0,0,0,0,0,0,0,11,0,0,0,0,0,0,12,10,0,27,0,0,0,0,9,0,10,0,9,0,0,0,0,0,0,27,0,0,0,0,0,0,0,0,0,0,0,0,0,0,0,0,11,11,0,0,
0,0,0,0,11,0,0,0,0,0,0,0,0,0,0,0,0,0,0,10,0,0,0,0,0,0,0,11,25,0,27,0,0,9,0,0,0,0,0,0,0,0,27,0,0,0,0,0,12,0,10,0,0,0,0,0,0,0,0,0,0,0,0,0,
0,0,9,0,0,0,0,0,0,0,0,0,10,0,0,0,0,0,0,0,0,0,0,0,9,0,0,0,0,0,0,25,0,27,0,25,11,27,0,25,0,27,0,0,0,0,0,0,0,0,0,0,0,0,9,0,0,0,0,0,0,0,0,0,
0,0,0,0,10,0,0,0,0,0,27,0,0,0,0,0,25,0,0,0,0,0,27,0,0,0,0,0,0,0,0,0,0,0,0,0,0,0,0,0,10,0,0,0,0,0,27,0,0,11,0,0,25,0,0,9,0,0,0,0,0,0,0,0,
12,0,0,0,0,0,0,0,0,26,0,0,0,10,9,28,0,0,0,0,0,26,0,0,0,0,0,0,0,0,0,0,0,0,0,0,0,0,0,0,0,0,0,0,0,26,0,0,0,0,0,28,0,0,12,0,0,0,0,12,0,0,0,0,
0,0,0,0,0,0,0,0,0,9,0,0,0,0,27,0,0,0,12,0,25,0,0,0,0,0,0,0,0,0,0,0,0,10,0,0,0,0,0,0,0,0,0,0,25,0,0,0,10,0,27,0,0,0,0,0,25,0,0,0,0,0,0,0,
0,0,0,0,0,0,0,0,0,0,0,0,0,26,0,0,0,0,0,28,0,0,0,0,0,0,0,0,0,0,0,0,0,12,0,0,0,0,0,0,0,0,0,0,0,0,0,0,0,26,0,0,0,0,0,28,0,0,0,0,0,10,0,12,
0,0,0,0,0,0,0,0,0,0,9,0,25,12,0,0,0,0,27,0,0,0,0,0,25,0,0,0,0,0,0,0,0,0,0,0,0,0,0,0,0,0,0,0,0,0,0,0,25,0,0,0,0,0,27,0,0,0,0,11,0,0,0,0,
0,0,0,0,0,9,0,0,0,10,0,28,0,0,0,0,0,26,0,0,10,0,0,28,0,0,0,0,0,0,0,0,0,0,0,0,0,0,0,0,11,11,0,0,0,0,0,28,10,12,0,0,0,26,0,11,0,0,0,0,0,0,0,0,
0,0,0,0,0,0,0,0,0,0,27,12,0,0,0,12,25,0,0,0,0,0,27,0,9,0,0,0,0,0,0,0,0,0,0,0,0,0,0,10,0,10,0,0,0,0,27,0,0,0,0,0,25,0,0,12,0,0,0,0,0,0,0,0,
0,0,0,0,0,0,0,0,0,26,0,0,0,0,0,28,0,0,0,0,0,26,0,0,0,0,0,0,0,0,0,0,0,0,0,0,0,0,0,0,0,0,0,0,0,26,0,0,0,0,12,28,0,0,12,0,0,0,0,0,0,12,0,0,
0,0,0,0,0,12,0,0,0,0,0,0,0,0,0,0,0,0,0,0,0,0,0,0,0,0,0,0,0,0,0,0,0,0,0,0,0,0,0,0,0,0,0,0,0,0,0,0,0,10,0,0,0,0,0,0,0,12,0,0,0,0,0,0,
0,0,0,0,0,0,0,0,0,0,0,0,0,0,0,12,0,0,0,0,0,0,9,0,0,0,0,0,0,10,0,0,0,0,0,0,0,0,0,0,0,0,0,0,0,0,0,0,0,9,0,0,12,0,0,0,0,0,0,0,0,0,0,0,
0,0,0,0,0,10,0,0,0,11,0,0,0,0,0,0,0,0,0,0,0,0,0,0,0,0,0,0,0,0,0,0,0,0,9,0,0,0,0,0,0,0,0,0,0,10,0,11,0,0,0,0,0,0,0,0,0,0,0,0,0,0,0,0,
0,0,0,0,0,0,0,9,0,0,0,0,0,0,0,0,0,0,9,0,0,0,0,0,0,0,0,0,0,0,0,0,0,0,0,0,0,0,0,0,0,0,0,0,0,0,0,0,0,0,0,0,0,0,0,0,0,9,0,0,0,0,0,0,
0,0,0,0,0,0,0,0,12,0,0,0,0,0,0,0,0,0,0,0,0,9,0,0,0,0,0,0,0,0,0,0,0,0,12,0,0,0,0,0,0,0,0,0,0,0,10,0,0,0,0,0,0,0,0,0,0,0,0,0,0,12,0,0,
0,0,0,0,0,0,0,0,0,0,0,0,0,0,0,9,0,0,0,0,0,0,0,0,0,0,0,0,0,0,0,0,0,0,0,0,0,0,0,0,0,0,0,0,0,0,0,0,12,0,0,0,0,0,0,9,0,0,0,0,0,0,0,0
  </data>
 </layer>
 <layer id="3" name="Path_And_Scorch" width="64" height="40" visible="1">
  <data encoding="csv">
0,0,0,0,0,0,0,0,0,0,0,0,0,0,0,0,0,0,0,0,0,0,0,0,0,0,0,0,0,0,0,0,0,0,0,0,0,0,0,0,0,0,0,0,0,0,0,0,0,0,0,0,0,0,0,0,0,0,0,0,0,0,0,0,
0,0,0,0,0,0,0,0,0,0,0,0,0,0,0,0,0,0,0,0,0,0,0,0,0,0,0,0,0,0,0,0,0,0,0,0,0,0,0,0,0,0,0,0,0,0,0,0,0,0,0,0,0,0,0,0,0,0,0,0,0,0,0,0,
0,0,0,0,0,0,0,0,0,0,0,0,0,0,0,0,0,0,0,0,0,0,0,0,0,0,0,0,0,0,0,0,0,0,0,0,0,0,0,0,0,0,0,0,0,0,0,0,0,0,0,0,0,0,0,0,0,0,0,0,0,0,0,0,
0,0,0,0,0,0,0,0,0,0,0,0,0,0,0,0,0,0,0,0,0,0,0,0,0,0,0,0,0,0,0,0,0,0,0,0,0,0,0,0,0,0,0,0,0,0,0,0,0,0,0,0,0,0,0,0,0,0,0,0,0,0,0,0,
0,0,0,0,0,0,0,0,0,0,0,0,0,0,0,0,0,0,0,0,0,0,0,0,0,0,0,0,0,0,0,0,0,0,0,0,0,0,0,0,0,0,0,0,0,0,0,0,0,0,0,0,0,0,0,0,0,0,0,0,0,0,0,0,
0,0,0,0,0,0,0,0,0,0,0,0,0,0,0,0,0,0,0,0,0,0,0,0,0,0,0,0,0,0,0,0,0,0,0,0,0,0,0,0,0,0,0,0,0,0,0,0,0,0,0,0,0,0,0,0,0,0,0,0,0,0,0,0,
0,0,0,0,0,0,0,0,0,0,0,0,0,0,0,0,0,0,0,0,0,0,0,0,0,0,0,0,0,0,0,0,0,0,0,0,0,0,0,0,0,0,0,0,0,0,0,0,0,0,0,0,0,0,0,0,0,0,0,0,0,0,0,0,
0,0,0,0,0,0,0,0,0,0,0,0,0,0,0,0,0,0,0,0,0,0,0,0,0,0,0,0,0,0,0,0,0,0,0,0,0,0,0,0,0,0,0,0,0,0,0,0,0,0,0,0,0,0,0,0,0,0,0,0,0,0,0,0,
0,0,0,0,0,0,0,0,0,0,0,0,0,0,0,0,0,0,0,0,0,0,0,0,0,0,0,0,0,0,0,0,0,0,0,0,0,0,0,0,0,0,0,0,0,0,0,0,0,0,0,0,0,0,0,0,0,0,0,0,0,0,0,0,
0,0,0,0,0,0,0,0,0,0,0,0,0,0,0,0,0,0,0,0,0,0,0,0,0,0,0,0,0,0,0,0,0,0,0,0,0,0,0,0,0,0,0,0,0,0,0,0,0,0,0,0,0,0,0,0,0,0,0,0,0,0,0,0,
0,0,0,0,0,0,0,0,0,0,0,0,0,0,0,0,0,0,0,0,0,0,0,0,0,0,0,0,0,0,0,0,0,0,0,0,0,0,0,0,0,0,0,0,0,0,0,0,0,0,0,0,0,0,0,0,0,0,0,0,0,0,0,0,
0,0,0,0,0,0,0,0,0,0,0,0,0,0,0,0,0,0,0,0,0,0,0,0,0,0,0,0,0,0,0,0,0,0,0,0,0,0,0,0,0,0,0,0,0,0,0,0,0,0,0,0,0,0,0,0,0,0,0,0,0,0,0,0,
0,0,0,0,0,0,0,0,0,0,0,0,0,0,0,0,0,0,0,0,0,0,0,0,0,0,0,0,0,0,0,20,17,18,19,20,17,18,19,20,17,0,0,0,0,0,0,0,0,0,0,0,0,0,0,0,0,0,0,0,0,0,0,0,
0,0,0,0,0,0,0,0,0,0,0,0,0,0,0,0,0,0,0,0,0,0,0,0,0,0,0,0,0,19,20,17,18,19,20,17,18,19,20,17,18,19,20,0,0,0,0,0,0,0,0,0,0,0,0,0,0,0,0,0,0,0,0,0,
0,0,0,0,0,0,0,0,0,0,0,0,0,0,0,0,0,0,0,0,0,0,0,0,0,0,0,0,19,20,17,18,19,20,17,18,19,20,17,18,19,20,17,18,0,0,0,0,0,0,0,0,0,0,0,0,0,0,0,0,0,0,0,0,
0,0,0,0,0,0,0,0,0,0,0,0,0,0,0,0,0,0,0,0,0,0,0,0,0,0,0,19,20,17,18,19,20,17,18,19,20,17,18,19,20,17,18,19,20,16,13,14,15,13,15,0,0,0,0,0,0,0,0,0,0,0,0,0,
0,0,0,0,0,0,0,0,0,0,0,0,0,0,0,0,0,0,0,0,0,0,0,0,0,0,19,20,17,18,19,20,17,18,19,20,17,18,19,20,17,18,19,20,17,18,13,14,16,13,14,15,16,13,14,15,13,15,0,0,0,0,0,0,
0,0,0,0,0,0,0,0,0,0,0,0,0,0,0,0,0,0,0,0,0,0,0,0,0,0,20,17,18,19,20,17,18,19,20,17,18,19,20,17,18,19,20,17,18,19,14,15,16,13,14,15,16,13,14,16,13,14,15,13,15,0,0,0,
0,0,0,0,0,0,0,0,0,0,0,0,0,0,0,0,0,0,0,0,0,0,0,0,0,0,17,18,19,20,17,18,19,20,17,18,19,20,17,18,19,20,17,18,19,20,15,16,13,14,15,16,13,14,15,16,13,14,16,14,16,14,0,0,
0,0,0,0,0,0,0,0,0,0,0,0,0,0,0,0,0,0,0,0,0,0,0,0,0,16,18,19,20,17,18,19,20,17,18,19,20,17,18,19,20,17,18,19,20,17,13,13,14,15,16,13,14,15,16,13,14,15,13,15,13,15,0,0,
0,0,0,0,0,0,0,0,0,0,0,0,0,0,0,0,0,0,0,0,0,0,14,15,15,16,19,20,17,18,19,20,17,18,19,20,17,18,19,20,17,18,19,20,17,18,0,0,16,13,14,15,16,13,13,14,15,16,14,16,14,16,0,0,
0,0,0,0,0,0,0,0,0,0,0,0,0,0,0,0,0,14,15,16,13,13,14,15,16,13,14,17,18,19,20,17,18,19,20,17,18,19,20,17,18,19,20,17,18,0,0,0,0,0,0,0,0,0,0,16,13,14,15,13,15,0,0,0,
0,0,0,0,0,0,0,0,0,0,0,13,14,15,16,13,13,14,15,16,13,14,15,16,13,14,16,13,19,20,17,18,19,20,17,18,19,20,17,18,19,20,17,18,0,0,0,0,0,0,0,0,0,0,0,0,0,0,0,0,0,0,0,0,
0,0,0,0,0,0,0,0,0,16,16,13,14,15,16,13,14,15,16,13,14,15,16,13,15,16,13,15,13,17,18,19,20,17,18,19,20,17,18,19,20,17,18,0,0,0,0,0,0,0,0,0,0,0,0,0,0,0,0,0,0,0,0,0,
0,0,0,0,0,0,0,15,15,16,13,14,15,16,13,14,15,16,13,14,15,16,14,15,16,14,16,0,0,0,0,20,17,18,19,20,17,18,19,20,17,0,0,0,0,0,0,0,0,0,0,0,0,0,0,0,0,0,0,0,0,0,0,0,
0,0,0,0,13,14,14,15,16,13,14,15,16,13,14,15,13,14,15,16,13,14,15,13,15,0,0,0,0,0,15,16,14,16,0,0,0,0,0,0,0,0,0,0,0,0,0,0,0,0,0,0,0,0,0,0,0,0,0,0,0,0,0,0,
0,0,0,16,13,14,15,16,13,14,15,13,14,15,16,13,14,16,14,0,0,0,0,0,0,0,0,0,0,15,16,13,15,13,0,0,0,0,0,0,0,0,0,0,0,0,0,0,0,0,0,0,0,0,0,0,0,0,0,0,0,0,0,0,
0,0,16,13,14,15,16,13,15,16,13,14,16,14,0,0,0,0,0,0,0,0,0,0,0,0,0,0,15,16,13,15,13,0,0,0,0,0,0,0,0,0,0,0,0,0,0,0,0,0,0,0,0,0,0,0,0,0,0,0,0,0,0,0,
0,0,13,14,15,16,14,15,16,14,16,0,0,0,0,0,0,0,0,0,0,0,0,0,0,0,0,15,16,13,15,13,0,0,0,0,0,0,0,0,0,0,0,0,0,0,0,0,0,0,0,0,0,0,0,0,0,0,0,0,0,0,0,0,
0,0,14,15,13,14,15,13,15,0,0,0,0,0,0,0,0,0,0,0,0,0,0,0,0,0,0,16,13,15,13,0,0,0,0,0,0,0,0,0,0,0,0,0,0,0,0,0,0,0,0,0,0,0,0,0,0,0,0,0,0,0,0,0,
0,0,0,13,14,16,14,0,0,0,0,0,0,0,0,0,0,0,0,0,0,0,0,0,0,0,16,13,14,16,14,0,0,0,0,0,0,0,0,0,0,0,0,0,0,0,0,0,0,0,0,0,0,0,0,0,0,0,0,0,0,0,0,0,
0,0,0,0,0,0,0,0,0,0,0,0,0,0,0,0,0,0,0,0,0,0,0,0,0,16,13,14,16,14,0,0,0,0,0,0,0,0,0,0,0,0,0,0,0,0,0,0,0,0,0,0,0,0,0,0,0,0,0,0,0,0,0,0,
0,0,0,0,0,0,0,0,0,0,0,0,0,0,0,0,0,0,0,0,0,0,0,0,0,13,14,16,14,0,0,0,0,0,0,0,0,0,0,0,0,0,0,0,0,0,0,0,0,0,0,0,0,0,0,0,0,0,0,0,0,0,0,0,
0,0,0,0,0,0,0,0,0,0,0,0,0,0,0,0,0,0,0,0,0,0,0,0,0,14,16,14,0,0,0,0,0,0,0,0,0,0,0,0,0,0,0,0,0,0,0,0,0,0,0,0,0,0,0,0,0,0,0,0,0,0,0,0,
0,0,0,0,0,0,0,0,0,0,0,0,0,0,0,0,0,0,0,0,0,0,0,0,0,0,0,0,0,0,0,0,0,0,0,0,0,0,0,0,0,0,0,0,0,0,0,0,0,0,0,0,0,0,0,0,0,0,0,0,0,0,0,0,
0,0,0,0,0,0,0,0,0,0,0,0,0,0,0,0,0,0,0,0,0,0,0,0,0,0,0,0,0,0,0,0,0,0,0,0,0,0,0,0,0,0,0,0,0,0,0,0,0,0,0,0,0,0,0,0,0,0,0,0,0,0,0,0,
0,0,0,0,0,0,0,0,0,0,0,0,0,0,0,0,0,0,0,0,0,0,0,0,0,0,0,0,0,0,0,0,0,0,0,0,0,0,0,0,0,0,0,0,0,0,0,0,0,0,0,0,0,0,0,0,0,0,0,0,0,0,0,0,
0,0,0,0,0,0,0,0,0,0,0,0,0,0,0,0,0,0,0,0,0,0,0,0,0,0,0,0,0,0,0,0,0,0,0,0,0,0,0,0,0,0,0,0,0,0,0,0,0,0,0,0,0,0,0,0,0,0,0,0,0,0,0,0,
0,0,0,0,0,0,0,0,0,0,0,0,0,0,0,0,0,0,0,0,0,0,0,0,0,0,0,0,0,0,0,0,0,0,0,0,0,0,0,0,0,0,0,0,0,0,0,0,0,0,0,0,0,0,0,0,0,0,0,0,0,0,0,0,
0,0,0,0,0,0,0,0,0,0,0,0,0,0,0,0,0,0,0,0,0,0,0,0,0,0,0,0,0,0,0,0,0,0,0,0,0,0,0,0,0,0,0,0,0,0,0,0,0,0,0,0,0,0,0,0,0,0,0,0,0,0,0,0
  </data>
 </layer>
 <layer id="4" name="Crops_Low" width="64" height="40" visible="1">
  <data encoding="csv">
0,0,0,0,0,0,0,0,0,0,0,0,0,0,0,0,0,0,0,0,0,0,0,0,0,0,0,0,0,0,0,0,0,0,0,0,0,0,0,0,0,0,0,0,0,0,0,0,0,0,0,0,0,0,0,0,0,0,0,0,0,0,0,0,
0,0,0,0,0,0,0,0,0,0,0,0,0,0,0,0,0,0,0,0,0,0,0,0,0,0,0,0,0,0,0,0,0,0,0,0,0,0,0,0,0,0,0,0,0,0,0,0,0,0,0,0,0,0,0,0,0,0,0,0,0,0,0,0,
0,0,0,0,0,0,0,0,0,0,0,0,0,0,0,0,0,0,0,0,0,0,0,0,0,0,0,0,0,0,0,0,0,0,0,0,0,0,0,0,0,0,0,0,0,0,0,0,0,0,0,0,0,0,0,0,0,0,0,0,0,0,0,0,
0,0,0,0,0,0,0,0,0,0,0,0,0,0,0,0,0,0,0,0,0,0,0,0,0,0,0,0,0,34,0,0,0,34,0,0,0,0,0,0,0,0,0,0,0,0,0,0,0,0,0,0,0,0,0,0,0,0,0,0,0,0,0,0,
0,0,0,0,0,0,0,0,33,0,0,0,33,0,0,0,33,0,0,0,0,0,0,0,0,0,0,0,34,0,0,0,34,0,0,0,0,0,0,0,0,0,0,0,0,0,0,0,0,0,0,0,0,0,0,0,0,0,0,0,0,0,0,0,
0,0,0,0,0,0,0,33,0,0,0,33,0,0,0,33,0,0,0,33,0,0,0,0,0,0,0,34,0,0,0,34,0,0,0,34,0,0,0,0,0,0,0,34,0,0,0,34,0,0,0,34,0,0,0,34,0,0,0,0,0,0,0,0,
0,0,0,0,0,0,33,0,0,0,33,0,0,0,33,0,0,0,33,0,0,0,0,0,0,0,0,0,0,0,34,0,0,0,34,0,0,0,0,0,0,0,34,0,0,0,34,0,0,0,34,0,0,0,34,0,0,0,0,0,0,0,0,0,
0,0,0,0,0,33,0,0,0,33,0,0,0,33,0,0,0,33,0,0,0,0,0,0,0,0,0,0,0,34,0,0,0,34,0,0,0,0,0,0,0,0,0,0,0,34,0,0,0,34,0,0,0,34,0,0,0,34,0,0,0,0,0,0,
0,0,0,0,0,0,0,0,33,0,0,0,33,0,0,0,33,0,0,0,0,0,0,0,0,0,0,0,34,0,0,0,34,0,0,0,0,0,0,0,0,0,0,0,34,0,0,0,34,0,0,0,34,0,0,0,34,0,0,0,0,0,0,0,
0,0,0,0,0,0,0,33,0,0,0,33,0,0,0,33,0,0,0,33,0,0,0,0,0,0,0,34,0,0,0,34,0,0,0,34,0,0,0,0,0,0,0,34,0,0,0,34,0,0,0,34,0,0,0,34,0,0,0,0,0,0,0,0,
0,0,0,0,0,0,33,0,0,0,33,0,0,0,33,0,0,0,33,0,0,0,0,0,0,0,0,0,0,0,34,0,0,0,0,0,0,0,0,0,0,0,34,0,0,0,34,0,0,0,34,0,0,0,34,0,0,0,0,0,0,0,0,0,
0,0,0,0,0,33,0,0,0,33,0,0,0,33,0,0,0,33,0,0,0,0,0,0,0,0,0,0,0,0,0,0,0,0,0,0,0,0,0,0,0,0,0,0,0,34,0,0,0,34,0,0,0,34,0,0,0,34,0,0,0,0,0,0,
0,0,0,0,0,0,0,0,33,0,0,0,33,0,0,0,33,0,0,0,0,0,0,0,0,0,0,0,0,0,0,0,0,0,0,0,0,0,0,0,0,0,0,0,0,0,0,0,34,0,0,0,34,0,0,0,34,0,0,0,0,0,0,0,
0,0,0,0,0,0,0,33,0,0,0,33,0,0,0,33,0,0,0,33,0,0,0,0,0,0,0,0,0,0,0,0,0,0,0,0,0,0,0,0,0,0,0,0,0,0,0,34,0,0,0,34,0,0,0,34,0,0,0,0,0,0,0,0,
0,0,0,0,0,0,0,0,0,0,0,0,0,0,0,0,0,0,0,0,0,0,0,0,0,0,0,0,0,0,0,0,0,0,0,0,0,0,0,0,0,0,0,0,0,0,0,0,0,0,0,0,0,0,0,0,0,0,0,0,0,0,0,0,
0,0,0,0,0,0,0,0,0,0,0,0,0,0,0,0,0,0,0,0,0,0,0,0,0,0,0,0,0,0,0,0,0,0,0,0,0,0,0,0,0,0,0,0,0,0,0,0,0,0,0,0,0,0,0,0,0,0,0,0,0,0,0,0,
0,0,0,0,0,0,0,0,0,0,0,0,0,0,0,0,0,0,0,0,0,0,0,0,0,0,0,0,0,0,0,0,0,0,0,0,0,0,0,0,0,0,0,0,0,0,0,0,0,0,0,0,0,0,0,0,0,0,0,0,0,0,0,0,
0,0,0,0,0,0,0,0,0,0,0,0,0,0,0,0,0,0,0,0,0,0,0,0,0,0,0,0,0,0,0,0,0,0,0,0,0,0,0,0,0,0,0,0,0,0,0,0,0,0,0,0,0,0,0,0,0,0,0,0,0,0,0,0,
0,0,0,0,0,0,0,0,0,0,0,0,0,0,0,0,0,0,0,0,0,0,0,0,0,0,0,0,0,0,0,0,0,0,0,0,0,0,0,0,0,0,0,0,0,0,0,0,0,0,0,0,0,0,0,0,0,0,0,0,0,0,0,0,
0,0,0,0,0,0,0,0,0,0,0,0,0,0,0,0,0,0,0,0,0,0,0,0,0,0,0,0,0,0,0,0,0,0,0,0,0,0,0,0,0,0,0,0,0,0,0,0,0,0,0,0,0,0,0,0,0,0,0,0,0,0,0,0,
0,0,0,0,0,0,0,0,0,0,0,0,0,0,0,0,0,0,0,0,0,0,0,0,0,0,0,0,0,0,0,0,0,0,0,0,0,0,0,0,0,0,0,0,0,0,0,0,0,0,0,0,0,0,0,0,0,0,0,0,0,0,0,0,
0,0,0,0,0,0,0,0,0,0,0,0,0,0,0,0,0,0,0,0,0,0,0,0,0,0,0,0,0,0,0,0,0,0,0,0,0,0,0,0,0,0,0,0,0,0,0,0,0,0,0,0,0,0,0,0,0,0,0,0,0,0,0,0,
0,0,0,0,0,0,0,0,0,0,0,0,0,0,0,0,0,0,0,0,0,0,0,0,0,0,0,0,0,0,0,0,0,0,0,0,0,0,0,0,0,0,0,0,0,0,0,0,0,0,0,0,0,0,0,0,0,0,0,0,0,0,0,0,
0,0,0,0,0,0,0,0,0,0,0,0,0,0,0,0,0,0,0,0,0,0,0,0,0,0,0,0,0,0,0,0,0,0,0,0,0,0,0,0,0,0,0,0,0,0,0,0,0,0,0,0,0,0,0,0,0,0,0,0,0,0,0,0,
0,0,0,0,0,0,0,0,0,0,0,0,0,0,0,0,0,0,0,0,0,0,0,0,0,0,0,0,0,0,0,0,0,0,0,0,0,0,0,0,0,0,0,0,0,0,0,0,0,0,0,0,0,0,0,0,0,0,0,0,0,0,0,0,
0,0,0,0,0,0,0,0,0,0,0,0,0,0,0,0,0,0,0,0,0,0,0,0,0,0,0,0,0,0,0,0,0,0,0,0,0,0,0,0,0,0,0,0,0,0,0,0,0,0,0,0,0,0,0,0,0,0,0,0,0,0,0,0,
0,0,0,0,0,0,0,0,0,0,34,0,0,0,0,0,0,0,34,0,0,0,0,0,0,0,0,0,0,0,0,0,0,0,0,0,0,0,0,0,0,0,0,0,0,0,33,0,0,0,33,0,0,0,33,0,0,0,0,0,0,0,0,0,
0,0,0,0,0,0,0,0,0,34,0,0,0,0,0,0,0,34,0,0,0,34,0,0,0,0,0,0,0,0,0,0,0,0,0,0,0,0,0,0,0,0,0,0,0,33,0,0,0,33,0,0,0,33,0,0,0,0,0,0,0,0,0,0,
0,0,0,0,0,0,0,0,0,0,0,0,34,0,0,0,34,0,0,0,34,0,0,0,34,0,0,0,0,0,0,0,0,0,0,0,0,0,0,0,0,0,0,0,33,0,0,0,33,0,0,0,33,0,0,0,33,0,0,0,0,0,0,0,
0,0,0,0,0,0,0,0,0,0,0,34,0,0,0,34,0,0,0,34,0,0,0,34,0,0,0,0,0,0,0,0,0,0,0,0,0,0,0,0,0,0,0,0,0,0,0,33,0,0,0,33,0,0,0,33,0,0,0,0,0,0,0,0,
0,0,0,0,0,0,0,0,0,0,34,0,0,0,34,0,0,0,34,0,0,0,34,0,0,0,0,0,0,0,0,0,0,0,0,0,0,0,0,0,0,0,0,0,0,0,33,0,0,0,33,0,0,0,33,0,0,0,0,0,0,0,0,0,
0,0,0,0,0,0,0,0,0,34,0,0,0,34,0,0,0,34,0,0,0,34,0,0,0,0,0,0,0,0,0,0,0,0,0,0,0,0,0,0,0,0,0,0,0,33,0,0,0,33,0,0,0,33,0,0,0,0,0,0,0,0,0,0,
0,0,0,0,0,0,0,0,0,0,0,0,34,0,0,0,34,0,0,0,34,0,0,0,0,0,0,0,0,0,0,0,0,0,0,0,0,0,0,0,0,0,0,0,33,0,0,0,33,0,0,0,33,0,0,0,33,0,0,0,0,0,0,0,
0,0,0,0,0,0,0,0,0,0,0,34,0,0,0,34,0,0,0,34,0,0,0,34,0,0,0,0,0,0,0,0,0,0,0,0,0,0,0,0,0,0,0,0,0,0,0,33,0,0,0,33,0,0,0,33,0,0,0,0,0,0,0,0,
0,0,0,0,0,0,0,0,0,0,0,0,0,0,0,0,0,0,0,0,0,0,0,0,0,0,0,0,0,0,0,0,0,0,0,0,0,0,0,0,0,0,0,0,0,0,0,0,0,0,0,0,0,0,0,0,0,0,0,0,0,0,0,0,
0,0,0,0,0,0,0,0,0,0,0,0,0,0,0,0,0,0,0,0,0,0,0,0,0,0,0,0,0,0,0,0,0,0,0,0,0,0,0,0,0,0,0,0,0,0,0,0,0,0,0,0,0,0,0,0,0,0,0,0,0,0,0,0,
0,0,0,0,0,0,0,0,0,0,0,0,0,0,0,0,0,0,0,0,0,0,0,0,0,0,0,0,0,0,0,0,0,0,0,0,0,0,0,0,0,0,0,0,0,0,0,0,0,0,0,0,0,0,0,0,0,0,0,0,0,0,0,0,
0,0,0,0,0,0,0,0,0,0,0,0,0,0,0,0,0,0,0,0,0,0,0,0,0,0,0,0,0,0,0,0,0,0,0,0,0,0,0,0,0,0,0,0,0,0,0,0,0,0,0,0,0,0,0,0,0,0,0,0,0,0,0,0,
0,0,0,0,0,0,0,0,0,0,0,0,0,0,0,0,0,0,0,0,0,0,0,0,0,0,0,0,0,0,0,0,0,0,0,0,0,0,0,0,0,0,0,0,0,0,0,0,0,0,0,0,0,0,0,0,0,0,0,0,0,0,0,0,
0,0,0,0,0,0,0,0,0,0,0,0,0,0,0,0,0,0,0,0,0,0,0,0,0,0,0,0,0,0,0,0,0,0,0,0,0,0,0,0,0,0,0,0,0,0,0,0,0,0,0,0,0,0,0,0,0,0,0,0,0,0,0,0
  </data>
 </layer>
 <layer id="5" name="Props_Back" width="64" height="40" visible="1">
  <data encoding="csv">
0,0,0,0,0,0,0,0,0,0,0,0,0,0,0,0,0,0,0,0,0,0,0,0,0,0,0,0,0,0,0,0,0,0,0,0,0,0,0,0,0,0,0,0,0,0,0,0,0,0,0,0,0,0,0,0,0,0,0,0,0,0,0,0,
0,0,0,0,0,0,0,0,0,0,0,0,0,0,0,0,0,0,0,0,0,0,0,0,0,0,0,0,0,0,0,0,0,0,0,0,0,0,0,0,0,0,0,0,0,0,0,0,0,0,0,0,0,0,0,0,0,0,0,0,0,0,0,0,
0,0,0,0,0,0,0,0,0,0,0,0,0,0,0,0,0,0,0,0,0,0,0,0,0,0,0,0,0,0,0,0,0,0,0,0,0,0,0,0,0,0,0,0,0,0,0,0,0,0,0,0,0,0,0,0,0,0,0,0,0,0,0,0,
0,0,0,0,0,0,0,0,0,0,0,0,0,0,0,0,0,0,0,0,0,0,0,0,0,0,0,0,0,0,0,0,0,0,0,0,36,36,0,0,0,0,0,0,0,0,0,0,0,0,0,0,0,0,0,0,0,0,0,0,0,0,0,0,
0,0,0,0,0,0,0,0,0,0,0,0,0,0,0,0,0,0,0,0,0,0,0,0,0,0,0,0,0,0,0,0,0,0,0,0,0,0,0,0,0,0,0,0,0,0,0,0,0,0,0,0,0,0,0,0,0,0,0,0,0,0,0,0,
0,0,0,0,0,0,0,0,0,0,36,0,0,0,0,0,0,0,0,0,0,0,0,0,36,0,0,0,0,0,0,0,0,0,0,0,0,0,0,0,0,0,0,0,0,0,0,0,0,0,0,0,0,0,0,0,0,0,0,0,0,0,0,0,
0,0,0,0,0,0,0,0,0,0,0,0,0,0,0,0,0,0,0,0,0,0,0,0,0,0,0,0,0,0,0,0,0,0,0,0,0,0,0,0,0,0,0,0,0,0,0,0,0,0,0,0,0,0,0,0,0,0,0,0,0,0,0,0,
0,0,0,0,36,0,0,0,0,0,0,0,0,0,0,0,0,0,0,0,0,0,0,36,0,0,0,0,0,0,0,0,0,0,0,0,0,0,0,0,0,0,0,0,0,0,0,0,0,0,0,0,0,0,0,0,0,0,0,0,0,0,0,0,
0,0,0,0,0,0,0,0,36,0,0,0,0,0,0,0,0,0,0,0,0,0,0,0,0,0,0,0,0,0,0,0,0,0,0,0,0,0,0,0,0,0,0,0,0,0,0,0,0,0,0,0,0,0,0,0,0,36,0,0,0,0,0,0,
0,0,0,0,0,0,0,0,0,0,0,0,0,0,0,0,0,0,0,0,0,0,0,0,0,0,0,0,0,0,0,0,0,0,0,0,0,0,0,0,0,0,0,0,0,0,0,0,0,0,36,0,0,0,0,0,0,0,0,0,0,0,0,0,
0,0,0,0,0,0,0,0,0,0,0,0,0,0,0,0,0,0,0,0,0,0,0,0,0,0,0,0,0,0,0,0,0,0,0,0,0,0,0,0,0,0,0,0,0,0,0,0,0,0,0,0,0,0,0,0,0,0,0,0,0,0,0,0,
0,0,0,0,0,0,0,0,36,0,0,0,0,0,0,0,0,0,0,0,0,0,0,0,0,0,0,0,0,0,0,0,0,0,0,0,0,0,0,0,0,0,0,0,0,0,0,0,0,0,0,0,0,0,0,0,0,0,0,0,0,0,0,0,
0,0,0,0,0,0,0,0,0,0,0,0,0,0,0,0,0,0,0,0,0,0,0,0,0,0,0,0,0,0,0,0,0,0,0,0,0,0,0,0,0,0,0,0,0,0,0,0,0,0,0,0,36,0,0,0,0,0,0,0,0,0,0,0,
0,0,0,0,0,0,0,0,0,0,0,0,0,0,0,0,0,0,0,0,0,0,0,0,0,0,0,0,0,0,0,0,0,0,0,0,0,0,0,0,0,0,0,38,0,0,0,0,0,0,0,0,0,0,0,0,0,0,0,0,0,0,0,0,
0,0,0,0,0,0,0,0,0,0,0,0,0,0,0,0,0,0,0,0,0,0,0,0,0,0,0,0,0,0,46,0,0,0,0,0,0,0,0,0,40,0,0,0,0,0,0,0,0,0,0,0,0,0,0,0,0,0,0,0,0,0,0,0,
0,0,0,0,0,0,0,0,0,0,0,0,0,0,0,0,0,0,0,0,0,0,0,0,0,0,0,0,0,0,0,0,0,0,0,0,0,0,43,0,0,0,0,0,0,0,0,0,0,0,0,0,0,0,0,0,0,38,0,0,0,0,0,0,
0,0,0,0,0,0,0,0,0,0,0,0,0,0,0,0,0,0,0,0,0,0,0,0,38,0,0,0,0,0,0,0,0,0,0,0,0,0,0,0,0,0,0,0,0,0,0,39,0,0,0,0,0,0,0,0,0,0,0,0,36,0,0,0,
0,0,0,0,0,36,0,0,0,0,0,0,0,0,0,0,0,0,0,0,0,38,0,0,0,0,0,0,0,0,0,0,0,0,0,0,0,0,0,0,0,0,0,0,0,0,0,0,0,0,0,0,0,0,0,0,0,0,0,0,0,0,0,0,
0,0,0,0,0,36,0,0,0,0,0,0,0,0,0,0,0,0,0,0,0,0,0,0,0,0,0,0,0,42,0,0,0,0,0,0,0,0,0,0,0,0,0,0,0,0,0,0,0,0,0,0,0,0,0,0,0,0,0,0,0,0,0,0,
0,0,0,0,0,0,0,0,40,0,0,0,0,0,0,0,0,0,0,0,0,0,0,0,0,0,0,0,0,0,0,0,0,0,0,0,0,0,0,0,0,0,0,0,0,0,0,0,0,0,0,0,0,0,0,0,0,0,0,0,0,0,0,0,
0,0,0,0,0,0,0,0,0,0,0,0,0,0,0,0,0,0,0,0,0,0,0,0,0,0,0,0,0,0,0,0,0,0,0,0,0,0,0,0,0,0,42,0,0,0,0,0,0,0,45,0,0,0,0,0,0,0,0,0,0,0,0,0,
0,0,0,0,0,0,0,0,0,0,0,0,0,0,0,0,0,0,39,0,0,0,0,0,0,0,0,0,0,0,0,0,0,0,0,0,0,0,0,0,0,0,0,0,0,0,0,0,0,0,0,0,0,0,0,0,0,0,0,0,0,0,0,0,
0,0,0,0,0,0,0,0,0,0,0,0,0,0,0,0,0,39,0,0,0,0,0,0,0,0,0,0,0,0,0,43,0,0,0,0,0,0,0,0,0,0,0,0,0,0,0,0,0,0,0,0,0,0,0,0,0,0,0,0,0,0,0,0,
0,0,0,0,0,0,0,0,0,0,0,0,0,0,0,0,0,0,0,0,0,0,0,0,0,0,0,0,0,0,0,0,0,0,0,0,0,0,0,46,0,0,0,0,0,0,0,0,0,0,0,0,0,0,0,0,0,0,0,0,0,0,0,0,
0,0,0,0,0,0,0,0,0,0,0,0,0,0,0,0,0,0,0,0,0,0,0,0,0,36,0,0,0,0,0,0,0,41,0,0,0,0,0,0,0,41,0,0,0,0,0,0,0,0,0,0,0,0,44,0,0,0,0,36,0,0,0,0,
0,0,0,0,0,0,0,0,0,0,0,0,0,0,0,0,0,0,0,0,0,0,0,0,0,0,38,0,0,0,0,0,0,0,0,0,0,0,0,0,0,0,0,0,0,0,0,0,0,38,0,0,0,0,0,0,0,0,0,0,0,0,0,0,
0,0,0,0,0,0,0,0,0,0,0,0,0,0,0,0,0,0,0,0,0,0,0,0,0,0,0,0,0,0,0,0,0,0,0,0,0,0,0,0,0,0,0,0,0,0,0,0,0,0,0,0,0,0,0,0,0,0,0,0,0,0,0,0,
0,0,0,0,0,0,0,0,0,0,0,0,0,0,38,0,0,0,0,0,0,0,0,0,0,0,0,0,0,0,0,0,0,0,0,0,0,0,0,0,0,0,0,36,0,0,0,0,0,0,0,0,0,0,0,0,0,0,0,0,0,0,0,0,
0,0,0,0,0,0,0,0,0,0,0,0,0,0,0,0,0,0,0,0,0,0,0,0,44,0,0,36,0,0,0,0,0,0,0,0,0,0,0,0,0,0,0,0,0,0,0,0,0,0,38,0,0,0,0,0,0,0,36,0,0,0,0,0,
0,0,0,0,0,0,0,0,0,0,0,0,0,0,0,0,0,0,0,0,0,0,0,0,0,0,0,0,0,0,0,0,0,0,0,0,0,0,0,0,0,0,0,0,0,0,0,0,0,0,0,0,0,0,0,0,0,0,0,0,0,0,0,0,
0,0,0,0,0,0,0,0,0,0,0,0,0,0,38,0,0,0,0,0,0,0,0,0,0,0,0,0,0,0,0,0,0,0,0,0,0,0,0,0,0,0,0,0,0,0,0,0,0,0,0,0,0,0,0,0,0,0,0,0,0,0,0,0,
0,0,0,0,0,0,0,0,0,0,0,0,0,0,0,0,0,0,0,0,0,0,0,0,0,0,0,0,0,0,0,0,0,0,0,0,0,0,0,0,0,0,0,0,0,0,0,0,0,0,0,0,0,0,0,0,0,0,0,0,0,0,0,0,
0,0,0,0,0,0,0,0,0,0,0,0,0,0,0,0,0,0,0,0,0,0,0,0,0,0,0,0,0,0,0,0,0,0,0,0,0,0,0,0,0,0,0,0,0,0,0,0,0,0,0,0,0,0,0,0,0,0,0,0,0,0,0,0,
0,0,0,0,0,0,0,0,0,0,0,0,0,0,0,0,0,0,0,0,0,0,0,0,0,0,0,0,0,0,0,0,0,0,0,0,0,0,0,0,0,0,0,0,0,0,0,0,0,0,0,0,0,0,0,0,0,0,0,0,0,0,0,0,
0,0,0,0,0,0,0,0,0,0,0,0,0,0,0,0,0,0,0,0,0,0,0,0,0,0,0,0,0,0,0,0,0,0,0,0,0,0,0,0,0,0,0,0,0,0,0,0,0,0,0,0,0,0,0,0,0,36,0,0,0,0,0,0,
0,0,0,0,0,0,0,0,0,0,0,0,0,0,0,0,0,0,36,0,0,0,0,0,0,0,0,0,0,0,0,0,0,0,0,0,0,0,0,0,0,0,0,0,0,0,0,0,0,0,0,0,0,0,0,0,0,0,0,0,0,0,0,0,
0,0,0,0,0,0,0,0,0,0,0,0,0,0,0,0,0,0,0,0,0,0,0,0,0,0,0,0,0,0,0,0,0,0,0,0,0,0,0,0,0,0,0,0,0,0,0,0,0,0,0,0,36,0,0,0,0,0,0,0,0,0,0,0,
0,0,0,0,0,0,0,0,0,0,0,0,0,0,0,0,36,0,0,0,0,0,0,0,0,0,0,0,0,0,0,0,0,0,0,0,0,0,0,0,0,0,0,0,0,0,0,0,0,0,0,0,0,0,0,0,0,0,0,0,0,0,0,0,
0,0,0,0,0,0,0,0,0,0,0,0,0,0,0,0,0,0,0,0,0,0,0,0,0,0,0,0,0,0,0,0,0,0,0,0,0,0,0,0,0,0,0,0,0,0,0,0,0,0,0,0,0,0,0,0,0,0,0,0,0,0,0,0,
0,0,0,0,0,0,0,0,0,0,0,0,0,0,0,0,0,0,0,0,0,0,0,0,0,0,0,0,0,0,0,0,0,0,0,0,0,0,0,0,0,0,0,0,0,0,0,0,0,0,0,0,0,0,0,0,0,0,0,0,0,0,0,0
  </data>
 </layer>
 <layer id="6" name="Crash_And_Solids" width="64" height="40" visible="1">
  <data encoding="csv">
0,0,0,0,0,0,0,0,0,0,0,0,0,0,0,0,0,0,0,0,0,0,0,0,0,0,0,0,0,0,0,0,0,0,0,0,0,0,0,0,0,0,0,0,0,0,0,0,0,0,0,0,0,0,0,0,0,0,0,0,0,0,0,0,
0,0,0,0,0,0,0,0,0,0,0,0,0,0,0,0,0,0,0,0,0,0,0,0,0,0,0,0,0,0,0,0,0,0,0,0,0,0,0,0,0,0,0,0,0,0,0,0,0,0,0,0,0,0,0,0,0,0,0,0,0,0,0,0,
0,0,0,0,0,0,0,0,0,0,0,0,0,0,0,0,0,0,0,0,0,0,0,0,0,0,0,0,0,0,0,0,0,0,0,0,0,0,0,0,0,0,0,0,0,0,0,0,0,0,0,0,0,0,0,0,0,0,0,0,0,0,0,0,
0,0,0,0,0,0,0,0,0,0,0,0,0,0,0,0,0,0,0,0,0,0,0,0,0,0,0,0,0,0,0,0,0,0,0,0,0,0,0,0,0,0,0,0,0,0,0,0,0,0,0,0,0,0,0,0,0,0,0,0,0,0,0,0,
0,0,0,0,0,0,0,0,0,0,0,0,0,0,0,0,0,0,0,0,0,0,0,0,0,0,0,0,0,0,0,0,0,0,0,0,0,0,0,0,0,0,0,0,0,0,0,0,0,0,0,0,0,0,0,0,0,0,0,0,0,0,0,0,
0,0,0,0,0,0,0,0,0,0,0,0,0,0,0,0,0,0,0,0,0,0,0,0,0,0,0,0,0,0,0,0,0,0,0,0,0,0,0,0,0,0,0,0,0,0,0,0,0,0,0,0,0,0,0,0,0,0,0,0,0,0,0,0,
0,0,0,0,0,0,0,0,0,0,0,0,0,0,0,0,0,0,0,0,0,0,0,0,0,0,0,0,0,0,0,0,0,0,0,0,0,0,0,0,0,0,0,0,0,0,0,0,0,0,0,0,0,0,0,0,0,0,0,0,0,0,0,0,
0,0,0,0,0,0,0,0,0,0,0,0,0,0,0,0,0,0,0,0,0,0,0,0,0,0,0,0,0,0,0,0,0,0,0,0,0,0,0,0,0,0,0,0,0,0,0,0,0,0,0,0,0,0,0,0,0,0,0,0,0,0,0,0,
0,0,0,0,0,0,0,0,0,0,0,0,0,0,0,0,0,0,0,0,0,0,0,0,0,0,0,0,0,0,0,0,0,0,0,0,0,0,0,0,0,0,0,0,0,0,0,0,0,0,0,0,0,0,0,0,0,0,0,0,0,0,0,0,
0,0,0,0,0,0,0,0,0,0,0,0,0,0,0,0,0,0,0,0,0,0,0,0,0,0,0,0,0,0,0,0,0,0,0,0,0,0,0,0,0,0,0,0,0,0,0,0,0,0,0,0,0,0,0,0,0,0,0,0,0,0,0,0,
0,0,0,0,0,0,0,0,0,0,0,0,0,0,0,0,0,0,0,0,0,0,0,0,0,0,0,0,0,0,0,0,0,0,0,0,0,0,0,0,0,0,0,0,0,0,0,0,0,0,0,0,0,0,0,0,0,0,0,0,0,0,0,0,
0,0,0,0,0,0,0,0,0,0,0,0,0,0,0,0,0,0,0,0,0,0,0,0,0,0,0,0,0,0,0,0,0,0,0,0,0,0,0,0,0,0,0,0,0,0,0,0,0,0,0,0,0,0,0,0,0,0,0,0,0,0,0,0,
0,0,0,0,0,0,0,0,0,0,0,0,0,0,0,0,0,0,0,0,0,0,0,0,0,0,0,0,0,0,0,0,0,0,0,0,0,0,0,0,0,0,0,0,0,0,0,0,0,0,0,0,0,0,0,0,0,0,0,0,0,0,0,0,
0,0,0,0,0,0,0,0,0,0,0,0,0,0,0,0,0,0,0,0,0,0,0,0,0,0,0,0,0,0,0,0,0,0,0,0,0,0,0,0,0,0,0,0,0,0,0,0,0,0,0,0,0,0,0,0,0,0,0,0,0,0,0,0,
0,0,0,0,0,0,0,0,0,0,0,0,0,0,0,0,0,0,0,0,0,0,0,0,0,0,0,0,0,0,0,0,0,0,0,0,0,0,0,0,0,0,0,0,0,0,0,0,0,0,0,0,0,0,0,0,0,0,0,0,0,0,0,0,
0,0,0,0,0,0,0,0,0,0,0,0,0,0,0,0,0,0,0,0,0,0,0,0,0,0,0,0,0,0,0,0,0,0,0,0,0,0,0,0,0,0,0,0,0,0,0,0,0,0,0,0,0,0,0,0,0,0,0,0,0,0,0,0,
0,0,0,0,0,0,0,0,0,0,0,0,0,0,0,0,0,0,0,0,0,0,0,0,0,0,0,0,0,0,0,0,0,0,0,0,0,0,0,0,0,0,0,0,0,0,0,0,0,0,0,0,0,0,0,0,0,0,0,0,0,0,0,0,
0,0,0,0,0,0,0,0,0,0,0,0,0,0,0,0,0,0,0,0,0,0,0,0,0,0,0,0,0,0,0,0,0,0,0,0,0,0,0,0,0,0,0,0,0,0,0,0,0,0,0,0,0,0,0,0,0,0,0,0,0,0,0,0,
0,0,0,0,0,0,0,0,0,0,0,0,0,0,0,0,0,0,0,0,0,0,0,0,0,0,0,0,0,0,0,0,0,0,0,49,0,0,0,0,0,0,0,0,0,0,0,0,0,0,0,0,0,0,0,0,0,0,0,0,0,0,0,0,
0,0,0,0,0,0,0,0,0,0,0,0,0,0,0,0,0,0,0,0,0,0,0,0,0,0,0,0,0,0,0,0,0,0,0,0,0,0,0,0,0,0,0,0,0,0,0,0,0,0,0,0,0,0,0,0,0,0,0,0,0,0,0,0,
0,0,0,0,0,0,0,0,0,0,0,0,0,0,0,0,0,0,0,0,0,0,0,0,0,0,0,0,0,0,0,0,0,0,0,0,0,0,0,0,0,0,0,0,0,0,0,0,0,0,0,0,0,0,0,0,0,0,0,0,0,0,0,0,
0,0,0,0,0,0,0,0,0,0,0,0,0,0,0,0,0,0,0,0,0,0,0,0,0,0,0,0,0,0,0,0,0,0,0,0,0,0,0,0,0,0,0,0,0,0,0,0,0,0,0,0,0,0,0,0,0,0,0,0,0,0,0,0,
0,0,0,0,0,0,0,0,0,0,0,0,0,0,0,0,0,0,0,0,0,0,0,0,0,0,0,0,0,0,0,0,0,0,0,0,0,0,0,0,0,0,0,0,0,0,0,0,0,0,0,0,0,0,0,0,0,0,0,0,0,0,0,0,
0,0,0,0,0,0,0,0,0,0,0,0,0,0,0,0,0,0,0,0,0,0,0,0,0,0,0,0,0,0,0,0,0,0,0,0,0,0,0,0,0,0,0,0,0,0,0,0,0,0,0,0,0,0,0,0,0,0,0,0,0,0,0,0,
0,0,0,0,0,0,0,0,0,0,0,0,0,0,0,0,0,0,0,0,0,0,0,0,0,0,0,0,0,0,0,0,0,0,0,0,0,0,0,0,0,0,0,0,0,0,0,0,0,0,0,0,0,0,0,0,0,0,0,0,0,0,0,0,
0,0,0,0,0,0,0,0,0,0,0,0,0,0,0,0,0,0,0,0,0,0,0,0,0,0,0,0,0,0,0,0,0,0,0,0,0,0,0,0,0,0,0,0,0,0,0,0,0,0,0,0,0,0,0,0,0,0,0,0,0,0,0,0,
0,0,0,0,0,0,0,0,0,0,0,0,0,0,0,0,0,0,0,0,0,0,0,0,0,0,0,0,0,0,0,0,0,0,0,0,0,0,0,0,0,0,0,0,0,0,0,0,0,0,0,0,0,0,0,0,0,0,0,0,0,0,0,0,
0,0,0,0,0,0,0,0,0,0,0,0,0,0,0,0,0,0,0,0,0,0,0,0,0,0,0,0,0,0,0,0,0,0,0,0,0,0,0,0,0,0,0,0,0,0,0,0,0,0,0,0,0,0,0,0,0,0,0,0,0,0,0,0,
0,0,0,0,0,0,0,0,0,0,0,0,0,0,0,0,0,0,0,0,0,0,0,0,0,0,0,0,0,0,0,0,0,0,0,0,0,0,0,0,0,0,0,0,0,0,0,0,0,0,0,0,0,0,0,0,0,0,0,0,0,0,0,0,
0,0,0,0,0,0,0,0,0,0,0,0,0,0,0,0,0,0,0,0,0,0,0,0,0,0,0,0,0,0,0,0,0,0,0,0,0,0,0,0,0,0,0,0,0,0,0,0,0,0,0,0,0,0,0,0,0,0,0,0,0,0,0,0,
0,0,0,0,0,0,0,0,0,0,0,0,0,0,0,0,0,0,0,0,0,0,0,0,0,0,0,0,0,0,0,0,0,0,0,0,0,0,0,0,0,0,0,0,0,0,0,0,0,0,0,0,0,0,0,0,0,0,0,0,0,0,0,0,
0,0,0,0,0,0,0,0,0,0,0,0,0,0,0,0,0,0,0,0,0,0,0,0,0,0,0,0,0,0,0,0,0,0,0,0,0,0,0,0,0,0,0,0,0,0,0,0,0,0,0,0,0,0,0,0,0,0,0,0,0,0,0,0,
0,0,0,0,0,0,0,0,0,0,0,0,0,0,0,0,0,0,0,0,0,0,0,0,0,0,0,0,0,0,0,0,0,0,0,0,0,0,0,0,0,0,0,0,0,0,0,0,0,0,0,0,0,0,0,0,0,0,0,0,0,0,0,0,
0,0,0,0,0,0,0,0,0,0,0,0,0,0,0,0,0,0,0,0,0,0,0,0,0,0,0,0,0,0,0,0,0,0,0,0,0,0,0,0,0,0,0,0,0,0,0,0,0,0,0,0,0,0,0,0,0,0,0,0,0,0,0,0,
0,0,0,0,0,0,0,0,0,0,0,0,0,0,0,0,0,0,0,0,0,0,0,0,0,0,0,0,0,0,0,0,0,0,0,0,0,0,0,0,0,0,0,0,0,0,0,0,0,0,0,0,0,0,0,0,0,0,0,0,0,0,0,0,
0,0,0,0,0,0,0,0,0,0,0,0,0,0,0,0,0,0,0,0,0,0,0,0,0,0,0,0,0,0,0,0,0,0,0,0,0,0,0,0,0,0,0,0,0,0,0,0,0,0,0,0,0,0,0,0,0,0,0,0,0,0,0,0,
0,0,0,0,0,0,0,0,0,0,0,0,0,0,0,0,0,0,0,0,0,0,0,0,0,0,0,0,0,0,0,0,0,0,0,0,0,0,0,0,0,0,0,0,0,0,0,0,0,0,0,0,0,0,0,0,0,0,0,0,0,0,0,0,
0,0,0,0,0,0,0,0,0,0,0,0,0,0,0,0,0,0,0,0,0,0,0,0,0,0,0,0,0,0,0,0,0,0,0,0,0,0,0,0,0,0,0,0,0,0,0,0,0,0,0,0,0,0,0,0,0,0,0,0,0,0,0,0,
0,0,0,0,0,0,0,0,0,0,0,0,0,0,0,0,0,0,0,0,0,0,0,0,0,0,0,0,0,0,0,0,0,0,0,0,0,0,0,0,0,0,0,0,0,0,0,0,0,0,0,0,0,0,0,0,0,0,0,0,0,0,0,0,
0,0,0,0,0,0,0,0,0,0,0,0,0,0,0,0,0,0,0,0,0,0,0,0,0,0,0,0,0,0,0,0,0,0,0,0,0,0,0,0,0,0,0,0,0,0,0,0,0,0,0,0,0,0,0,0,0,0,0,0,0,0,0,0
  </data>
 </layer>
 <layer id="7" name="Foreground_Tall" width="64" height="40" visible="1">
  <data encoding="csv">
0,0,0,0,0,0,0,0,0,0,0,0,0,0,0,0,0,0,0,0,0,0,0,0,0,0,0,0,0,0,0,0,0,0,0,0,0,0,0,0,0,0,0,0,0,0,0,0,0,0,0,0,0,0,0,0,0,0,0,0,0,0,0,0,
0,0,0,0,0,0,0,0,0,0,0,0,0,0,0,0,36,0,0,0,0,0,0,0,0,0,0,0,0,0,0,0,0,0,0,0,0,0,0,0,0,0,0,0,0,0,0,0,0,0,0,0,0,0,0,0,36,0,0,0,0,0,0,0,
0,0,0,0,0,0,0,0,0,0,0,36,36,0,0,0,0,0,0,0,0,0,0,0,0,0,0,0,0,0,0,0,0,0,0,0,0,0,0,0,0,0,0,0,0,0,0,0,0,0,0,36,0,0,0,0,0,0,0,0,0,0,0,0,
0,0,0,0,0,0,36,0,0,0,0,0,0,0,0,0,0,0,0,0,0,0,0,0,0,0,0,48,0,0,0,0,0,0,0,0,0,0,0,0,0,0,0,0,0,0,36,0,0,0,0,0,0,0,0,0,0,0,0,0,0,0,0,0,
0,36,0,0,0,0,47,0,0,0,0,0,0,0,0,0,0,0,47,0,0,36,0,0,0,0,0,0,0,0,48,0,0,0,0,0,0,0,0,0,0,0,0,0,0,0,0,0,0,0,0,0,0,0,0,0,0,0,0,0,0,36,0,0,
0,0,0,36,0,0,0,0,0,47,0,0,0,0,0,0,0,0,0,0,0,0,0,0,0,0,0,0,0,0,0,0,0,48,0,0,0,0,0,0,0,0,0,0,0,48,0,0,0,0,0,0,0,36,0,0,0,48,0,0,0,0,0,0,
0,0,0,0,0,0,0,0,0,0,0,0,47,0,0,0,0,0,0,0,0,0,0,0,0,0,0,0,0,0,0,0,0,0,0,0,0,0,0,0,0,0,0,0,0,0,0,0,48,0,0,0,0,0,0,0,0,0,0,0,0,0,0,0,
0,0,0,0,0,0,0,0,0,0,0,0,0,0,0,47,0,0,0,0,0,0,0,0,0,0,0,48,0,0,0,0,0,0,0,0,0,0,0,0,0,0,0,0,0,0,0,0,0,0,0,48,0,0,0,0,0,0,0,0,0,0,0,0,
0,0,0,0,0,0,47,0,0,0,0,0,0,0,0,0,0,0,47,0,0,0,0,0,0,0,0,0,0,0,48,0,0,0,0,0,0,0,0,0,0,0,48,0,0,0,0,0,0,0,0,0,0,36,48,0,0,0,0,0,0,0,0,0,
0,0,0,0,0,0,0,0,0,47,0,0,0,0,0,0,0,0,0,0,0,0,0,0,0,0,0,0,0,0,0,0,0,48,0,0,0,0,0,0,0,0,0,0,0,48,0,0,0,0,0,0,0,0,0,0,0,48,0,0,0,0,0,0,
0,0,0,0,0,0,0,0,0,0,0,0,47,0,0,0,0,0,0,0,0,0,0,0,0,0,0,0,0,0,0,0,0,0,0,0,0,0,0,0,0,0,0,0,0,0,0,0,48,0,0,0,0,0,0,0,0,0,0,0,0,0,0,0,
0,0,0,0,0,0,0,0,0,0,0,0,0,0,0,47,0,0,0,0,0,0,0,0,0,0,0,0,0,0,0,0,0,0,0,0,0,0,0,0,0,0,0,0,0,0,0,0,0,0,0,48,0,0,0,0,0,0,0,0,0,0,0,0,
0,0,0,0,0,0,47,0,0,0,0,0,0,0,0,0,0,0,47,0,0,0,0,0,0,0,0,0,0,0,0,0,0,0,0,0,0,0,0,0,0,0,0,0,0,0,0,0,0,0,0,0,0,0,48,0,0,0,0,0,0,0,0,0,
0,0,0,0,0,0,0,0,0,47,0,0,0,0,0,0,0,0,0,0,0,0,0,0,0,0,0,0,0,0,0,0,0,0,0,0,0,0,0,0,0,0,0,0,0,0,0,0,0,0,0,0,0,0,0,0,0,48,0,0,0,0,0,0,
0,0,0,0,0,0,0,0,0,0,0,0,0,0,0,0,0,0,0,0,0,0,0,0,0,0,0,0,0,0,0,0,0,0,0,0,0,0,0,0,0,0,0,0,0,0,0,0,0,0,0,0,0,0,0,0,0,0,0,0,0,0,0,0,
0,0,0,0,0,0,0,0,0,0,0,0,0,0,0,0,0,0,0,0,0,0,0,0,0,0,0,0,0,0,0,0,0,0,0,0,0,0,0,0,0,0,0,0,0,0,0,0,0,0,0,0,0,0,0,0,0,0,0,0,0,0,0,0,
0,0,0,0,0,0,0,0,0,0,0,0,0,0,0,0,0,0,0,0,0,0,0,0,0,0,0,0,0,0,0,0,0,0,0,0,0,0,0,0,0,0,0,0,0,0,0,0,0,0,0,0,0,0,0,0,0,0,0,0,0,0,0,0,
0,0,0,0,0,0,0,0,0,0,0,0,0,0,0,0,0,0,0,0,0,0,0,0,0,0,0,0,0,0,0,0,0,0,0,0,0,0,0,0,0,0,0,0,0,0,0,0,0,0,0,0,0,0,0,0,0,0,0,0,0,0,0,0,
0,0,0,0,0,0,0,0,0,0,0,0,0,0,0,0,0,0,0,0,0,0,0,0,0,0,0,0,0,0,0,0,0,0,0,0,0,0,0,0,0,0,0,0,0,0,0,0,0,0,0,0,0,0,0,0,0,0,0,0,0,0,0,0,
0,0,0,0,0,0,0,0,0,0,0,0,0,0,0,0,0,0,0,0,0,0,0,0,0,0,0,0,0,0,0,0,0,0,0,0,0,0,0,0,0,0,0,0,0,0,0,0,0,0,0,0,0,0,0,0,0,0,0,0,0,0,0,0,
0,0,0,0,0,0,0,0,0,0,0,0,0,0,0,0,0,0,0,0,0,0,0,0,0,0,0,0,0,0,0,0,0,0,0,0,0,0,0,0,0,0,0,0,0,0,0,0,0,0,0,0,0,0,0,0,0,0,0,0,0,0,0,0,
0,0,0,0,0,0,0,0,0,0,0,0,0,0,0,0,0,0,0,0,0,0,0,0,0,0,0,0,0,0,0,0,0,0,0,0,0,0,0,0,0,0,0,0,0,0,0,0,0,0,0,0,0,0,0,0,0,0,0,0,0,0,0,0,
0,0,0,0,0,0,38,0,0,0,0,0,0,0,0,0,0,0,0,0,0,0,0,0,0,0,0,0,0,0,0,0,0,0,0,0,0,0,0,0,0,0,0,0,0,0,0,0,0,0,36,0,0,0,0,0,0,0,0,0,0,0,0,0,
0,0,0,0,0,0,0,0,0,36,0,0,0,0,0,0,0,0,0,0,0,0,0,0,0,0,0,0,0,0,0,0,0,0,0,0,0,0,0,0,0,0,0,0,0,0,0,0,0,0,0,0,0,0,0,0,0,0,0,0,0,0,0,0,
0,0,0,0,0,0,0,0,0,0,0,0,0,0,0,0,0,0,0,0,0,0,0,0,0,0,0,0,0,0,0,0,0,0,0,0,0,0,0,0,0,0,0,0,0,0,0,0,0,0,0,0,0,0,0,0,0,0,0,0,0,0,0,0,
0,0,0,0,0,0,0,0,0,0,0,0,0,0,0,0,0,0,0,0,0,0,0,0,0,0,0,0,0,0,0,0,0,0,0,0,0,0,0,0,0,0,0,0,0,0,0,0,0,0,0,0,0,0,0,0,0,0,0,0,0,0,0,0,
0,0,0,0,0,0,0,0,0,0,0,0,0,0,0,0,0,0,0,0,0,0,0,0,48,0,0,0,0,0,0,0,0,0,0,0,0,0,0,0,0,0,0,0,0,0,0,0,47,0,0,0,0,0,0,0,0,0,0,0,0,0,0,0,
0,0,0,0,0,0,0,0,0,0,0,0,0,0,0,48,0,0,0,0,0,0,0,0,0,0,0,0,0,0,0,0,0,0,0,0,0,0,0,0,36,0,0,0,0,0,0,0,0,0,0,47,0,0,0,0,0,0,0,0,0,0,0,0,
0,0,0,0,0,0,0,0,0,0,0,0,0,0,0,36,0,0,48,0,0,0,0,0,0,0,0,0,0,0,0,0,0,0,0,0,0,0,0,0,0,0,0,0,0,0,0,0,0,0,0,0,0,0,47,0,0,0,0,0,0,0,0,0,
0,0,0,0,0,0,0,0,0,48,0,0,0,0,0,0,0,0,0,0,0,48,0,0,0,0,0,0,0,0,0,0,0,0,0,0,0,0,0,0,0,0,0,0,0,47,0,0,0,0,0,0,0,0,0,0,0,0,0,0,0,0,0,0,
0,0,0,0,0,0,0,0,0,0,0,0,48,0,0,0,0,0,0,0,0,0,0,0,48,0,0,0,0,0,0,0,0,0,0,0,0,0,0,0,0,0,0,0,0,0,0,0,47,0,0,0,0,0,0,0,0,0,0,0,0,0,0,0,
0,0,0,0,0,0,0,0,0,0,0,0,0,0,0,48,0,0,0,0,0,0,0,0,0,0,0,0,0,0,0,0,0,0,0,0,0,0,0,0,0,0,0,0,0,0,0,0,0,0,0,47,0,0,0,0,0,0,0,0,0,0,0,0,
0,0,0,0,0,0,0,0,0,0,0,0,0,0,0,0,0,0,48,0,0,0,0,0,0,0,0,0,0,0,0,0,0,36,0,0,0,0,0,0,0,0,0,36,0,0,0,0,0,0,0,0,0,0,47,0,0,0,0,0,0,0,0,0,
0,0,0,0,0,0,0,0,0,48,0,0,36,0,0,0,0,0,0,0,0,48,0,0,0,0,0,0,0,0,0,0,0,0,0,0,0,0,0,0,0,0,0,0,0,47,0,0,0,0,0,0,36,0,0,0,0,0,0,0,0,0,0,0,
0,0,0,0,0,0,0,36,0,0,0,0,0,0,0,0,0,0,0,0,0,0,0,0,0,0,0,0,0,0,0,0,0,0,0,0,0,0,0,0,0,0,0,0,0,0,0,36,0,0,0,0,0,0,0,0,0,0,0,0,0,0,0,0,
0,0,36,0,0,0,0,0,0,0,0,0,0,0,0,0,0,0,0,0,0,0,36,0,0,0,0,0,0,0,0,0,0,0,0,0,0,0,0,0,0,0,0,0,0,0,0,0,0,0,0,0,0,0,0,0,0,0,0,0,0,0,36,0,
0,0,0,0,0,0,0,0,0,0,0,0,0,0,0,0,0,36,0,0,0,0,0,0,0,36,0,0,0,0,0,0,0,0,0,0,0,0,38,0,0,0,0,0,0,0,0,0,0,0,0,0,0,0,0,0,0,36,0,0,0,0,0,0,
0,0,0,0,0,0,0,0,0,0,0,0,0,0,0,0,0,0,0,0,0,0,0,0,0,0,0,0,0,0,0,0,0,0,0,0,0,0,0,0,0,0,0,0,0,0,0,0,0,0,0,0,0,0,0,0,0,0,0,0,0,0,0,0,
0,0,0,0,0,0,0,0,0,0,0,0,0,0,0,0,0,0,0,0,0,0,0,0,0,0,0,0,0,0,0,0,0,0,0,0,0,0,0,0,0,0,0,0,0,0,0,0,0,0,0,0,0,0,0,0,0,0,0,0,0,0,0,0,
0,0,0,0,0,0,0,0,0,0,0,0,0,0,0,0,0,0,0,0,0,0,0,0,0,0,0,0,0,0,0,0,0,0,0,0,0,0,0,0,0,0,0,0,0,0,0,0,0,0,0,0,0,0,0,0,0,0,0,0,0,0,0,0
  </data>
 </layer>
 <layer id="8" name="Collision" width="64" height="40" visible="0">
  <data encoding="csv">
0,0,0,0,0,0,0,0,0,0,0,0,0,0,0,0,0,0,0,0,0,0,0,0,0,0,0,0,0,0,0,0,38,0,0,0,0,0,0,0,0,0,0,0,0,0,0,0,0,0,0,0,0,0,0,0,0,0,0,0,0,0,0,0,
0,0,0,0,0,0,0,0,0,0,0,0,0,0,0,0,0,0,0,0,0,0,0,0,0,0,0,0,0,0,0,0,0,0,0,0,0,0,0,0,0,0,0,0,0,0,0,0,0,0,0,0,0,0,0,0,0,0,0,0,0,0,0,0,
0,0,0,0,0,0,0,0,0,0,0,0,0,0,0,0,0,0,0,0,0,0,0,0,0,0,0,0,0,0,0,0,0,0,0,0,0,0,0,0,0,0,0,0,0,0,0,0,0,0,0,0,0,0,0,0,0,0,0,0,0,0,0,0,
0,0,0,0,0,0,0,0,0,0,0,0,0,0,0,0,0,0,0,0,0,0,0,0,0,0,0,0,0,0,0,0,0,0,0,0,0,0,0,0,0,0,0,0,0,0,0,0,0,0,0,0,0,0,0,0,0,0,0,0,0,0,0,0,
0,0,0,0,0,0,0,0,0,0,0,0,0,0,0,0,0,0,0,0,0,0,0,0,0,0,0,0,0,0,0,0,0,0,0,0,0,0,0,0,0,0,0,0,0,0,0,0,0,0,0,0,0,0,0,0,0,0,0,0,0,0,0,0,
0,0,0,0,0,0,0,0,0,0,0,0,0,0,0,0,0,0,0,0,0,0,0,0,0,0,0,0,0,0,0,0,0,0,0,0,0,0,0,0,0,0,0,0,0,0,0,0,0,0,0,0,0,0,0,0,0,0,0,0,0,0,0,0,
0,0,0,0,0,0,0,0,0,0,0,0,0,0,0,0,0,0,0,0,0,0,0,0,0,0,0,0,0,0,0,0,0,0,0,0,0,0,0,0,0,0,0,0,0,0,0,0,0,0,0,0,0,0,0,0,0,0,0,0,0,0,0,0,
0,0,0,0,0,0,0,0,0,0,0,0,0,0,0,0,0,0,0,0,0,0,0,0,0,0,0,0,0,0,0,0,0,0,0,0,0,0,0,0,0,0,0,0,0,0,0,0,0,0,0,0,0,0,0,0,0,0,0,0,0,0,0,0,
0,0,0,0,0,0,0,0,0,0,0,0,0,0,0,0,0,0,0,0,0,0,0,0,0,0,0,0,0,0,0,0,0,0,0,0,0,0,0,0,0,0,0,0,0,0,0,0,0,0,0,0,0,0,0,0,0,0,0,0,0,0,0,0,
0,0,0,0,0,0,0,0,0,0,0,0,0,0,0,0,0,0,0,0,0,0,0,0,0,0,0,0,0,0,0,0,0,0,0,0,0,0,0,0,0,0,0,0,0,0,0,0,0,0,0,0,0,0,0,0,0,0,0,0,0,0,0,0,
0,0,0,0,0,0,0,0,0,0,0,0,0,0,0,0,0,0,0,0,0,0,0,0,0,0,0,0,0,0,0,0,0,0,0,0,0,0,0,0,0,0,0,0,0,0,0,0,0,0,0,0,0,0,0,0,0,0,0,0,0,0,0,0,
0,0,0,0,0,0,0,0,0,0,0,0,0,0,0,0,0,0,0,0,0,0,0,0,0,0,0,0,0,0,0,0,0,0,0,0,0,0,0,0,0,0,0,0,0,0,0,0,0,0,0,0,0,0,0,0,0,0,0,0,0,0,0,0,
0,0,0,0,0,0,0,0,0,0,0,0,0,0,0,0,0,0,0,0,0,0,0,0,0,0,0,0,0,0,0,0,0,0,0,0,0,0,0,0,0,0,0,0,0,0,0,0,0,0,0,0,0,0,0,0,0,0,0,0,0,0,0,0,
0,0,0,0,0,0,0,0,0,0,0,0,0,0,0,0,0,0,0,0,0,0,0,0,0,0,0,0,0,0,0,0,0,0,0,0,0,0,0,0,0,0,0,38,0,0,0,0,0,0,0,0,0,0,0,0,0,0,0,0,0,0,0,0,
0,0,0,0,0,0,0,0,0,0,0,0,0,0,0,0,0,0,0,0,0,0,0,0,0,0,0,0,0,0,38,0,0,0,0,0,0,0,0,0,38,0,0,0,0,0,0,0,0,0,0,0,0,0,0,0,0,0,0,0,0,0,0,0,
0,0,0,0,0,0,0,0,0,0,0,0,0,0,0,0,0,0,0,0,0,0,0,0,0,0,0,0,0,0,0,0,0,0,0,0,0,0,0,0,0,0,0,0,0,0,0,0,0,0,0,0,0,0,0,0,0,38,0,0,0,0,0,0,
0,0,0,0,0,0,0,0,0,0,0,0,0,0,0,0,0,0,0,0,0,0,0,0,38,0,0,0,0,0,0,0,0,0,0,0,0,0,0,0,0,0,0,0,0,0,0,38,0,0,0,0,0,0,0,0,0,0,0,0,0,0,0,0,
0,0,0,0,0,0,0,0,0,0,0,0,0,0,0,0,0,0,0,0,0,38,0,0,0,0,0,0,0,0,0,0,0,0,0,0,0,0,0,0,0,0,0,0,0,0,0,0,0,0,0,0,0,0,0,0,0,0,0,0,0,0,0,0,
0,0,0,0,0,0,0,0,0,0,0,0,0,0,0,0,0,0,0,0,0,0,0,0,0,0,0,0,0,38,0,0,0,0,0,38,0,0,0,38,0,0,0,0,0,0,0,0,0,0,0,0,0,0,0,0,0,0,0,0,0,0,0,0,
0,0,0,0,0,0,0,0,38,0,0,0,0,0,0,0,0,0,0,0,0,0,0,0,0,0,0,0,0,0,38,0,0,0,0,0,0,0,0,0,0,0,0,0,0,0,0,0,0,0,0,0,0,0,0,0,0,0,0,0,0,0,0,0,
38,0,0,0,0,0,0,0,0,0,0,0,0,0,0,0,0,0,0,0,0,0,0,0,0,0,0,0,0,0,0,0,0,0,0,0,0,0,0,0,0,0,38,0,0,0,0,0,0,0,38,0,0,0,0,0,0,0,0,0,0,0,0,38,
0,0,0,0,0,0,0,0,0,0,0,0,0,0,0,0,0,0,38,0,0,0,0,0,0,0,0,0,0,0,0,0,0,0,0,0,0,0,0,0,0,0,0,0,0,0,0,0,0,0,0,0,0,0,0,0,0,0,0,0,0,0,0,0,
0,0,0,0,0,0,38,0,0,0,0,0,0,0,0,0,0,38,0,0,0,0,0,0,0,0,0,0,0,0,0,0,0,0,0,0,0,0,0,0,0,0,0,0,0,0,0,0,0,0,0,0,0,0,0,0,0,0,0,0,0,0,0,0,
0,0,0,0,0,0,0,0,0,0,0,0,0,0,0,0,0,0,0,0,0,0,0,0,0,0,0,0,0,0,0,0,0,0,0,0,0,0,0,38,0,0,0,0,0,0,0,0,0,0,0,0,0,0,0,0,0,0,0,0,0,0,0,0,
0,0,0,0,0,0,0,0,0,0,0,0,0,0,0,0,0,0,0,0,0,0,0,0,0,0,0,0,0,0,0,0,0,38,0,0,0,0,0,0,0,38,0,0,0,0,0,0,0,0,0,0,0,0,38,0,0,0,0,0,0,0,0,0,
0,0,0,0,0,0,0,0,0,0,0,0,0,0,0,0,0,0,0,0,0,0,0,0,0,0,38,0,0,0,0,0,0,0,0,0,0,0,0,0,0,0,0,0,0,0,0,0,0,38,0,0,0,0,0,0,0,0,0,0,0,0,0,0,
0,0,0,0,0,0,0,0,0,0,0,0,0,0,0,0,0,0,0,0,0,0,0,0,0,0,0,0,0,0,0,0,0,0,0,0,0,0,0,0,0,0,0,0,0,0,0,0,0,0,0,0,0,0,0,0,0,0,0,0,0,0,0,0,
0,0,0,0,0,0,0,0,0,0,0,0,0,0,38,0,0,0,0,0,0,0,0,0,0,0,0,0,0,0,0,0,0,0,0,0,0,0,0,0,0,0,0,0,0,0,0,0,0,0,0,0,0,0,0,0,0,0,0,0,0,0,0,0,
0,0,0,0,0,0,0,0,0,0,0,0,0,0,0,0,0,0,0,0,0,0,0,0,38,0,0,0,0,0,0,0,0,0,0,0,0,0,0,0,0,0,0,0,0,0,0,0,0,0,38,0,0,0,0,0,0,0,0,0,0,0,0,0,
0,0,0,0,0,0,0,0,0,0,0,0,0,0,0,0,0,0,0,0,0,0,0,0,0,0,0,0,0,0,0,0,0,0,0,0,0,0,0,0,0,0,0,0,0,0,0,0,0,0,0,0,0,0,0,0,0,0,0,0,0,0,0,0,
0,0,0,0,0,0,0,0,0,0,0,0,0,0,38,0,0,0,0,0,0,0,0,0,0,0,0,0,0,0,0,0,0,0,0,0,0,0,0,0,0,0,0,0,0,0,0,0,0,0,0,0,0,0,0,0,0,0,0,0,0,0,0,0,
0,0,0,0,0,0,0,0,0,0,0,0,0,0,0,0,0,0,0,0,0,0,0,0,0,0,0,0,0,0,0,0,0,0,0,0,0,0,0,0,0,0,0,0,0,0,0,0,0,0,0,0,0,0,0,0,0,0,0,0,0,0,0,0,
0,0,0,0,0,0,0,0,0,0,0,0,0,0,0,0,0,0,0,0,0,0,0,0,0,0,0,0,0,0,0,0,0,0,0,0,0,0,0,0,0,0,0,0,0,0,0,0,0,0,0,0,0,0,0,0,0,0,0,0,0,0,0,0,
0,0,0,0,0,0,0,0,0,0,0,0,0,0,0,0,0,0,0,0,0,0,0,0,0,0,0,0,0,0,0,0,0,0,0,0,0,0,0,0,0,0,0,0,0,0,0,0,0,0,0,0,0,0,0,0,0,0,0,0,0,0,0,0,
0,0,0,0,0,0,0,0,0,0,0,0,0,0,0,0,0,0,0,0,0,0,0,0,0,0,0,0,0,0,0,0,0,0,0,0,0,0,0,0,0,0,0,0,0,0,0,0,0,0,0,0,0,0,0,0,0,0,0,0,0,0,0,0,
0,0,0,0,0,0,0,0,0,0,0,0,0,0,0,0,0,0,0,0,0,0,0,0,0,0,0,0,0,0,0,0,0,0,0,0,0,0,0,0,0,0,0,0,0,0,0,0,0,0,0,0,0,0,0,0,0,0,0,0,0,0,0,0,
0,0,0,0,0,0,0,0,0,0,0,0,0,0,0,0,0,0,0,0,0,0,0,0,0,0,0,0,0,0,0,0,0,0,0,0,0,0,38,0,0,0,0,0,0,0,0,0,0,0,0,0,0,0,0,0,0,0,0,0,0,0,0,0,
0,0,0,0,0,0,0,0,0,0,0,0,0,0,0,0,0,0,0,0,0,0,0,0,0,0,0,0,0,0,0,0,0,0,0,0,0,0,0,0,0,0,0,0,0,0,0,0,0,0,0,0,0,0,0,0,0,0,0,0,0,0,0,0,
0,0,0,0,0,0,0,0,0,0,0,0,0,0,0,0,0,0,0,0,0,0,0,0,0,0,0,0,0,0,0,0,0,0,0,0,0,0,0,0,0,0,0,0,0,0,0,0,0,0,0,0,0,0,0,0,0,0,0,0,0,0,0,0,
0,0,0,0,0,0,0,0,0,0,0,0,0,0,0,0,0,0,0,0,0,0,0,0,0,0,0,0,0,0,0,0,38,0,0,0,0,0,0,0,0,0,0,0,0,0,0,0,0,0,0,0,0,0,0,0,0,0,0,0,0,0,0,0
  </data>
 </layer>
 <objectgroup id="9" name="RigidBodies" visible="0">
  <object id="1" name="crash_ship_core" type="solid" x="1548" y="-323.50" width="360" height="135">
   <properties>
    <property name="worldX" type="float" value="1548"/>
    <property name="worldY" type="float" value="-323.50"/>
    <property name="worldWidth" type="float" value="360"/>
    <property name="worldHeight" type="float" value="135"/>
   </properties>
  </object>
  <object id="2" name="crash_left_wing" type="solid" x="1527.50" y="-192" width="145" height="64">
   <properties>
    <property name="worldX" type="float" value="1527.50"/>
    <property name="worldY" type="float" value="-192"/>
    <property name="worldWidth" type="float" value="145"/>
    <property name="worldHeight" type="float" value="64"/>
   </properties>
  </object>
  <object id="3" name="crash_right_wing" type="solid" x="1783.50" y="-352" width="145" height="64">
   <properties>
    <property name="worldX" type="float" value="1783.50"/>
    <property name="worldY" type="float" value="-352"/>
    <property name="worldWidth" type="float" value="145"/>
    <property name="worldHeight" type="float" value="64"/>
   </properties>
  </object>
  <object id="4" name="broken_fence_west" type="solid" x="1235" y="83" width="90" height="26">
   <properties>
    <property name="worldX" type="float" value="1235"/>
    <property name="worldY" type="float" value="83"/>
    <property name="worldWidth" type="float" value="90"/>
    <property name="worldHeight" type="float" value="26"/>
   </properties>
  </object>
  <object id="5" name="broken_fence_west_2" type="solid" x="1235" y="51" width="90" height="26">
   <properties>
    <property name="worldX" type="float" value="1235"/>
    <property name="worldY" type="float" value="51"/>
    <property name="worldWidth" type="float" value="90"/>
    <property name="worldHeight" type="float" value="26"/>
   </properties>
  </object>
  <object id="6" name="broken_fence_east" type="solid" x="2003" y="-493" width="90" height="26">
   <properties>
    <property name="worldX" type="float" value="2003"/>
    <property name="worldY" type="float" value="-493"/>
    <property name="worldWidth" type="float" value="90"/>
    <property name="worldHeight" type="float" value="26"/>
   </properties>
  </object>
  <object id="7" name="old_signpost" type="solid" x="2254.50" y="-478" width="35" height="28">
   <properties>
    <property name="worldX" type="float" value="2254.50"/>
    <property name="worldY" type="float" value="-478"/>
    <property name="worldWidth" type="float" value="35"/>
    <property name="worldHeight" type="float" value="28"/>
   </properties>
  </object>
  <object id="8" name="hay_bale_path" type="solid" x="1667" y="63" width="58" height="34">
   <properties>
    <property name="worldX" type="float" value="1667"/>
    <property name="worldY" type="float" value="63"/>
    <property name="worldWidth" type="float" value="58"/>
    <property name="worldHeight" type="float" value="34"/>
   </properties>
  </object>
  <object id="9" name="hay_bale_exit" type="solid" x="2499" y="-481" width="58" height="34">
   <properties>
    <property name="worldX" type="float" value="2499"/>
    <property name="worldY" type="float" value="-481"/>
    <property name="worldWidth" type="float" value="58"/>
    <property name="worldHeight" type="float" value="34"/>
   </properties>
  </object>
  <object id="10" name="rocks_21_17" type="solid" x="1219" y="-65" width="58" height="34">
   <properties>
    <property name="worldX" type="float" value="1219"/>
    <property name="worldY" type="float" value="-65"/>
    <property name="worldWidth" type="float" value="58"/>
    <property name="worldHeight" type="float" value="34"/>
   </properties>
  </object>
  <object id="11" name="rocks_24_16" type="solid" x="1283" y="-129" width="58" height="34">
   <properties>
    <property name="worldX" type="float" value="1283"/>
    <property name="worldY" type="float" value="-129"/>
    <property name="worldWidth" type="float" value="58"/>
    <property name="worldHeight" type="float" value="34"/>
   </properties>
  </object>
  <object id="12" name="rocks_26_25" type="solid" x="1635" y="-17" width="58" height="34">
   <properties>
    <property name="worldX" type="float" value="1635"/>
    <property name="worldY" type="float" value="-17"/>
    <property name="worldWidth" type="float" value="58"/>
    <property name="worldHeight" type="float" value="34"/>
   </properties>
  </object>
  <object id="13" name="rocks_43_13" type="solid" x="1795" y="-481" width="58" height="34">
   <properties>
    <property name="worldX" type="float" value="1795"/>
    <property name="worldY" type="float" value="-481"/>
    <property name="worldWidth" type="float" value="58"/>
    <property name="worldHeight" type="float" value="34"/>
   </properties>
  </object>
  <object id="14" name="rocks_49_25" type="solid" x="2371" y="-385" width="58" height="34">
   <properties>
    <property name="worldX" type="float" value="2371"/>
    <property name="worldY" type="float" value="-385"/>
    <property name="worldWidth" type="float" value="58"/>
    <property name="worldHeight" type="float" value="34"/>
   </properties>
  </object>
  <object id="15" name="rocks_14_30" type="solid" x="1411" y="255" width="58" height="34">
   <properties>
    <property name="worldX" type="float" value="1411"/>
    <property name="worldY" type="float" value="255"/>
    <property name="worldWidth" type="float" value="58"/>
    <property name="worldHeight" type="float" value="34"/>
   </properties>
  </object>
  <object id="16" name="rocks_57_15" type="solid" x="2307" y="-673" width="58" height="34">
   <properties>
    <property name="worldX" type="float" value="2307"/>
    <property name="worldY" type="float" value="-673"/>
    <property name="worldWidth" type="float" value="58"/>
    <property name="worldHeight" type="float" value="34"/>
   </properties>
  </object>
  <object id="17" name="alien_shard_large_8_19" type="solid" x="863" y="173" width="66" height="38">
   <properties>
    <property name="worldX" type="float" value="863"/>
    <property name="worldY" type="float" value="173"/>
    <property name="worldWidth" type="float" value="66"/>
    <property name="worldHeight" type="float" value="38"/>
   </properties>
  </object>
  <object id="18" name="alien_shard_small_41_24" type="solid" x="2092" y="-270" width="40" height="28">
   <properties>
    <property name="worldX" type="float" value="2092"/>
    <property name="worldY" type="float" value="-270"/>
    <property name="worldWidth" type="float" value="40"/>
    <property name="worldHeight" type="float" value="28"/>
   </properties>
  </object>
  <object id="19" name="metal_shard_marker_30_14" type="solid" x="1421" y="-253" width="38" height="26">
   <properties>
    <property name="worldX" type="float" value="1421"/>
    <property name="worldY" type="float" value="-253"/>
    <property name="worldWidth" type="float" value="38"/>
    <property name="worldHeight" type="float" value="26"/>
   </properties>
  </object>
  <object id="20" name="metal_shard_marker_39_23" type="solid" x="1997" y="-253" width="38" height="26">
   <properties>
    <property name="worldX" type="float" value="1997"/>
    <property name="worldY" type="float" value="-253"/>
    <property name="worldWidth" type="float" value="38"/>
    <property name="worldHeight" type="float" value="26"/>
   </properties>
  </object>
  <object id="21" name="glow_crystal_west" type="solid" x="1515" y="-178" width="42" height="36">
   <properties>
    <property name="worldX" type="float" value="1515"/>
    <property name="worldY" type="float" value="-178"/>
    <property name="worldWidth" type="float" value="42"/>
    <property name="worldHeight" type="float" value="36"/>
   </properties>
  </object>
  <object id="22" name="glow_crystal_east" type="solid" x="1995" y="-354" width="42" height="36">
   <properties>
    <property name="worldX" type="float" value="1995"/>
    <property name="worldY" type="float" value="-354"/>
    <property name="worldWidth" type="float" value="42"/>
    <property name="worldHeight" type="float" value="36"/>
   </properties>
  </object>
  <object id="23" name="metal_fragment_south" type="solid" x="1835" y="-142" width="42" height="28">
   <properties>
    <property name="worldX" type="float" value="1835"/>
    <property name="worldY" type="float" value="-142"/>
    <property name="worldWidth" type="float" value="42"/>
    <property name="worldHeight" type="float" value="28"/>
   </properties>
  </object>
  <object id="24" name="alien_fragment_north" type="solid" x="1726" y="-419" width="68" height="38">
   <properties>
    <property name="worldX" type="float" value="1726"/>
    <property name="worldY" type="float" value="-419"/>
    <property name="worldWidth" type="float" value="68"/>
    <property name="worldHeight" type="float" value="38"/>
   </properties>
  </object>
  <object id="25" name="rocks_scatter_7" type="solid" x="2502" y="-351" width="52" height="30">
   <properties>
    <property name="worldX" type="float" value="2502"/>
    <property name="worldY" type="float" value="-351"/>
    <property name="worldWidth" type="float" value="52"/>
    <property name="worldHeight" type="float" value="30"/>
   </properties>
  </object>
  <object id="26" name="rocks_scatter_21" type="solid" x="902" y="257" width="52" height="30">
   <properties>
    <property name="worldX" type="float" value="902"/>
    <property name="worldY" type="float" value="257"/>
    <property name="worldWidth" type="float" value="52"/>
    <property name="worldHeight" type="float" value="30"/>
   </properties>
  </object>
  <object id="27" name="rocks_scatter_28" type="solid" x="1318" y="209" width="52" height="30">
   <properties>
    <property name="worldX" type="float" value="1318"/>
    <property name="worldY" type="float" value="209"/>
    <property name="worldWidth" type="float" value="52"/>
    <property name="worldHeight" type="float" value="30"/>
   </properties>
  </object>
  <object id="28" name="rocks_scatter_42" type="solid" x="2374" y="-31" width="52" height="30">
   <properties>
    <property name="worldX" type="float" value="2374"/>
    <property name="worldY" type="float" value="-31"/>
    <property name="worldWidth" type="float" value="52"/>
    <property name="worldHeight" type="float" value="30"/>
   </properties>
  </object>
  <object id="29" name="north_bound" type="boundary" x="640" y="112" width="3328" height="32">
   <properties>
    <property name="worldX" type="float" value="640"/>
    <property name="worldY" type="float" value="112"/>
    <property name="worldWidth" type="float" value="3328"/>
    <property name="worldHeight" type="float" value="32"/>
   </properties>
  </object>
  <object id="30" name="south_bound" type="boundary" x="-608" y="-512" width="3328" height="32">
   <properties>
    <property name="worldX" type="float" value="-608"/>
    <property name="worldY" type="float" value="-512"/>
    <property name="worldWidth" type="float" value="3328"/>
    <property name="worldHeight" type="float" value="32"/>
   </properties>
  </object>
  <object id="31" name="west_bound" type="boundary" x="656" y="-304" width="32" height="1280">
   <properties>
    <property name="worldX" type="float" value="656"/>
    <property name="worldY" type="float" value="-304"/>
    <property name="worldWidth" type="float" value="32"/>
    <property name="worldHeight" type="float" value="1280"/>
   </properties>
  </object>
  <object id="32" name="east_bound" type="boundary" x="2672" y="-1312" width="32" height="1280">
   <properties>
    <property name="worldX" type="float" value="2672"/>
    <property name="worldY" type="float" value="-1312"/>
    <property name="worldWidth" type="float" value="32"/>
    <property name="worldHeight" type="float" value="1280"/>
   </properties>
  </object>
 </objectgroup>
 <objectgroup id="10" name="Markers" visible="0">
  <object id="2001" name="crash_core_interact" type="interact" x="1776" y="-236" width="96" height="56">
   <properties>
    <property name="worldX" type="float" value="1776"/>
    <property name="worldY" type="float" value="-236"/>
    <property name="worldWidth" type="float" value="96"/>
    <property name="worldHeight" type="float" value="56"/>
    <property name="marker" type="bool" value="true"/>
   </properties>
  </object>
  <object id="2002" name="player_spawn" type="spawn" x="1102" y="350" width="36" height="36">
   <properties>
    <property name="worldX" type="float" value="1102"/>
    <property name="worldY" type="float" value="350"/>
    <property name="worldWidth" type="float" value="36"/>
    <property name="worldHeight" type="float" value="36"/>
    <property name="marker" type="bool" value="true"/>
   </properties>
  </object>
  <object id="2003" name="enemy_spawn_north_field" type="enemy_spawn" x="1708" y="-596" width="40" height="40">
   <properties>
    <property name="worldX" type="float" value="1708"/>
    <property name="worldY" type="float" value="-596"/>
    <property name="worldWidth" type="float" value="40"/>
    <property name="worldHeight" type="float" value="40"/>
    <property name="marker" type="bool" value="true"/>
   </properties>
  </object>
  <object id="2004" name="enemy_spawn_south_field" type="enemy_spawn" x="2508" y="-324" width="40" height="40">
   <properties>
    <property name="worldX" type="float" value="2508"/>
    <property name="worldY" type="float" value="-324"/>
    <property name="worldWidth" type="float" value="40"/>
    <property name="worldHeight" type="float" value="40"/>
    <property name="marker" type="bool" value="true"/>
   </properties>
  </object>
  <object id="2005" name="enemy_spawn_crash_edge" type="enemy_spawn" x="1356" y="-196" width="40" height="40">
   <properties>
    <property name="worldX" type="float" value="1356"/>
    <property name="worldY" type="float" value="-196"/>
    <property name="worldWidth" type="float" value="40"/>
    <property name="worldHeight" type="float" value="40"/>
    <property name="marker" type="bool" value="true"/>
   </properties>
  </object>
  <object id="2006" name="exit_to_level_02" type="exit" x="2496" y="-656" width="64" height="64">
   <properties>
    <property name="worldX" type="float" value="2496"/>
    <property name="worldY" type="float" value="-656"/>
    <property name="worldWidth" type="float" value="64"/>
    <property name="worldHeight" type="float" value="64"/>
    <property name="marker" type="bool" value="true"/>
   </properties>
  </object>
 </objectgroup>
</map>
