<?xml version="1.0" encoding="UTF-8"?>
<map version="1.10" tiledversion="1.12.1" orientation="isometric" renderorder="right-down" width="128" height="64" tilewidth="256" tileheight="128" infinite="0" nextlayerid="11" nextobjectid="719">
 <tileset firstgid="1" source="Tiles/Sand1.tsx"/>
 <tileset firstgid="2" source="Tiles/Acacia Style Trees Patch 2z2 A-red.tsx"/>
 <tileset firstgid="3" source="Tiles/Acacia Style Trees Patch 2z2 B-red.tsx"/>
 <tileset firstgid="4" source="Tiles/Dersert Rocks - Size 3A - dark.tsx"/>
 <tileset firstgid="5" source="Tiles/Building F1.2 sz1 noshadow.tsx"/>
 <tileset firstgid="6" source="Tiles/Building A1.2 sz2 shadow.tsx"/>
 <tileset firstgid="7" source="Tiles/Building D1.2 sz1 shadow.tsx"/>
 <tileset firstgid="8" source="Tiles/Building E1.2 sz3 shadow.tsx"/>
 <tileset firstgid="9" source="Tiles/Building H1.2 sz1 shadow.tsx"/>
 <tileset firstgid="10" source="Tiles/Rail Segment 2.2.tsx"/>
 <tileset firstgid="11" source="Tiles/Desert Small Rockpile- Dif terrain D - light.tsx"/>
 <tileset firstgid="12" source="Tiles/Desert_terrain_l_Objective-Crashed Aerostatic-sz1-0.1.tsx"/>
 <tileset firstgid="13" source="Tiles/Sand Patch Large B - medium.tsx"/>
 <tileset firstgid="14" source="Tiles/Giant Cactus Patch 2x2 A-ii-red.tsx"/>
 <tileset firstgid="15" source="Tiles/Giant Cactus Patch 2x2 C-i-violet.tsx"/>
 <tileset firstgid="16" source="Tiles/PrefabTower - Size 2.tsx"/>
 <tileset firstgid="17" source="Tiles/Prefab Wall SW - 3x1 - Size 1.tsx"/>
 <tileset firstgid="18" source="Tiles/Prefab Wall NE - 3x1 - Size 1.tsx"/>
 <tileset firstgid="19" source="Tiles/Prefab Wall SE - 3x1 - Size 1.tsx"/>
 <tileset firstgid="20" source="Tiles/MillenniumFalconVersoEast.tsx"/>
 <tileset firstgid="21" source="Tiles/Sand2.tsx"/>
 <layer id="1" name="terreno" width="128" height="64" locked="1">
  <data encoding="csv">
1,1,1,1,1,1,1,1,1,1,1,1,1,1,1,1,1,1,1,1,1,1,1,1,1,1,1,1,1,1,1,1,1,1,1,1,1,1,1,1,1,1,1,1,1,1,1,1,1,1,1,1,1,1,1,1,1,1,1,1,1,1,1,1,1,1,1,1,1,1,1,1,1,1,1,1,1,1,1,1,1,1,1,1,1,1,1,1,1,1,1,1,1,1,1,1,1,1,1,1,1,1,1,1,1,1,1,1,1,1,1,1,1,1,1,1,1,1,1,1,1,1,1,1,1,1,1,1,
1,1,1,1,1,1,1,1,1,1,1,1,1,1,1,1,1,1,1,1,1,1,1,1,1,1,1,1,1,1,1,1,1,1,1,1,1,1,1,1,1,1,1,1,1,1,1,1,1,1,1,1,1,1,1,1,1,1,1,1,1,1,1,1,1,1,1,1,1,1,1,1,1,1,1,1,1,1,1,1,1,1,1,1,1,1,1,1,1,1,1,1,1,1,1,1,1,1,1,1,1,1,1,1,1,1,1,1,1,1,1,1,1,1,1,1,1,1,1,1,1,1,1,1,1,1,1,1,
1,1,1,1,1,1,1,1,1,1,1,1,1,1,1,1,1,1,1,1,1,1,1,1,1,1,1,1,1,1,1,1,1,1,1,1,1,1,1,1,1,1,1,1,1,1,1,1,1,1,1,1,1,1,1,1,1,1,1,1,1,1,1,1,1,1,1,1,1,1,1,1,1,1,1,1,1,1,1,1,1,1,1,1,1,1,1,1,1,1,1,1,1,1,1,1,1,1,1,1,1,1,1,1,1,1,1,1,1,1,1,1,1,1,1,1,1,1,1,1,1,1,1,1,1,1,1,1,
1,1,1,1,1,1,1,1,1,1,1,1,1,1,1,1,1,1,1,1,1,1,1,1,1,1,1,1,1,1,1,1,1,1,1,1,1,1,1,1,1,1,1,1,1,1,1,1,1,1,1,1,1,1,1,1,1,1,1,1,1,1,1,1,1,1,1,1,1,1,1,1,1,1,1,1,1,1,1,1,1,1,1,1,1,1,1,1,1,1,1,1,1,1,1,1,1,1,1,1,1,1,1,1,1,1,1,1,1,1,1,1,1,1,1,1,1,1,1,1,1,1,1,1,1,1,1,1,
1,1,1,1,1,1,1,1,1,1,1,1,1,1,1,1,1,1,1,1,1,1,1,1,1,1,1,1,1,1,1,1,1,1,1,1,1,1,1,1,1,1,1,1,1,1,1,1,1,1,1,1,1,1,1,1,1,1,1,1,1,1,1,1,1,1,1,1,1,1,1,1,1,1,1,1,1,1,1,1,1,1,1,1,1,1,1,1,1,1,1,1,1,1,1,1,1,1,1,1,1,1,1,1,1,1,1,1,1,1,1,1,1,1,1,1,1,1,1,1,1,1,1,1,1,1,1,1,
1,1,1,1,1,1,1,1,1,1,1,1,1,1,1,1,1,1,1,1,1,1,1,1,1,1,1,1,1,1,1,1,1,1,1,1,1,1,1,1,1,1,1,1,1,1,1,1,1,1,1,1,1,1,1,1,1,1,1,1,1,1,1,1,1,1,1,1,1,1,1,1,1,1,1,1,1,1,1,1,1,1,1,1,1,1,1,1,1,1,1,1,1,1,1,1,1,1,1,1,1,1,1,1,1,1,1,1,1,1,1,1,1,1,1,1,1,1,1,1,1,1,1,1,1,1,1,1,
1,1,1,1,1,1,1,1,1,1,1,1,1,1,1,1,1,1,1,1,1,1,1,1,1,1,1,1,1,1,1,1,1,1,1,1,1,1,1,1,1,1,1,1,1,1,1,1,1,1,1,1,1,1,1,1,1,1,1,1,1,1,1,1,1,1,1,1,1,1,1,1,1,1,1,1,1,1,1,1,1,1,1,1,1,1,1,1,1,1,1,1,1,1,1,1,1,1,1,1,1,1,1,1,1,1,1,1,1,1,1,1,1,1,1,1,1,1,1,1,1,1,1,1,1,1,1,1,
1,1,1,1,1,1,1,1,1,1,1,1,1,1,1,1,1,1,1,1,1,1,1,1,1,1,1,1,1,1,1,1,1,1,1,1,1,1,1,1,1,1,1,1,1,1,1,1,1,1,1,1,1,1,1,1,1,1,1,1,1,1,1,1,1,1,1,1,1,1,1,1,1,1,1,1,1,1,1,1,1,1,1,1,1,1,1,1,1,1,1,1,1,1,1,1,1,1,1,1,1,1,1,1,1,1,1,1,1,1,1,1,1,1,1,1,1,1,1,1,1,1,1,1,1,1,1,1,
1,1,1,1,1,1,1,1,1,1,1,1,1,1,1,1,1,1,1,1,1,1,1,1,1,1,1,1,1,1,1,1,1,1,1,1,1,1,1,1,1,1,1,1,1,1,1,1,1,1,1,1,1,1,1,1,1,1,1,1,1,1,1,1,1,1,1,1,1,1,1,1,1,1,1,1,1,1,1,1,1,1,1,1,1,1,1,1,1,1,1,1,1,1,1,1,1,1,1,1,1,1,1,1,1,1,1,1,1,1,1,1,1,1,1,1,1,1,1,1,1,1,1,1,1,1,1,1,
1,1,1,1,1,1,1,1,1,1,1,1,1,1,1,1,1,1,1,1,1,1,1,1,1,1,1,1,1,1,1,1,1,1,1,1,1,1,1,1,1,1,1,1,1,1,1,1,1,1,1,1,1,1,1,1,1,1,1,1,1,1,1,1,1,1,1,1,1,1,1,1,1,1,1,1,1,1,1,1,1,1,1,1,1,1,1,1,1,1,1,1,1,1,1,1,1,1,1,1,1,1,1,1,1,1,1,1,1,1,1,1,1,1,1,1,1,1,1,1,1,1,1,1,1,1,1,1,
1,1,1,1,1,1,1,1,1,1,1,1,1,1,1,1,1,1,1,1,1,1,1,1,1,1,1,1,1,1,1,1,1,1,1,1,1,1,1,1,1,1,1,1,1,1,1,1,1,1,1,1,1,1,1,1,1,1,1,1,1,1,1,1,1,1,1,1,1,1,1,1,1,1,1,1,1,1,1,1,1,1,1,1,1,1,1,1,1,1,1,1,1,1,1,1,1,1,1,1,1,1,1,1,1,1,1,1,1,1,1,1,1,1,1,1,1,1,1,1,1,1,1,1,1,1,1,1,
1,1,1,1,1,1,1,1,1,1,1,1,1,1,1,1,1,1,1,1,1,1,1,1,1,1,1,1,1,1,1,1,1,1,1,1,1,1,1,1,1,1,1,1,1,1,1,1,1,1,1,1,1,1,1,1,1,1,1,1,1,1,1,1,1,1,1,1,1,1,1,1,1,1,1,1,1,1,1,1,1,1,1,1,1,1,1,1,1,1,1,1,1,1,1,1,1,1,1,1,1,1,1,1,1,1,1,1,1,1,1,1,1,1,1,1,1,1,1,1,1,1,1,1,1,1,1,1,
1,1,1,1,1,1,1,1,1,1,1,1,1,1,1,1,1,1,1,1,1,1,1,1,1,1,1,1,1,1,1,1,1,1,1,1,1,1,1,1,1,1,1,1,1,1,1,1,1,1,1,1,1,1,1,1,1,1,1,1,1,1,1,1,1,1,1,1,1,1,1,1,1,1,1,1,1,1,1,1,1,1,1,1,1,1,1,1,1,1,1,1,1,1,1,1,1,1,1,1,1,1,1,1,1,1,1,1,1,1,1,1,1,1,1,1,1,1,1,1,1,1,1,1,1,1,1,1,
1,1,1,1,1,1,1,1,1,1,1,1,1,1,1,1,1,1,1,1,1,1,1,1,1,1,1,1,1,1,1,1,1,1,1,1,1,1,1,1,1,1,1,1,1,1,1,1,1,1,1,1,1,1,1,1,1,1,1,1,1,1,1,1,1,1,1,1,1,1,1,1,1,1,1,1,1,1,1,1,1,1,1,1,1,1,1,1,1,1,1,1,1,1,1,1,1,1,1,1,1,1,1,1,1,1,1,1,1,1,1,1,1,1,1,1,1,1,1,1,1,1,1,1,1,1,1,1,
1,1,1,1,1,1,1,1,1,1,1,1,1,1,1,1,1,1,1,1,1,1,1,1,1,1,1,1,1,1,1,1,1,1,1,1,1,1,1,1,1,1,1,1,1,1,1,1,1,1,1,1,1,1,1,1,1,1,1,1,1,1,1,1,1,1,1,1,1,1,1,1,1,1,1,1,1,1,1,1,1,1,1,1,1,1,1,1,1,1,1,1,1,1,1,1,1,1,1,1,1,1,1,1,1,1,1,1,1,1,1,1,1,1,1,1,1,1,1,1,1,1,1,1,1,1,1,1,
1,1,1,1,1,1,1,1,1,1,1,1,1,1,1,1,1,1,1,1,1,1,1,1,1,1,1,1,1,1,1,1,1,1,1,1,1,1,1,1,1,1,1,1,1,1,1,1,1,1,1,1,1,1,1,1,1,1,1,1,1,1,1,1,1,1,1,1,1,1,1,1,1,1,1,1,1,1,1,1,1,1,1,1,1,1,1,1,1,1,1,1,1,1,1,1,1,1,1,1,1,1,1,1,1,1,1,1,1,1,1,1,1,1,1,1,1,1,1,1,1,1,1,1,1,1,1,1,
1,1,1,1,1,1,1,1,1,1,1,1,1,1,1,1,1,1,1,1,1,1,1,1,1,1,1,1,1,1,1,1,1,1,1,1,1,1,1,1,1,1,1,1,1,1,1,1,1,1,1,1,1,1,1,1,1,1,1,1,1,1,1,1,1,1,1,1,1,1,1,1,1,1,1,1,1,1,1,1,1,1,1,1,1,1,1,1,1,1,1,1,1,1,1,1,1,1,1,1,1,1,1,1,1,1,1,1,1,1,1,1,1,1,1,1,1,1,1,1,1,1,1,1,1,1,1,1,
1,1,1,1,1,1,1,1,1,1,1,1,1,1,1,1,1,1,1,1,1,1,1,1,1,1,1,1,1,1,1,1,1,1,1,1,1,1,1,1,1,1,1,1,1,1,1,1,1,1,1,1,1,1,1,1,1,1,1,1,1,1,1,1,1,1,1,1,1,1,1,1,1,1,1,1,1,1,1,1,1,1,1,1,1,1,1,1,1,1,1,1,1,1,1,1,1,1,1,1,1,1,1,1,1,1,1,1,1,1,1,1,1,1,1,1,1,1,1,1,1,1,1,1,1,1,1,1,
1,1,1,1,1,1,1,1,1,1,1,1,1,1,1,1,1,1,1,1,1,1,1,1,1,1,1,1,1,1,1,1,1,1,1,1,1,1,1,1,1,1,1,1,1,1,1,1,1,1,1,1,1,1,1,1,1,1,1,1,1,1,1,1,1,1,1,1,1,1,1,1,1,1,1,1,1,1,1,1,1,1,1,1,1,1,1,1,1,1,1,1,1,1,1,1,1,1,1,1,1,1,1,1,1,1,1,1,1,1,1,1,1,1,1,1,1,1,1,1,1,1,1,1,1,1,1,1,
1,1,1,1,1,1,1,1,1,1,1,1,1,1,1,1,1,1,1,1,1,1,1,1,1,1,1,1,1,1,1,1,1,1,1,1,1,1,1,1,1,1,1,1,1,1,1,1,1,1,1,1,1,1,1,1,1,1,1,1,1,1,1,1,1,1,1,1,1,1,1,1,1,1,1,1,1,1,1,1,1,1,1,1,1,1,1,1,1,1,1,1,1,1,1,1,1,1,1,1,1,1,1,1,1,1,1,1,1,1,1,1,1,1,1,1,1,1,1,1,1,1,1,1,1,1,1,1,
1,1,1,1,1,1,1,1,1,1,1,1,1,1,1,1,1,1,1,1,1,1,1,1,1,1,1,1,1,1,1,1,1,1,1,1,1,1,1,1,1,1,1,1,1,1,1,1,1,1,1,1,1,1,1,1,1,1,1,1,1,1,1,1,1,1,1,1,1,1,1,1,1,1,1,1,1,1,1,1,1,1,1,1,1,1,1,1,1,1,1,1,1,1,1,1,1,1,1,1,1,1,1,1,1,1,1,1,1,1,1,1,1,1,1,1,1,1,1,1,1,1,1,1,1,1,1,1,
1,1,1,1,1,1,1,1,1,1,1,1,1,1,1,1,1,1,1,1,1,1,1,1,1,1,1,1,1,1,1,1,1,1,1,1,1,1,1,1,1,1,1,1,1,1,1,1,1,1,1,1,1,1,1,1,1,1,1,1,1,1,1,1,1,1,1,1,1,1,1,1,1,1,1,1,1,1,1,1,1,1,1,1,1,1,1,1,1,1,1,1,1,1,1,1,1,1,1,1,1,1,1,1,1,1,1,1,1,1,1,1,1,1,1,1,1,1,1,1,1,1,1,1,1,1,1,1,
1,1,1,1,1,1,1,1,1,1,1,1,1,1,1,1,1,1,1,1,1,1,1,1,1,1,1,1,1,1,1,1,1,1,1,1,1,1,1,1,1,1,1,1,1,1,1,1,1,1,1,1,1,1,1,1,1,1,1,1,1,1,1,1,1,1,1,1,1,1,1,1,1,1,1,1,1,1,1,1,1,1,1,1,1,1,1,1,1,1,1,1,1,1,1,1,1,1,1,1,1,1,1,1,1,1,1,1,1,1,1,1,1,1,1,1,1,1,1,1,1,1,1,1,1,1,1,1,
1,1,1,1,1,1,1,1,1,1,1,1,1,1,21,21,21,21,21,21,21,21,21,21,21,21,21,21,21,21,21,21,21,21,21,21,21,21,21,21,21,21,21,21,21,21,21,21,21,21,21,21,21,21,21,21,21,21,21,21,21,21,21,21,21,21,21,21,21,21,21,21,21,21,21,21,21,21,21,21,21,21,21,21,21,21,21,21,21,21,21,21,21,21,21,21,21,21,21,21,21,21,21,21,21,21,21,21,21,21,21,21,21,1,1,1,1,1,1,1,1,1,1,1,1,1,1,1,
1,1,1,1,1,1,1,1,1,1,1,1,1,1,21,21,21,21,21,21,21,21,21,21,21,21,21,21,21,21,21,21,21,21,21,21,21,21,21,21,21,21,21,21,21,21,21,21,21,21,21,21,21,21,21,21,21,21,21,21,21,21,21,21,21,21,21,21,21,21,21,21,21,21,21,21,21,21,21,21,21,21,21,21,21,21,21,21,21,21,21,21,21,21,21,21,21,21,21,21,21,21,21,21,21,21,21,21,21,21,21,21,21,1,1,1,1,1,1,1,1,1,1,1,1,1,1,1,
1,1,1,1,1,1,1,1,1,1,1,1,1,1,21,21,21,21,21,21,21,21,21,21,21,21,21,21,21,21,21,21,21,21,21,21,21,21,21,21,21,21,21,21,21,21,21,21,21,21,21,21,21,21,21,21,21,21,21,21,21,21,21,21,21,21,21,21,21,21,21,21,21,21,21,21,21,21,21,21,21,21,21,21,21,21,21,21,21,21,21,21,21,21,21,21,21,21,21,21,21,21,21,21,21,21,21,21,21,21,1,21,21,1,1,1,1,1,1,1,1,1,1,1,1,1,1,1,
1,1,1,1,1,1,1,1,1,1,1,1,1,1,1,21,21,21,21,21,21,21,21,21,21,21,21,21,21,21,21,21,21,21,21,21,21,21,21,21,21,21,21,21,21,21,21,21,21,21,21,21,21,21,21,21,21,21,21,21,21,21,21,21,21,21,21,21,21,21,21,21,21,21,21,21,21,21,21,21,21,21,21,21,21,21,21,21,21,21,21,21,21,21,21,21,21,21,21,21,21,21,21,21,21,21,21,21,21,21,1,21,21,1,1,1,1,1,1,1,1,1,1,1,1,1,1,1,
1,1,1,1,1,1,1,1,1,1,1,1,1,1,1,21,21,21,21,21,21,21,21,21,21,21,21,21,21,21,21,21,21,21,21,21,21,21,21,21,21,21,21,21,21,21,21,21,21,21,21,21,21,21,21,21,21,21,21,21,21,21,21,21,21,21,21,21,21,21,21,21,21,21,21,21,21,21,21,21,21,21,21,21,21,21,21,21,21,21,21,21,21,21,21,21,21,21,21,21,21,21,21,21,21,21,21,21,21,21,21,21,21,1,1,1,1,1,1,1,1,1,1,1,1,1,1,1,
1,1,1,1,1,1,1,1,1,1,1,1,1,1,1,21,21,21,21,21,21,21,21,21,21,21,21,21,21,21,21,21,21,21,21,21,21,21,21,21,21,21,21,21,21,21,21,21,21,21,21,21,21,21,21,21,21,21,21,21,21,21,21,21,21,21,21,21,21,21,21,21,21,21,21,21,21,21,21,21,21,21,21,21,21,21,21,21,21,21,21,21,21,21,21,21,21,21,21,21,21,21,21,21,21,21,21,21,21,21,21,21,21,1,1,1,1,1,1,1,1,1,1,1,1,1,1,1,
1,1,1,1,1,1,1,1,1,1,1,1,1,1,1,21,21,21,21,21,21,21,21,21,21,21,21,21,21,21,21,21,21,21,21,21,21,21,21,21,21,21,21,21,21,21,21,21,21,21,21,21,21,21,21,21,21,21,21,21,21,21,21,21,21,21,21,21,21,21,21,21,21,21,21,21,21,21,21,21,21,21,21,21,21,21,21,21,21,21,21,21,21,21,21,21,21,21,21,21,21,21,21,21,21,21,21,21,21,21,21,21,21,1,1,1,1,1,1,1,1,1,1,1,1,1,1,1,
1,1,1,1,1,1,1,1,1,1,1,1,1,1,1,1,1,1,1,1,1,1,1,1,1,1,1,1,1,1,1,1,1,1,1,1,1,1,1,1,1,1,1,1,1,1,1,1,1,1,1,1,1,1,1,1,1,1,1,1,1,1,1,1,1,1,1,1,1,1,1,1,1,1,1,1,1,1,1,1,1,1,1,1,1,1,1,1,1,1,1,1,1,1,1,1,1,1,1,1,1,1,1,1,1,1,1,1,1,1,1,1,1,1,1,1,1,1,1,1,1,1,1,1,1,1,1,1,
1,1,1,1,1,1,1,1,1,1,1,1,1,1,1,1,1,1,1,1,1,1,1,1,1,1,1,1,1,1,1,1,1,1,1,1,1,1,1,1,1,1,1,1,1,1,1,1,1,1,1,1,1,1,1,1,1,1,1,1,1,1,1,1,1,1,1,1,1,1,1,1,1,1,1,1,1,1,1,1,1,1,1,1,1,1,1,1,1,1,1,1,1,1,1,1,1,1,1,1,1,1,1,1,1,1,1,1,1,1,1,1,1,1,1,1,1,1,1,1,1,1,1,1,1,1,1,1,
1,1,1,1,1,1,1,1,1,1,1,1,1,1,1,1,1,1,1,1,1,1,1,1,1,1,1,1,1,1,1,1,1,1,1,1,1,1,1,1,1,1,1,1,1,1,1,1,1,1,1,1,1,1,1,1,1,1,1,1,1,1,1,1,1,1,1,1,1,1,1,1,1,1,1,1,1,1,1,1,1,1,1,1,1,1,1,1,1,1,1,1,1,1,1,1,1,1,1,1,1,1,1,1,1,1,1,1,1,1,1,1,1,1,1,1,1,1,1,1,1,1,1,1,1,1,1,1,
1,1,1,1,1,1,1,1,1,1,1,1,1,1,1,1,1,1,1,1,1,1,1,1,1,1,1,1,1,1,1,1,1,1,1,1,1,1,1,1,1,1,1,1,1,1,1,1,1,1,1,1,1,1,1,1,1,1,1,1,1,1,1,1,1,1,1,1,1,1,1,1,1,1,1,1,1,1,1,1,1,1,1,1,1,1,1,1,1,1,1,1,1,1,1,1,1,1,1,1,1,1,1,1,1,1,1,1,1,1,1,1,1,1,1,1,1,1,1,1,1,1,1,1,1,1,1,1,
1,1,1,1,1,1,1,1,1,1,1,1,1,1,1,1,1,1,1,1,1,1,1,1,1,1,1,1,1,1,1,1,1,1,1,1,1,1,1,1,1,1,1,1,1,1,1,1,1,1,1,1,1,1,1,1,1,1,1,1,1,1,1,1,1,1,1,1,1,1,1,1,1,1,1,1,1,1,1,1,1,1,1,1,1,1,1,1,1,1,1,1,1,1,1,1,1,1,1,1,1,1,1,1,1,1,1,1,1,1,1,1,1,1,1,1,1,1,1,1,1,1,1,1,1,1,1,1,
1,1,1,1,1,1,1,1,1,1,1,1,1,1,1,1,1,1,1,1,1,1,1,1,1,1,1,1,1,1,1,1,1,1,1,1,1,1,1,1,1,1,1,1,1,1,1,1,1,1,1,1,1,1,1,1,1,1,1,1,1,1,1,1,1,1,1,1,1,1,1,1,1,1,1,1,1,1,1,1,1,1,1,1,1,1,1,1,1,1,1,1,1,1,1,1,1,1,1,1,1,1,1,1,1,1,1,1,1,1,1,1,1,1,1,1,1,1,1,1,1,1,1,1,1,1,1,1,
1,1,1,1,1,1,1,1,1,1,1,1,1,1,1,1,1,1,1,1,1,1,1,1,1,1,1,1,1,1,1,1,1,1,1,1,1,1,1,1,1,1,1,1,1,1,1,1,1,1,1,1,1,1,1,1,1,1,1,1,1,1,1,1,1,1,1,1,1,1,1,1,1,1,1,1,1,1,1,1,1,1,1,1,1,1,1,1,1,1,1,1,1,1,1,1,1,1,1,1,1,1,1,1,1,1,1,1,1,1,1,1,1,1,1,1,1,1,1,1,1,1,1,1,1,1,1,1,
1,1,1,1,1,1,1,1,1,1,1,1,1,1,1,1,1,1,1,1,1,1,1,1,1,1,1,1,1,1,1,1,1,1,1,1,1,1,1,1,1,1,1,1,1,1,1,1,1,1,1,1,1,1,1,1,1,1,1,1,1,1,1,1,1,1,1,1,1,1,1,1,1,1,1,1,1,1,1,1,1,1,1,1,1,1,1,1,1,1,1,1,1,1,1,1,1,1,1,1,1,1,1,1,1,1,1,1,1,1,1,1,1,1,1,1,1,1,1,1,1,1,1,1,1,1,1,1,
1,1,1,1,1,1,1,1,1,1,1,1,1,1,1,1,1,1,1,1,1,1,1,1,1,1,1,1,1,1,1,1,1,1,1,1,1,1,1,1,1,1,1,1,1,1,1,1,1,1,1,1,1,1,1,1,1,1,1,1,1,1,1,1,1,1,1,1,1,1,1,1,1,1,1,1,1,1,1,1,1,1,1,1,1,1,1,1,1,1,1,1,1,1,1,1,1,1,1,1,1,1,1,1,1,1,1,1,1,1,1,1,1,1,1,1,1,1,1,1,1,1,1,1,1,1,1,1,
1,1,1,1,1,1,1,1,1,1,1,1,1,1,1,1,1,1,1,1,1,1,1,1,1,1,1,1,1,1,1,1,1,1,1,1,1,1,1,1,1,1,1,1,1,1,1,1,1,1,1,1,1,1,1,1,1,1,1,1,1,1,1,1,1,1,1,1,1,1,1,1,1,1,1,1,1,1,1,1,1,1,1,1,1,1,1,1,1,1,1,1,1,1,1,1,1,1,1,1,1,1,1,1,1,1,1,1,1,1,1,1,1,1,1,1,1,1,1,1,1,1,1,1,1,1,1,1,
1,1,1,1,1,1,1,1,1,1,1,1,1,1,1,1,1,1,1,1,1,1,1,1,1,1,1,1,1,1,1,1,1,1,1,1,1,1,1,1,1,1,1,1,1,1,1,1,1,1,1,1,1,1,1,1,1,1,1,1,1,1,1,1,1,1,1,1,1,1,1,1,1,1,1,1,1,1,1,1,1,1,1,1,1,1,1,1,1,1,1,1,1,1,1,1,1,1,1,1,1,1,1,1,1,1,1,1,1,1,1,1,1,1,1,1,1,1,1,1,1,1,1,1,1,1,1,1,
1,1,1,1,1,1,1,1,1,1,1,1,1,1,1,1,1,1,1,1,1,1,1,1,1,1,1,1,1,1,1,1,1,1,1,1,1,1,1,1,1,1,1,1,1,1,1,1,1,1,1,1,1,1,1,1,1,1,1,1,1,1,1,1,1,1,1,1,1,1,1,1,1,1,1,1,1,1,1,1,1,1,1,1,1,1,1,1,1,1,1,1,1,1,1,1,1,1,1,1,1,1,1,1,1,1,1,1,1,1,1,1,1,1,1,1,1,1,1,1,1,1,1,1,1,1,1,1,
1,1,1,1,1,1,1,1,1,1,1,1,1,1,1,1,1,1,1,1,1,1,1,1,1,1,1,1,1,1,1,1,1,1,1,1,1,1,1,1,1,1,1,1,1,1,1,1,1,1,1,1,1,1,1,1,1,1,1,1,1,1,1,1,1,1,1,1,1,1,1,1,1,1,1,1,1,1,1,1,1,1,1,1,1,1,1,1,1,1,1,1,1,1,1,1,1,1,1,1,1,1,1,1,1,1,1,1,1,1,1,1,1,1,1,1,1,1,1,1,1,1,1,1,1,1,1,1,
1,1,1,1,1,1,1,1,1,1,1,1,1,1,1,1,1,1,1,1,1,1,1,1,1,1,1,1,1,1,1,1,1,1,1,1,1,1,1,1,1,1,1,1,1,1,1,1,1,1,1,1,1,1,1,1,1,1,1,1,1,1,1,1,1,1,1,1,1,1,1,1,1,1,1,1,1,1,1,1,1,1,1,1,1,1,1,1,1,1,1,1,1,1,1,1,1,1,1,1,1,1,1,1,1,1,1,1,1,1,1,1,1,1,1,1,1,1,1,1,1,1,1,1,1,1,1,1,
1,1,1,1,1,1,1,1,1,1,1,1,1,1,1,1,1,1,1,1,1,1,1,1,1,1,1,1,1,1,1,1,1,1,1,1,1,1,1,1,1,1,1,1,1,1,1,1,1,1,1,1,1,1,1,1,1,1,1,1,1,1,1,1,1,1,1,1,1,1,1,1,1,1,1,1,1,1,1,1,1,1,1,1,1,1,1,1,1,1,1,1,1,1,1,1,1,1,1,1,1,1,1,1,1,1,1,1,1,1,1,1,1,1,1,1,1,1,1,1,1,1,1,1,1,1,1,1,
1,1,1,1,1,1,1,1,1,1,1,1,1,1,1,1,1,1,1,1,1,1,1,1,1,1,1,1,1,1,1,1,1,1,1,1,1,1,1,1,1,1,1,1,1,1,1,1,1,1,1,1,1,1,1,1,1,1,1,1,1,1,1,1,1,1,1,1,1,1,1,1,1,1,1,1,1,1,1,1,1,1,1,1,1,1,1,1,1,1,1,1,1,1,1,1,1,1,1,1,1,1,1,1,1,1,1,1,1,1,1,1,1,1,1,1,1,1,1,1,1,1,1,1,1,1,1,1,
1,1,1,1,1,1,1,1,1,1,1,1,1,1,1,1,1,1,1,1,1,1,1,1,1,1,1,1,1,1,1,1,1,1,1,1,1,1,1,1,1,1,1,1,1,1,1,1,1,1,1,1,1,1,1,1,1,1,1,1,1,1,1,1,1,1,1,1,1,1,1,1,1,1,1,1,1,1,1,1,1,1,1,1,1,1,1,1,1,1,1,1,1,1,1,1,1,1,1,1,1,1,1,1,1,1,1,1,1,1,1,1,1,1,1,1,1,1,1,1,1,1,1,1,1,1,1,1,
1,1,1,1,1,1,1,1,1,1,1,1,1,1,1,1,1,1,1,1,1,1,1,1,1,1,1,1,1,1,1,1,1,1,1,1,1,1,1,1,1,1,1,1,1,1,1,1,1,1,1,1,1,1,1,1,1,1,1,1,1,1,1,1,1,1,1,1,1,1,1,1,1,1,1,1,1,1,1,1,1,1,1,1,1,1,1,1,1,1,1,1,1,1,1,1,1,1,1,1,1,1,1,1,1,1,1,1,1,1,1,1,1,1,1,1,1,1,1,1,1,1,1,1,1,1,1,1,
1,1,1,1,1,1,1,1,1,1,1,1,1,1,1,1,1,1,1,1,1,1,1,1,1,1,1,1,1,1,1,1,1,1,1,1,1,1,1,1,1,1,1,1,1,1,1,1,1,1,1,1,1,1,1,1,1,1,1,1,1,1,1,1,1,1,1,1,1,1,1,1,1,1,1,1,1,1,1,1,1,1,1,1,1,1,1,1,1,1,1,1,1,1,1,1,1,1,1,1,1,1,1,1,1,1,1,1,1,1,1,1,1,1,1,1,1,1,1,1,1,1,1,1,1,1,1,1,
1,1,1,1,1,1,1,1,1,1,1,1,1,1,1,1,1,1,1,1,1,1,1,1,1,1,1,1,1,1,1,1,1,1,1,1,1,1,1,1,1,1,1,1,1,1,1,1,1,1,1,1,1,1,1,1,1,1,1,1,1,1,1,1,1,1,1,1,1,1,1,1,1,1,1,1,1,1,1,1,1,1,1,1,1,1,1,1,1,1,1,1,1,1,1,1,1,1,1,1,1,1,1,1,1,1,1,1,1,1,1,1,1,1,1,1,1,1,1,1,1,1,1,1,1,1,1,1,
1,1,1,1,1,1,1,1,1,1,1,1,1,1,1,1,1,1,1,1,1,1,1,1,1,1,1,1,1,1,1,1,1,1,1,1,1,1,1,1,1,1,1,1,1,1,1,1,1,1,1,1,1,1,1,1,1,1,1,1,1,1,1,1,1,1,1,1,1,1,1,1,1,1,1,1,1,1,1,1,1,1,1,1,1,1,1,1,1,1,1,1,1,1,1,1,1,1,1,1,1,1,1,1,1,1,1,1,1,1,1,1,1,1,1,1,1,1,1,1,1,1,1,1,1,1,1,1,
1,1,1,1,1,1,1,1,1,1,1,1,1,1,1,1,1,1,1,1,1,1,1,1,1,1,1,1,1,1,1,1,1,1,1,1,1,1,1,1,1,1,1,1,1,1,1,1,1,1,1,1,1,1,1,1,1,1,1,1,1,1,1,1,1,1,1,1,1,1,1,1,1,1,1,1,1,1,1,1,1,1,1,1,1,1,1,1,1,1,1,1,1,1,1,1,1,1,1,1,1,1,1,1,1,1,1,1,1,1,1,1,1,1,1,1,1,1,1,1,1,1,1,1,1,1,1,1,
1,1,1,1,1,1,1,1,1,1,1,1,1,1,1,1,1,1,1,1,1,1,1,1,1,1,1,1,1,1,1,1,1,1,1,1,1,1,1,1,1,1,1,1,1,1,1,1,1,1,1,1,1,1,1,1,1,1,1,1,1,1,1,1,1,1,1,1,1,1,1,1,1,1,1,1,1,1,1,1,1,1,1,1,1,1,1,1,1,1,1,1,1,1,1,1,1,1,1,1,1,1,1,1,1,1,1,1,1,1,1,1,1,1,1,1,1,1,1,1,1,1,1,1,1,1,1,1,
1,1,1,1,1,1,1,1,1,1,1,1,1,1,1,1,1,1,1,1,1,1,1,1,1,1,1,1,1,1,1,1,1,1,1,1,1,1,1,1,1,1,1,1,1,1,1,1,1,1,1,1,1,1,1,1,1,1,1,1,1,1,1,1,1,1,1,1,1,1,1,1,1,1,1,1,1,1,1,1,1,1,1,1,1,1,1,1,1,1,1,1,1,1,1,1,1,1,1,1,1,1,1,1,1,1,1,1,1,1,1,1,1,1,1,1,1,1,1,1,1,1,1,1,1,1,1,1,
1,1,1,1,1,1,1,1,1,1,1,1,1,1,1,1,1,1,1,1,1,1,1,1,1,1,1,1,1,1,1,1,1,1,1,1,1,1,1,1,1,1,1,1,1,1,1,1,1,1,1,1,1,1,1,1,1,1,1,1,1,1,1,1,1,1,1,1,1,1,1,1,1,1,1,1,1,1,1,1,1,1,1,1,1,1,1,1,1,1,1,1,1,1,1,1,1,1,1,1,1,1,1,1,1,1,1,1,1,1,1,1,1,1,1,1,1,1,1,1,1,1,1,1,1,1,1,1,
1,1,1,1,1,1,1,1,1,1,1,1,1,1,1,1,1,1,1,1,1,1,1,1,1,1,1,1,1,1,1,1,1,1,1,1,1,1,1,1,1,1,1,1,1,1,1,1,1,1,1,1,1,1,1,1,1,1,1,1,1,1,1,1,1,1,1,1,1,1,1,1,1,1,1,1,1,1,1,1,1,1,1,1,1,1,1,1,1,1,1,1,1,1,1,1,1,1,1,1,1,1,1,1,1,1,1,1,1,1,1,1,1,1,1,1,1,1,1,1,1,1,1,1,1,1,1,1,
1,1,1,1,1,1,1,1,1,1,1,1,1,1,1,1,1,1,1,1,1,1,1,1,1,1,1,1,1,1,1,1,1,1,1,1,1,1,1,1,1,1,1,1,1,1,1,1,1,1,1,1,1,1,1,1,1,1,1,1,1,1,1,1,1,1,1,1,1,1,1,1,1,1,1,1,1,1,1,1,1,1,1,1,1,1,1,1,1,1,1,1,1,1,1,1,1,1,1,1,1,1,1,1,1,1,1,1,1,1,1,1,1,1,1,1,1,1,1,1,1,1,1,1,1,1,1,1,
1,1,1,1,1,1,1,1,1,1,1,1,1,1,1,1,1,1,1,1,1,1,1,1,1,1,1,1,1,1,1,1,1,1,1,1,1,1,1,1,1,1,1,1,1,1,1,1,1,1,1,1,1,1,1,1,1,1,1,1,1,1,1,1,1,1,1,1,1,1,1,1,1,1,1,1,1,1,1,1,1,1,1,1,1,1,1,1,1,1,1,1,1,1,1,1,1,1,1,1,1,1,1,1,1,1,1,1,1,1,1,1,1,1,1,1,1,1,1,1,1,1,1,1,1,1,1,1,
1,1,1,1,1,1,1,1,1,1,1,1,1,1,1,1,1,1,1,1,1,1,1,1,1,1,1,1,1,1,1,1,1,1,1,1,1,1,1,1,1,1,1,1,1,1,1,1,1,1,1,1,1,1,1,1,1,1,1,1,1,1,1,1,1,1,1,1,1,1,1,1,1,1,1,1,1,1,1,1,1,1,1,1,1,1,1,1,1,1,1,1,1,1,1,1,1,1,1,1,1,1,1,1,1,1,1,1,1,1,1,1,1,1,1,1,1,1,1,1,1,1,1,1,1,1,1,1,
1,1,1,1,1,1,1,1,1,1,1,1,1,1,1,1,1,1,1,1,1,1,1,1,1,1,1,1,1,1,1,1,1,1,1,1,1,1,1,1,1,1,1,1,1,1,1,1,1,1,1,1,1,1,1,1,1,1,1,1,1,1,1,1,1,1,1,1,1,1,1,1,1,1,1,1,1,1,1,1,1,1,1,1,1,1,1,1,1,1,1,1,1,1,1,1,1,1,1,1,1,1,1,1,1,1,1,1,1,1,1,1,1,1,1,1,1,1,1,1,1,1,1,1,1,1,1,1,
1,1,1,1,1,1,1,1,1,1,1,1,1,1,1,1,1,1,1,1,1,1,1,1,1,1,1,1,1,1,1,1,1,1,1,1,1,1,1,1,1,1,1,1,1,1,1,1,1,1,1,1,1,1,1,1,1,1,1,1,1,1,1,1,1,1,1,1,1,1,1,1,1,1,1,1,1,1,1,1,1,1,1,1,1,1,1,1,1,1,1,1,1,1,1,1,1,1,1,1,1,1,1,1,1,1,1,1,1,1,1,1,1,1,1,1,1,1,1,1,1,1,1,1,1,1,1,1,
1,1,1,1,1,1,1,1,1,1,1,1,1,1,1,1,1,1,1,1,1,1,1,1,1,1,1,1,1,1,1,1,1,1,1,1,1,1,1,1,1,1,1,1,1,1,1,1,1,1,1,1,1,1,1,1,1,1,1,1,1,1,1,1,1,1,1,1,1,1,1,1,1,1,1,1,1,1,1,1,1,1,1,1,1,1,1,1,1,1,1,1,1,1,1,1,1,1,1,1,1,1,1,1,1,1,1,1,1,1,1,1,1,1,1,1,1,1,1,1,1,1,1,1,1,1,1,1,
1,1,1,1,1,1,1,1,1,1,1,1,1,1,1,1,1,1,1,1,1,1,1,1,1,1,1,1,1,1,1,1,1,1,1,1,1,1,1,1,1,1,1,1,1,1,1,1,1,1,1,1,1,1,1,1,1,1,1,1,1,1,1,1,1,1,1,1,1,1,1,1,1,1,1,1,1,1,1,1,1,1,1,1,1,1,1,1,1,1,1,1,1,1,1,1,1,1,1,1,1,1,1,1,1,1,1,1,1,1,1,1,1,1,1,1,1,1,1,1,1,1,1,1,1,1,1,1,
1,1,1,1,1,1,1,1,1,1,1,1,1,1,1,1,1,1,1,1,1,1,1,1,1,1,1,1,1,1,1,1,1,1,1,1,1,1,1,1,1,1,1,1,1,1,1,1,1,1,1,1,1,1,1,1,1,1,1,1,1,1,1,1,1,1,1,1,1,1,1,1,1,1,1,1,1,1,1,1,1,1,1,1,1,1,1,1,1,1,1,1,1,1,1,1,1,1,1,1,1,1,1,1,1,1,1,1,1,1,1,1,1,1,1,1,1,1,1,1,1,1,1,1,1,1,1,1
</data>
 </layer>
 <objectgroup draworder="index" id="2" name="Immagini">
  <object id="4" gid="2" x="3072" y="3072" width="500" height="300"/>
  <object id="5" gid="2" x="4224" y="2304" width="500" height="300"/>
  <object id="6" gid="2" x="2816" y="1920" width="500" height="300"/>
  <object id="7" gid="2" x="2816" y="5504" width="500" height="300"/>
  <object id="8" gid="2" x="5376" y="6400" width="500" height="300"/>
  <object id="9" gid="2" x="3840" y="6272" width="500" height="300"/>
  <object id="10" gid="2" x="5760" y="4736" width="500" height="300"/>
  <object id="12" gid="2" x="5888" y="2816" width="500" height="300"/>
  <object id="13" gid="2" x="6784" y="6016" width="500" height="300"/>
  <object id="14" gid="2" x="5760" y="1664" width="500" height="300"/>
  <object id="15" gid="2" x="2432" y="2560" width="500" height="300"/>
  <object id="16" gid="2" x="7936" y="5888" width="500" height="300"/>
  <object id="17" gid="2" x="7168" y="4096" width="500" height="300"/>
  <object id="18" gid="2" x="5120" y="2560" width="500" height="300"/>
  <object id="19" gid="2" x="6400" y="1920" width="500" height="300"/>
  <object id="20" gid="2" x="7168" y="2816" width="500" height="300"/>
  <object id="21" gid="2" x="8576" y="4992" width="500" height="300"/>
  <object id="22" gid="2" x="8192" y="2176" width="500" height="300"/>
  <object id="23" gid="2" x="7040" y="5376" width="500" height="300"/>
  <object id="24" gid="2" x="10624" y="4864" width="500" height="300"/>
  <object id="25" gid="2" x="9728" y="6016" width="500" height="300"/>
  <object id="26" gid="2" x="9344" y="1920" width="500" height="300"/>
  <object id="28" gid="2" x="11776" y="2816" width="500" height="300"/>
  <object id="29" gid="2" x="11904" y="6144" width="500" height="300"/>
  <object id="30" gid="2" x="13184" y="6144" width="500" height="300"/>
  <object id="32" gid="2" x="12928" y="4608" width="500" height="300"/>
  <object id="34" gid="2" x="12288" y="2048" width="500" height="300"/>
  <object id="38" gid="3" x="11904" y="4992" width="500" height="300"/>
  <object id="40" gid="3" x="10752" y="6144" width="500" height="300"/>
  <object id="41" gid="3" x="8960" y="6016" width="500" height="300"/>
  <object id="42" gid="3" x="7552" y="2176" width="500" height="300"/>
  <object id="43" gid="3" x="5632" y="2048" width="500" height="300"/>
  <object id="44" gid="3" x="4224" y="5632" width="500" height="300"/>
  <object id="45" gid="3" x="2816" y="4864" width="500" height="300"/>
  <object id="46" gid="3" x="3456" y="2304" width="500" height="300"/>
  <object id="47" gid="4" x="4736" y="6656" width="1000" height="600"/>
  <object id="49" gid="4" x="4864" y="2176" width="1000" height="600"/>
  <object id="50" gid="4" x="7680" y="6912" width="1000" height="600"/>
  <object id="51" gid="4" x="8832" y="4480" width="1000" height="600"/>
  <object id="52" gid="4" x="4480" y="3072" width="1000" height="600"/>
  <object id="53" gid="4" x="5632" y="5504" width="1000" height="600"/>
  <object id="54" gid="4" x="8704" y="2048" width="1000" height="600"/>
  <object id="56" gid="4" x="12672" y="5888" width="1000" height="600"/>
  <object id="57" gid="4" x="10752" y="2560" width="1000" height="600"/>
  <object id="58" gid="4" x="12800" y="3072" width="1000" height="600"/>
  <object id="62" gid="6" x="6656" y="2816" width="593" height="559"/>
  <object id="61" gid="5" x="6272" y="2688" width="354" height="360"/>
  <object id="63" gid="6" x="10240" y="4992" width="593" height="559"/>
  <object id="60" gid="5" x="6272" y="2816" width="354" height="360"/>
  <object id="64" gid="6" x="3584" y="4992" width="593" height="559"/>
  <object id="65" gid="6" x="3456" y="2816" width="593" height="559"/>
  <object id="67" gid="6" x="14130.8" y="3629.45" width="593" height="559"/>
  <object id="69" gid="7" x="10368" y="5248" width="425" height="368"/>
  <object id="70" gid="7" x="10112" y="5248" width="425" height="368"/>
  <object id="71" gid="7" x="9856" y="4864" width="425" height="368"/>
  <object id="66" gid="6" x="14152" y="3949.09" width="593" height="559"/>
  <object id="72" gid="7" x="6784" y="2304" width="425" height="368"/>
  <object id="73" gid="7" x="9600" y="1792" width="425" height="368"/>
  <object id="74" gid="7" x="8064" y="5504" width="425" height="368"/>
  <object id="75" gid="7" x="6144" y="6400" width="425" height="368"/>
  <object id="76" gid="7" x="3328" y="1920" width="425" height="368"/>
  <object id="77" gid="7" x="14592" y="5120" width="425" height="368"/>
  <object id="78" gid="7" x="14592" y="4864" width="425" height="368"/>
  <object id="80" gid="7" x="14336" y="5120" width="425" height="368"/>
  <object id="82" gid="8" x="13952" y="4992" width="644" height="567"/>
  <object id="83" gid="8" x="11392" y="2560" width="644" height="567"/>
  <object id="85" gid="8" x="14464" y="5632" width="644" height="567"/>
  <object id="86" gid="8" x="9216" y="2304" width="644" height="567"/>
  <object id="87" gid="8" x="7296" y="2560" width="644" height="567"/>
  <object id="88" gid="8" x="7680" y="5504" width="644" height="567"/>
  <object id="89" gid="8" x="2560" y="5888" width="644" height="567"/>
  <object id="90" gid="8" x="4992" y="5888" width="644" height="567"/>
  <object id="91" gid="9" x="3584" y="5248" width="515" height="380"/>
  <object id="92" gid="9" x="3584" y="1920" width="515" height="380"/>
  <object id="93" gid="9" x="6183" y="2437" width="515" height="380"/>
  <object id="94" gid="9" x="8832" y="2432" width="515" height="380"/>
  <object id="98" gid="9" x="14336" y="4096" width="515" height="380"/>
  <object id="102" gid="10" x="14592" y="6144" width="688" height="638"/>
  <object id="103" gid="10" x="14592" y="6528" width="688" height="638"/>
  <object id="97" gid="9" x="14336" y="4352" width="515" height="380"/>
  <object id="104" gid="10" x="14592" y="6912" width="688" height="638"/>
  <object id="96" gid="9" x="14336" y="4608" width="515" height="380"/>
  <object id="105" gid="10" x="14592" y="7296" width="688" height="638"/>
  <object id="79" gid="7" x="14336" y="4864" width="425" height="368"/>
  <object id="108" gid="11" x="4992" y="3072" width="333" height="200"/>
  <object id="109" gid="11" x="4480" y="2176" width="333" height="200"/>
  <object id="110" gid="11" x="3584" y="2560" width="333" height="200"/>
  <object id="111" gid="11" x="2944" y="5376" width="333" height="200"/>
  <object id="112" gid="11" x="1920" y="4864" width="333" height="200"/>
  <object id="113" gid="11" x="2048" y="2048" width="333" height="200"/>
  <object id="114" gid="11" x="6144" y="5888" width="333" height="200"/>
  <object id="115" gid="11" x="7552" y="6144" width="333" height="200"/>
  <object id="116" gid="11" x="7680" y="6144" width="333" height="200"/>
  <object id="117" gid="11" x="8960" y="5632" width="333" height="200"/>
  <object id="118" gid="11" x="7822" y="2394" width="333" height="200"/>
  <object id="119" gid="11" x="9472" y="2816" width="333" height="200"/>
  <object id="120" gid="11" x="9600" y="2048" width="333" height="200"/>
  <object id="121" gid="11" x="10752" y="2944" width="333" height="200"/>
  <object id="122" gid="11" x="11264" y="5504" width="333" height="200"/>
  <object id="123" gid="11" x="11392" y="6400" width="333" height="200"/>
  <object id="124" gid="11" x="13056" y="6656" width="333" height="200"/>
  <object id="125" gid="11" x="13568" y="5120" width="333" height="200"/>
  <object id="126" gid="11" x="11648" y="5248" width="333" height="200"/>
  <object id="127" gid="11" x="9600" y="5504" width="333" height="200"/>
  <object id="128" gid="11" x="9216" y="4736" width="333" height="200"/>
  <object id="129" gid="11" x="7552" y="1664" width="333" height="200"/>
  <object id="130" gid="11" x="9984" y="2048" width="333" height="200"/>
  <object id="131" gid="11" x="10880" y="1920" width="333" height="200"/>
  <object id="132" gid="11" x="5632" y="2944" width="333" height="200"/>
  <object id="133" gid="11" x="8448" y="5504" width="333" height="200"/>
  <object id="134" gid="11" x="6400" y="4480" width="333" height="200"/>
  <object id="136" gid="12" x="8320" y="6144" width="284" height="228"/>
  <object id="137" gid="12" x="11904" y="2688" width="284" height="228"/>
  <object id="138" gid="12" x="2816" y="2560" width="284" height="228"/>
  <object id="139" gid="12" x="3072" y="4992" width="284" height="228"/>
  <object id="140" gid="12" x="6528" y="5376" width="284" height="228"/>
  <object id="141" gid="13" x="4736" y="2688" width="701" height="323"/>
  <object id="142" gid="13" x="4096" y="5248" width="701" height="323"/>
  <object id="143" gid="13" x="2560" y="2304" width="701" height="323"/>
  <object id="144" gid="13" x="7424" y="5888" width="701" height="323"/>
  <object id="145" gid="13" x="8192" y="2944" width="701" height="323"/>
  <object id="146" gid="13" x="6912" y="1920" width="701" height="323"/>
  <object id="147" gid="13" x="6784" y="1920" width="701" height="323"/>
  <object id="148" gid="13" x="6912" y="1664" width="701" height="323"/>
  <object id="149" gid="13" x="6784" y="1792" width="701" height="323"/>
  <object id="150" gid="13" x="9856" y="6656" width="701" height="323"/>
  <object id="151" gid="13" x="9728" y="6656" width="701" height="323"/>
  <object id="152" gid="13" x="9600" y="6400" width="701" height="323"/>
  <object id="153" gid="13" x="9472" y="6528" width="701" height="323"/>
  <object id="154" gid="13" x="9728" y="6400" width="701" height="323"/>
  <object id="155" gid="13" x="9472" y="6656" width="701" height="323"/>
  <object id="156" gid="13" x="7808" y="4992" width="701" height="323"/>
  <object id="157" gid="13" x="7936" y="4992" width="701" height="323"/>
  <object id="158" gid="13" x="7936" y="4864" width="701" height="323"/>
  <object id="159" gid="13" x="7680" y="4864" width="701" height="323"/>
  <object id="160" gid="13" x="9984" y="2688" width="701" height="323"/>
  <object id="161" gid="13" x="11648" y="5888" width="701" height="323"/>
  <object id="162" gid="13" x="11904" y="1792" width="701" height="323"/>
  <object id="163" gid="13" x="12032" y="1792" width="701" height="323"/>
  <object id="164" gid="13" x="11904" y="1664" width="701" height="323"/>
  <object id="165" gid="13" x="13184" y="3456" width="701" height="323"/>
  <object id="166" gid="13" x="13184" y="3328" width="701" height="323"/>
  <object id="167" gid="13" x="13312" y="3328" width="701" height="323"/>
  <object id="168" gid="13" x="13312" y="3456" width="701" height="323"/>
  <object id="169" gid="13" x="13568" y="5504" width="701" height="323"/>
  <object id="170" gid="13" x="13440" y="5504" width="701" height="323"/>
  <object id="171" gid="13" x="13440" y="5248" width="701" height="323"/>
  <object id="172" gid="13" x="13184" y="5376" width="701" height="323"/>
  <object id="173" gid="13" x="13440" y="5376" width="701" height="323"/>
  <object id="174" gid="13" x="4352" y="4608" width="701" height="323"/>
  <object id="175" gid="13" x="4480" y="4608" width="701" height="323"/>
  <object id="176" gid="13" x="4608" y="4736" width="701" height="323"/>
  <object id="177" gid="13" x="4608" y="4608" width="701" height="323"/>
  <object id="178" gid="14" x="2304" y="4736" width="500" height="300"/>
  <object id="179" gid="14" x="3200" y="5888" width="500" height="300"/>
  <object id="180" gid="14" x="4096" y="6016" width="500" height="300"/>
  <object id="181" gid="14" x="6144" y="5888" width="500" height="300"/>
  <object id="182" gid="14" x="5120" y="1920" width="500" height="300"/>
  <object id="183" gid="14" x="4096" y="1792" width="500" height="300"/>
  <object id="184" gid="14" x="2856.91" y="1542.85" width="500" height="300"/>
  <object id="185" gid="14" x="6144" y="2048" width="500" height="300"/>
  <object id="186" gid="14" x="8576" y="6912" width="500" height="300"/>
  <object id="187" gid="14" x="9728" y="5248" width="500" height="300"/>
  <object id="188" gid="14" x="2432" y="5248" width="500" height="300"/>
  <object id="189" gid="14" x="3931.64" y="2727.76" width="500" height="300"/>
  <object id="191" gid="14" x="9601" y="2559" width="500" height="300"/>
  <object id="192" gid="14" x="11008" y="5504" width="500" height="300"/>
  <object id="193" gid="14" x="10624" y="1792" width="500" height="300"/>
  <object id="195" gid="14" x="13568" y="6912" width="500" height="300"/>
  <object id="196" gid="14" x="11776" y="6784" width="500" height="300"/>
  <object id="197" gid="14" x="9856" y="2048" width="500" height="300"/>
  <object id="198" gid="14" x="12544" y="5120" width="500" height="300"/>
  <object id="199" gid="14" x="9472" y="4608" width="500" height="300"/>
  <object id="200" gid="15" x="12416" y="6144" width="500" height="300"/>
  <object id="202" gid="15" x="7680" y="1792" width="500" height="300"/>
  <object id="203" gid="15" x="13056" y="1920" width="500" height="300"/>
  <object id="204" gid="15" x="6272" y="4736" width="500" height="300"/>
  <object id="205" gid="15" x="7040" y="4736" width="500" height="300"/>
  <object id="206" gid="15" x="6144" y="5504" width="500" height="300"/>
  <object id="207" gid="15" x="5248" y="1664" width="500" height="300"/>
  <object id="208" gid="15" x="3200" y="5632" width="500" height="300"/>
  <object id="209" gid="15" x="3584" y="5760" width="500" height="300"/>
  <object id="210" gid="15" x="5760" y="6272" width="500" height="300"/>
  <object id="211" gid="15" x="7040" y="6784" width="500" height="300"/>
  <object id="212" gid="15" x="8704" y="6400" width="500" height="300"/>
  <object id="213" gid="15" x="11648" y="2176" width="500" height="300"/>
  <object id="214" gid="15" x="12672" y="2304" width="500" height="300"/>
  <object id="215" gid="15" x="10880" y="6656" width="500" height="300"/>
  <object id="216" gid="15" x="9984" y="5888" width="500" height="300"/>
  <object id="217" gid="15" x="13696" y="6016" width="500" height="300"/>
  <object id="218" gid="15" x="13056" y="2560" width="500" height="300"/>
  <object id="232" gid="16" x="2048" y="1280" width="567" height="574"/>
  <object id="236" gid="17" x="2260.06" y="1305.76" width="362" height="297"/>
  <object id="237" gid="16" x="2543.33" y="1290.61" width="567" height="574"/>
  <object id="238" gid="17" x="2740.24" y="1319.39" width="362" height="297"/>
  <object id="239" gid="16" x="3020.48" y="1301.21" width="567" height="574"/>
  <object id="240" gid="17" x="3221.21" y="1343.64" width="362" height="297"/>
  <object id="241" gid="16" x="3478.73" y="1317.88" width="567" height="574"/>
  <object id="286" gid="18" x="2185.88" y="6999.09" width="366" height="309"/>
  <object id="243" gid="17" x="3689.27" y="1345.88" width="362" height="297"/>
  <object id="11" gid="2" x="3634" y="1467.82" width="500" height="300"/>
  <object id="242" gid="16" x="3964.97" y="1319.39" width="567" height="574"/>
  <object id="249" gid="17" x="4169.45" y="1352.73" width="362" height="297"/>
  <object id="248" gid="16" x="4436" y="1320" width="567" height="574"/>
  <object id="247" gid="17" x="4637.94" y="1327.88" width="362" height="297"/>
  <object id="246" gid="16" x="4921.21" y="1312.73" width="567" height="574"/>
  <object id="245" gid="17" x="5118.12" y="1341.51" width="362" height="297"/>
  <object id="244" gid="16" x="5398.36" y="1323.33" width="567" height="574"/>
  <object id="255" gid="17" x="5604.73" y="1363.94" width="362" height="297"/>
  <object id="254" gid="16" x="5861.15" y="1313.33" width="567" height="574"/>
  <object id="253" gid="17" x="6073.21" y="1339.09" width="362" height="297"/>
  <object id="634" gid="16" x="6349" y="1315" width="567" height="574"/>
  <object id="633" gid="17" x="6561.06" y="1340.76" width="362" height="297"/>
  <object id="631" gid="16" x="6844.33" y="1325.61" width="567" height="574"/>
  <object id="632" gid="17" x="7041.24" y="1354.39" width="362" height="297"/>
  <object id="630" gid="16" x="7321.48" y="1336.21" width="567" height="574"/>
  <object id="638" gid="17" x="7532" y="1379.15" width="362" height="297"/>
  <object id="135" gid="12" x="7076" y="1484" width="284" height="228"/>
  <object id="637" gid="16" x="7815.27" y="1364" width="567" height="574"/>
  <object id="636" gid="17" x="8012.18" y="1392.78" width="362" height="297"/>
  <object id="635" gid="16" x="8292.42" y="1374.6" width="567" height="574"/>
  <object id="645" gid="17" x="8495" y="1411.18" width="362" height="297"/>
  <object id="644" gid="16" x="8775.24" y="1393" width="567" height="574"/>
  <object id="190" gid="14" x="8689" y="1571" width="500" height="300"/>
  <object id="643" gid="17" x="8985.76" y="1435.94" width="362" height="297"/>
  <object id="642" gid="16" x="9269.03" y="1420.79" width="567" height="574"/>
  <object id="641" gid="17" x="9465.94" y="1449.57" width="362" height="297"/>
  <object id="640" gid="16" x="9746.18" y="1431.39" width="567" height="574"/>
  <object id="651" gid="17" x="9955" y="1475.18" width="362" height="297"/>
  <object id="463" gid="19" x="1972.52" y="1502.27" width="381" height="320"/>
  <object id="650" gid="16" x="10235.2" y="1457" width="567" height="574"/>
  <object id="464" gid="16" x="1962.58" y="1747.9" width="567" height="574"/>
  <object id="201" gid="15" x="9168" y="1596" width="500" height="300"/>
  <object id="465" gid="19" x="1970.43" y="1970.9" width="381" height="320"/>
  <object id="39" gid="3" x="10138" y="1594" width="500" height="300"/>
  <object id="466" gid="16" x="1965.61" y="2211.54" width="567" height="574"/>
  <object id="649" gid="17" x="10445.8" y="1499.94" width="362" height="297"/>
  <object id="48" gid="4" x="2432" y="1920" width="1000" height="600"/>
  <object id="467" gid="19" x="1974.98" y="2433.02" width="381" height="320"/>
  <object id="468" gid="16" x="1962.58" y="2669.11" width="567" height="574"/>
  <object id="648" gid="16" x="10729" y="1484.79" width="567" height="574"/>
  <object id="469" gid="19" x="1974.98" y="2887.57" width="381" height="320"/>
  <object id="470" gid="16" x="1961.07" y="3125.17" width="567" height="574"/>
  <object id="471" gid="19" x="1971.95" y="3345.14" width="381" height="320"/>
  <object id="647" gid="17" x="10925.9" y="1513.57" width="362" height="297"/>
  <object id="472" gid="16" x="1958.04" y="3582.75" width="567" height="574"/>
  <object id="478" gid="19" x="1976.49" y="3807.27" width="381" height="320"/>
  <object id="477" gid="16" x="1964.1" y="4043.36" width="567" height="574"/>
  <object id="646" gid="16" x="11206.2" y="1495.39" width="567" height="574"/>
  <object id="488" gid="20" x="2800.79" y="3656.3" width="840" height="859"/>
  <object id="27" gid="2" x="11136" y="1664" width="500" height="300"/>
  <object id="476" gid="19" x="1976.49" y="4261.81" width="381" height="320"/>
  <object id="657" gid="17" x="11412" y="1538.18" width="362" height="297"/>
  <object id="475" gid="16" x="1962.58" y="4499.42" width="567" height="574"/>
  <object id="474" gid="19" x="1973.46" y="4719.39" width="381" height="320"/>
  <object id="473" gid="16" x="1959.55" y="4956.99" width="567" height="574"/>
  <object id="484" gid="19" x="1970.43" y="5176.96" width="381" height="320"/>
  <object id="656" gid="16" x="11692.2" y="1520" width="567" height="574"/>
  <object id="483" gid="16" x="1958.04" y="5413.05" width="567" height="574"/>
  <object id="482" gid="19" x="1970.43" y="5631.51" width="381" height="320"/>
  <object id="481" gid="16" x="1956.52" y="5869.11" width="567" height="574"/>
  <object id="480" gid="19" x="1967.4" y="6089.08" width="381" height="320"/>
  <object id="479" gid="16" x="1953.49" y="6326.69" width="567" height="574"/>
  <object id="655" gid="17" x="11902.8" y="1562.94" width="362" height="297"/>
  <object id="486" gid="19" x="1973.46" y="6549.69" width="381" height="320"/>
  <object id="485" gid="16" x="1959.55" y="6787.3" width="567" height="574"/>
  <object id="291" gid="16" x="2316.12" y="7021.82" width="567" height="574"/>
  <object id="654" gid="16" x="12186" y="1547.79" width="567" height="574"/>
  <object id="653" gid="17" x="12382.9" y="1576.57" width="362" height="297"/>
  <object id="287" gid="18" x="2511.51" y="7058.18" width="366" height="309"/>
  <object id="652" gid="16" x="12663.2" y="1558.39" width="567" height="574"/>
  <object id="663" gid="17" x="12878" y="1604.18" width="362" height="297"/>
  <object id="662" gid="16" x="13158.2" y="1586" width="567" height="574"/>
  <object id="661" gid="17" x="13368.8" y="1628.94" width="362" height="297"/>
  <object id="660" gid="16" x="13643" y="1602.79" width="567" height="574"/>
  <object id="659" gid="17" x="13839.9" y="1631.57" width="362" height="297"/>
  <object id="658" gid="16" x="14217.2" y="1768.39" width="567" height="574"/>
  <object id="292" gid="16" x="2776.61" y="7036.97" width="567" height="574"/>
  <object id="288" gid="18" x="2975.03" y="7058.18" width="366" height="309"/>
  <object id="293" gid="16" x="3244.67" y="7038.48" width="567" height="574"/>
  <object id="674" gid="18" x="3456.51" y="7073.18" width="366" height="309"/>
  <object id="673" gid="16" x="3721.61" y="7051.97" width="567" height="574"/>
  <object id="672" gid="18" x="3920.03" y="7073.18" width="366" height="309"/>
  <object id="671" gid="16" x="4189.67" y="7053.48" width="567" height="574"/>
  <object id="678" gid="18" x="4391.51" y="7098.18" width="366" height="309"/>
  <object id="677" gid="16" x="4656.61" y="7076.97" width="567" height="574"/>
  <object id="676" gid="18" x="4855.03" y="7098.18" width="366" height="309"/>
  <object id="675" gid="16" x="5124.67" y="7078.48" width="567" height="574"/>
  <object id="682" gid="18" x="5323.51" y="7094.18" width="366" height="309"/>
  <object id="681" gid="16" x="5588.61" y="7072.97" width="567" height="574"/>
  <object id="680" gid="18" x="5787.03" y="7094.18" width="366" height="309"/>
  <object id="679" gid="16" x="6056.67" y="7074.48" width="567" height="574"/>
  <object id="686" gid="18" x="6267.51" y="7106.18" width="366" height="309"/>
  <object id="685" gid="16" x="6543.61" y="7097.97" width="567" height="574"/>
  <object id="684" gid="18" x="6741.03" y="7116.18" width="366" height="309"/>
  <object id="683" gid="16" x="7029.67" y="7125.48" width="567" height="574"/>
  <object id="690" gid="18" x="7241" y="7159.21" width="366" height="309"/>
  <object id="689" gid="16" x="7517.1" y="7151" width="567" height="574"/>
  <object id="688" gid="18" x="7714.52" y="7169.21" width="366" height="309"/>
  <object id="687" gid="16" x="8003.16" y="7178.51" width="567" height="574"/>
  <object id="694" gid="18" x="8206" y="7194.21" width="366" height="309"/>
  <object id="693" gid="16" x="8482.1" y="7186" width="567" height="574"/>
  <object id="692" gid="18" x="8679.52" y="7204.21" width="366" height="309"/>
  <object id="691" gid="16" x="8968.16" y="7213.51" width="567" height="574"/>
  <object id="698" gid="18" x="9173" y="7243.21" width="366" height="309"/>
  <object id="697" gid="16" x="9449.1" y="7235" width="567" height="574"/>
  <object id="696" gid="18" x="9646.52" y="7253.21" width="366" height="309"/>
  <object id="695" gid="16" x="9935.16" y="7262.51" width="567" height="574"/>
  <object id="702" gid="18" x="10152" y="7292.21" width="366" height="309"/>
  <object id="701" gid="16" x="10428.1" y="7284" width="567" height="574"/>
  <object id="700" gid="18" x="10625.5" y="7302.21" width="366" height="309"/>
  <object id="699" gid="16" x="10914.2" y="7311.51" width="567" height="574"/>
  <object id="706" gid="18" x="11129" y="7339.21" width="366" height="309"/>
  <object id="705" gid="16" x="11405.1" y="7331" width="567" height="574"/>
  <object id="704" gid="18" x="11602.5" y="7349.21" width="366" height="309"/>
  <object id="703" gid="16" x="11891.2" y="7358.51" width="567" height="574"/>
  <object id="710" gid="18" x="12106" y="7386.21" width="366" height="309"/>
  <object id="709" gid="16" x="12382.1" y="7378" width="567" height="574"/>
  <object id="708" gid="18" x="12579.5" y="7396.21" width="366" height="309"/>
  <object id="707" gid="16" x="12868.2" y="7405.51" width="567" height="574"/>
  <object id="714" gid="18" x="13080" y="7424.21" width="366" height="309"/>
  <object id="713" gid="16" x="13356.1" y="7416" width="567" height="574"/>
  <object id="712" gid="18" x="13553.5" y="7434.21" width="366" height="309"/>
  <object id="711" gid="16" x="13842.2" y="7443.51" width="567" height="574"/>
  <object id="716" gid="18" x="14080" y="7424" width="366" height="309"/>
  <object id="715" gid="16" x="14368.6" y="7433.3" width="567" height="574"/>
  <object id="101" gid="10" x="14368.9" y="2266.76" width="688" height="638"/>
  <object id="84" gid="8" x="14336" y="2688" width="644" height="567"/>
  <object id="81" gid="8" x="14410.2" y="3150" width="644" height="567"/>
  <object id="68" gid="6" x="14360.2" y="3530.18" width="593" height="559"/>
 </objectgroup>
 <objectgroup id="5" name="Ostacoli" locked="1">
  <properties>
   <property name="collision" type="bool" value="true"/>
  </properties>
  <object id="462" x="2117.76" y="1836.91">
   <properties>
    <property name="collision" type="bool" value="true"/>
   </properties>
   <polygon points="0,0 45.4545,39.3939 69.697,39.3939 86.3636,28.7879 143.939,80.303 162.121,80.303 178.788,63.6364 181.818,54.5455 203.03,39.3939 237.879,65.1515 259.091,56.0606 292.424,40.9091 298.485,-7.57576 263.636,-51.5152 251.515,-81.8182 295.455,-107.576 278.788,-133.333 266.667,-206.061 222.727,-246.97 156.061,-295.455 142.424,-287.879 130.303,-300 116.667,-340.909 75.7576,-378.788 53.0303,-404.545 1.51515,-456.061 -18.1818,-478.788 -33.3333,-493.939 -54.5455,-503.03 -83.3333,-522.727 -104.545,-531.818 -125.758,-534.848 -142.424,-536.364 -154.545,-530.303 -159.091,-513.636 -150,-498.485 -143.939,-480.303 -145.455,-478.788 -142.424,-475.758 -136.364,-469.697 -133.333,-460.606 -131.818,-456.061 -128.788,-446.97 -136.364,-451.515 -143.939,-456.061 -148.485,-457.576 -159.091,-459.091 -160.606,-457.576 -180.303,-468.182 -189.394,-477.273 -203.03,-487.879 -206.061,-490.909 -215.152,-493.939 -234.848,-504.545 -272.727,-472.727 -274.242,-453.03 -274.242,-446.97 -266.667,-436.364 -268.182,-434.848 -266.667,-424.242 -269.697,-421.212 -278.788,-424.242 -286.364,-428.788 -292.424,-428.788 -296.97,-424.242 -286.364,-398.485 -284.848,-393.939 -286.364,-386.364 -284.848,-375.758 -287.879,-372.727 -286.364,-368.182 -278.788,-357.576 -263.636,-336.364 -259.091,-328.788 -257.576,-324.242 -253.03,-310.606 -250,-301.515 -251.515,-300 -248.485,-290.909 -245.455,-281.818 -237.879,-271.212 -224.242,-254.545 -221.212,-251.515 -198.485,-219.697 -189.394,-210.606 -183.333,-204.545 -168.182,-189.394 -153.03,-174.242 -148.485,-160.606 -145.455,-151.515 -133.333,-139.394 -121.212,-127.273 -100,-106.061 -87.8788,-93.9394 -72.7273,-78.7879 -66.6667,-54.5455 -57.5758,-39.3939 -36.3636,-18.1818"/>
  </object>
  <object id="561" x="4170.79" y="2989.94">
   <properties>
    <property name="collision" type="bool" value="true"/>
   </properties>
   <polygon points="0,0 45.4545,39.3939 69.697,39.3939 86.3636,28.7879 143.939,80.303 162.121,80.303 178.788,63.6364 181.818,54.5455 203.03,39.3939 237.879,65.1515 259.091,56.0606 292.424,40.9091 298.485,-7.57576 263.636,-51.5152 251.515,-81.8182 295.455,-107.576 278.788,-133.333 266.667,-206.061 222.727,-246.97 156.061,-295.455 142.424,-287.879 130.303,-300 116.667,-340.909 75.7576,-378.788 53.0303,-404.545 1.51515,-456.061 -18.1818,-478.788 -33.3333,-493.939 -54.5455,-503.03 -83.3333,-522.727 -104.545,-531.818 -125.758,-534.848 -142.424,-536.364 -154.545,-530.303 -159.091,-513.636 -150,-498.485 -143.939,-480.303 -145.455,-478.788 -142.424,-475.758 -136.364,-469.697 -133.333,-460.606 -131.818,-456.061 -128.788,-446.97 -136.364,-451.515 -143.939,-456.061 -148.485,-457.576 -159.091,-459.091 -160.606,-457.576 -180.303,-468.182 -189.394,-477.273 -203.03,-487.879 -206.061,-490.909 -215.152,-493.939 -234.848,-504.545 -272.727,-472.727 -274.242,-453.03 -274.242,-446.97 -266.667,-436.364 -268.182,-434.848 -266.667,-424.242 -269.697,-421.212 -278.788,-424.242 -286.364,-428.788 -292.424,-428.788 -296.97,-424.242 -286.364,-398.485 -284.848,-393.939 -286.364,-386.364 -284.848,-375.758 -287.879,-372.727 -286.364,-368.182 -278.788,-357.576 -263.636,-336.364 -259.091,-328.788 -257.576,-324.242 -253.03,-310.606 -250,-301.515 -251.515,-300 -248.485,-290.909 -245.455,-281.818 -237.879,-271.212 -224.242,-254.545 -221.212,-251.515 -198.485,-219.697 -189.394,-210.606 -183.333,-204.545 -168.182,-189.394 -153.03,-174.242 -148.485,-160.606 -145.455,-151.515 -133.333,-139.394 -121.212,-127.273 -100,-106.061 -87.8788,-93.9394 -72.7273,-78.7879 -66.6667,-54.5455 -57.5758,-39.3939 -36.3636,-18.1818"/>
  </object>
  <object id="562" x="4554.12" y="2097.52">
   <properties>
    <property name="collision" type="bool" value="true"/>
   </properties>
   <polygon points="0,0 45.4545,39.3939 69.697,39.3939 86.3636,28.7879 143.939,80.303 162.121,80.303 178.788,63.6364 181.818,54.5455 203.03,39.3939 237.879,65.1515 259.091,56.0606 292.424,40.9091 298.485,-7.57576 263.636,-51.5152 251.515,-81.8182 295.455,-107.576 278.788,-133.333 266.667,-206.061 222.727,-246.97 156.061,-295.455 142.424,-287.879 130.303,-300 116.667,-340.909 75.7576,-378.788 53.0303,-404.545 1.51515,-456.061 -18.1818,-478.788 -33.3333,-493.939 -54.5455,-503.03 -83.3333,-522.727 -104.545,-531.818 -125.758,-534.848 -142.424,-536.364 -154.545,-530.303 -159.091,-513.636 -150,-498.485 -143.939,-480.303 -145.455,-478.788 -142.424,-475.758 -136.364,-469.697 -133.333,-460.606 -131.818,-456.061 -128.788,-446.97 -136.364,-451.515 -143.939,-456.061 -148.485,-457.576 -159.091,-459.091 -160.606,-457.576 -180.303,-468.182 -189.394,-477.273 -203.03,-487.879 -206.061,-490.909 -215.152,-493.939 -234.848,-504.545 -272.727,-472.727 -274.242,-453.03 -274.242,-446.97 -266.667,-436.364 -268.182,-434.848 -266.667,-424.242 -269.697,-421.212 -278.788,-424.242 -286.364,-428.788 -292.424,-428.788 -296.97,-424.242 -286.364,-398.485 -284.848,-393.939 -286.364,-386.364 -284.848,-375.758 -287.879,-372.727 -286.364,-368.182 -278.788,-357.576 -263.636,-336.364 -259.091,-328.788 -257.576,-324.242 -253.03,-310.606 -250,-301.515 -251.515,-300 -248.485,-290.909 -245.455,-281.818 -237.879,-271.212 -224.242,-254.545 -221.212,-251.515 -198.485,-219.697 -189.394,-210.606 -183.333,-204.545 -168.182,-189.394 -153.03,-174.242 -148.485,-160.606 -145.455,-151.515 -133.333,-139.394 -121.212,-127.273 -100,-106.061 -87.8788,-93.9394 -72.7273,-78.7879 -66.6667,-54.5455 -57.5758,-39.3939 -36.3636,-18.1818"/>
  </object>
  <object id="563" x="8393.64" y="1965.15">
   <properties>
    <property name="collision" type="bool" value="true"/>
   </properties>
   <polygon points="0,0 45.4545,39.3939 69.697,39.3939 86.3636,28.7879 143.939,80.303 162.121,80.303 178.788,63.6364 181.818,54.5455 203.03,39.3939 237.879,65.1515 259.091,56.0606 292.424,40.9091 298.485,-7.57576 263.636,-51.5152 251.515,-81.8182 295.455,-107.576 278.788,-133.333 266.667,-206.061 222.727,-246.97 156.061,-295.455 142.424,-287.879 130.303,-300 116.667,-340.909 75.7576,-378.788 53.0303,-404.545 1.51515,-456.061 -18.1818,-478.788 -33.3333,-493.939 -54.5455,-503.03 -83.3333,-522.727 -104.545,-531.818 -125.758,-534.848 -142.424,-536.364 -154.545,-530.303 -159.091,-513.636 -150,-498.485 -143.939,-480.303 -145.455,-478.788 -142.424,-475.758 -136.364,-469.697 -133.333,-460.606 -131.818,-456.061 -128.788,-446.97 -136.364,-451.515 -143.939,-456.061 -148.485,-457.576 -159.091,-459.091 -160.606,-457.576 -180.303,-468.182 -189.394,-477.273 -203.03,-487.879 -206.061,-490.909 -215.152,-493.939 -234.848,-504.545 -272.727,-472.727 -274.242,-453.03 -274.242,-446.97 -266.667,-436.364 -268.182,-434.848 -266.667,-424.242 -269.697,-421.212 -278.788,-424.242 -286.364,-428.788 -292.424,-428.788 -296.97,-424.242 -286.364,-398.485 -284.848,-393.939 -286.364,-386.364 -284.848,-375.758 -287.879,-372.727 -286.364,-368.182 -278.788,-357.576 -263.636,-336.364 -259.091,-328.788 -257.576,-324.242 -253.03,-310.606 -250,-301.515 -251.515,-300 -248.485,-290.909 -245.455,-281.818 -237.879,-271.212 -224.242,-254.545 -221.212,-251.515 -198.485,-219.697 -189.394,-210.606 -183.333,-204.545 -168.182,-189.394 -153.03,-174.242 -148.485,-160.606 -145.455,-151.515 -133.333,-139.394 -121.212,-127.273 -100,-106.061 -87.8788,-93.9394 -72.7273,-78.7879 -66.6667,-54.5455 -57.5758,-39.3939 -36.3636,-18.1818"/>
  </object>
  <object id="564" x="10439.1" y="2477.27">
   <properties>
    <property name="collision" type="bool" value="true"/>
   </properties>
   <polygon points="0,0 45.4545,39.3939 69.697,39.3939 86.3636,28.7879 143.939,80.303 162.121,80.303 178.788,63.6364 181.818,54.5455 203.03,39.3939 237.879,65.1515 259.091,56.0606 292.424,40.9091 298.485,-7.57576 263.636,-51.5152 251.515,-81.8182 295.455,-107.576 278.788,-133.333 266.667,-206.061 222.727,-246.97 156.061,-295.455 142.424,-287.879 130.303,-300 116.667,-340.909 75.7576,-378.788 53.0303,-404.545 1.51515,-456.061 -18.1818,-478.788 -33.3333,-493.939 -54.5455,-503.03 -83.3333,-522.727 -104.545,-531.818 -125.758,-534.848 -142.424,-536.364 -154.545,-530.303 -159.091,-513.636 -150,-498.485 -143.939,-480.303 -145.455,-478.788 -142.424,-475.758 -136.364,-469.697 -133.333,-460.606 -131.818,-456.061 -128.788,-446.97 -136.364,-451.515 -143.939,-456.061 -148.485,-457.576 -159.091,-459.091 -160.606,-457.576 -180.303,-468.182 -189.394,-477.273 -203.03,-487.879 -206.061,-490.909 -215.152,-493.939 -234.848,-504.545 -272.727,-472.727 -274.242,-453.03 -274.242,-446.97 -266.667,-436.364 -268.182,-434.848 -266.667,-424.242 -269.697,-421.212 -278.788,-424.242 -286.364,-428.788 -292.424,-428.788 -296.97,-424.242 -286.364,-398.485 -284.848,-393.939 -286.364,-386.364 -284.848,-375.758 -287.879,-372.727 -286.364,-368.182 -278.788,-357.576 -263.636,-336.364 -259.091,-328.788 -257.576,-324.242 -253.03,-310.606 -250,-301.515 -251.515,-300 -248.485,-290.909 -245.455,-281.818 -237.879,-271.212 -224.242,-254.545 -221.212,-251.515 -198.485,-219.697 -189.394,-210.606 -183.333,-204.545 -168.182,-189.394 -153.03,-174.242 -148.485,-160.606 -145.455,-151.515 -133.333,-139.394 -121.212,-127.273 -100,-106.061 -87.8788,-93.9394 -72.7273,-78.7879 -66.6667,-54.5455 -57.5758,-39.3939 -36.3636,-18.1818"/>
  </object>
  <object id="565" x="12489.1" y="2990.91">
   <properties>
    <property name="collision" type="bool" value="true"/>
   </properties>
   <polygon points="0,0 45.4545,39.3939 69.697,39.3939 86.3636,28.7879 143.939,80.303 162.121,80.303 178.788,63.6364 181.818,54.5455 203.03,39.3939 237.879,65.1515 259.091,56.0606 292.424,40.9091 298.485,-7.57576 263.636,-51.5152 251.515,-81.8182 295.455,-107.576 278.788,-133.333 266.667,-206.061 222.727,-246.97 156.061,-295.455 142.424,-287.879 130.303,-300 116.667,-340.909 75.7576,-378.788 53.0303,-404.545 1.51515,-456.061 -18.1818,-478.788 -33.3333,-493.939 -54.5455,-503.03 -83.3333,-522.727 -104.545,-531.818 -125.758,-534.848 -142.424,-536.364 -154.545,-530.303 -159.091,-513.636 -150,-498.485 -143.939,-480.303 -145.455,-478.788 -142.424,-475.758 -136.364,-469.697 -133.333,-460.606 -131.818,-456.061 -128.788,-446.97 -136.364,-451.515 -143.939,-456.061 -148.485,-457.576 -159.091,-459.091 -160.606,-457.576 -180.303,-468.182 -189.394,-477.273 -203.03,-487.879 -206.061,-490.909 -215.152,-493.939 -234.848,-504.545 -272.727,-472.727 -274.242,-453.03 -274.242,-446.97 -266.667,-436.364 -268.182,-434.848 -266.667,-424.242 -269.697,-421.212 -278.788,-424.242 -286.364,-428.788 -292.424,-428.788 -296.97,-424.242 -286.364,-398.485 -284.848,-393.939 -286.364,-386.364 -284.848,-375.758 -287.879,-372.727 -286.364,-368.182 -278.788,-357.576 -263.636,-336.364 -259.091,-328.788 -257.576,-324.242 -253.03,-310.606 -250,-301.515 -251.515,-300 -248.485,-290.909 -245.455,-281.818 -237.879,-271.212 -224.242,-254.545 -221.212,-251.515 -198.485,-219.697 -189.394,-210.606 -183.333,-204.545 -168.182,-189.394 -153.03,-174.242 -148.485,-160.606 -145.455,-151.515 -133.333,-139.394 -121.212,-127.273 -100,-106.061 -87.8788,-93.9394 -72.7273,-78.7879 -66.6667,-54.5455 -57.5758,-39.3939 -36.3636,-18.1818"/>
  </object>
  <object id="566" x="12489.1" y="2990.91">
   <properties>
    <property name="collision" type="bool" value="true"/>
   </properties>
   <polygon points="0,0 45.4545,39.3939 69.697,39.3939 86.3636,28.7879 143.939,80.303 162.121,80.303 178.788,63.6364 181.818,54.5455 203.03,39.3939 237.879,65.1515 259.091,56.0606 292.424,40.9091 298.485,-7.57576 263.636,-51.5152 251.515,-81.8182 295.455,-107.576 278.788,-133.333 266.667,-206.061 222.727,-246.97 156.061,-295.455 142.424,-287.879 130.303,-300 116.667,-340.909 75.7576,-378.788 53.0303,-404.545 1.51515,-456.061 -18.1818,-478.788 -33.3333,-493.939 -54.5455,-503.03 -83.3333,-522.727 -104.545,-531.818 -125.758,-534.848 -142.424,-536.364 -154.545,-530.303 -159.091,-513.636 -150,-498.485 -143.939,-480.303 -145.455,-478.788 -142.424,-475.758 -136.364,-469.697 -133.333,-460.606 -131.818,-456.061 -128.788,-446.97 -136.364,-451.515 -143.939,-456.061 -148.485,-457.576 -159.091,-459.091 -160.606,-457.576 -180.303,-468.182 -189.394,-477.273 -203.03,-487.879 -206.061,-490.909 -215.152,-493.939 -234.848,-504.545 -272.727,-472.727 -274.242,-453.03 -274.242,-446.97 -266.667,-436.364 -268.182,-434.848 -266.667,-424.242 -269.697,-421.212 -278.788,-424.242 -286.364,-428.788 -292.424,-428.788 -296.97,-424.242 -286.364,-398.485 -284.848,-393.939 -286.364,-386.364 -284.848,-375.758 -287.879,-372.727 -286.364,-368.182 -278.788,-357.576 -263.636,-336.364 -259.091,-328.788 -257.576,-324.242 -253.03,-310.606 -250,-301.515 -251.515,-300 -248.485,-290.909 -245.455,-281.818 -237.879,-271.212 -224.242,-254.545 -221.212,-251.515 -198.485,-219.697 -189.394,-210.606 -183.333,-204.545 -168.182,-189.394 -153.03,-174.242 -148.485,-160.606 -145.455,-151.515 -133.333,-139.394 -121.212,-127.273 -100,-106.061 -87.8788,-93.9394 -72.7273,-78.7879 -66.6667,-54.5455 -57.5758,-39.3939 -36.3636,-18.1818"/>
  </object>
  <object id="567" x="12364.8" y="5812.12">
   <properties>
    <property name="collision" type="bool" value="true"/>
   </properties>
   <polygon points="0,0 45.4545,39.3939 69.697,39.3939 86.3636,28.7879 143.939,80.303 162.121,80.303 178.788,63.6364 181.818,54.5455 203.03,39.3939 237.879,65.1515 259.091,56.0606 292.424,40.9091 298.485,-7.57576 263.636,-51.5152 251.515,-81.8182 295.455,-107.576 278.788,-133.333 266.667,-206.061 222.727,-246.97 156.061,-295.455 142.424,-287.879 130.303,-300 116.667,-340.909 75.7576,-378.788 53.0303,-404.545 1.51515,-456.061 -18.1818,-478.788 -33.3333,-493.939 -54.5455,-503.03 -83.3333,-522.727 -104.545,-531.818 -125.758,-534.848 -142.424,-536.364 -154.545,-530.303 -159.091,-513.636 -150,-498.485 -143.939,-480.303 -145.455,-478.788 -142.424,-475.758 -136.364,-469.697 -133.333,-460.606 -131.818,-456.061 -128.788,-446.97 -136.364,-451.515 -143.939,-456.061 -148.485,-457.576 -159.091,-459.091 -160.606,-457.576 -180.303,-468.182 -189.394,-477.273 -203.03,-487.879 -206.061,-490.909 -215.152,-493.939 -234.848,-504.545 -272.727,-472.727 -274.242,-453.03 -274.242,-446.97 -266.667,-436.364 -268.182,-434.848 -266.667,-424.242 -269.697,-421.212 -278.788,-424.242 -286.364,-428.788 -292.424,-428.788 -296.97,-424.242 -286.364,-398.485 -284.848,-393.939 -286.364,-386.364 -284.848,-375.758 -287.879,-372.727 -286.364,-368.182 -278.788,-357.576 -263.636,-336.364 -259.091,-328.788 -257.576,-324.242 -253.03,-310.606 -250,-301.515 -251.515,-300 -248.485,-290.909 -245.455,-281.818 -237.879,-271.212 -224.242,-254.545 -221.212,-251.515 -198.485,-219.697 -189.394,-210.606 -183.333,-204.545 -168.182,-189.394 -153.03,-174.242 -148.485,-160.606 -145.455,-151.515 -133.333,-139.394 -121.212,-127.273 -100,-106.061 -87.8788,-93.9394 -72.7273,-78.7879 -66.6667,-54.5455 -57.5758,-39.3939 -36.3636,-18.1818"/>
  </object>
  <object id="568" x="8524.36" y="4400.24">
   <properties>
    <property name="collision" type="bool" value="true"/>
   </properties>
   <polygon points="0,0 45.4545,39.3939 69.697,39.3939 86.3636,28.7879 143.939,80.303 162.121,80.303 178.788,63.6364 181.818,54.5455 203.03,39.3939 237.879,65.1515 259.091,56.0606 292.424,40.9091 298.485,-7.57576 263.636,-51.5152 251.515,-81.8182 295.455,-107.576 278.788,-133.333 266.667,-206.061 222.727,-246.97 156.061,-295.455 142.424,-287.879 130.303,-300 116.667,-340.909 75.7576,-378.788 53.0303,-404.545 1.51515,-456.061 -18.1818,-478.788 -33.3333,-493.939 -54.5455,-503.03 -83.3333,-522.727 -104.545,-531.818 -125.758,-534.848 -142.424,-536.364 -154.545,-530.303 -159.091,-513.636 -150,-498.485 -143.939,-480.303 -145.455,-478.788 -142.424,-475.758 -136.364,-469.697 -133.333,-460.606 -131.818,-456.061 -128.788,-446.97 -136.364,-451.515 -143.939,-456.061 -148.485,-457.576 -159.091,-459.091 -160.606,-457.576 -180.303,-468.182 -189.394,-477.273 -203.03,-487.879 -206.061,-490.909 -215.152,-493.939 -234.848,-504.545 -272.727,-472.727 -274.242,-453.03 -274.242,-446.97 -266.667,-436.364 -268.182,-434.848 -266.667,-424.242 -269.697,-421.212 -278.788,-424.242 -286.364,-428.788 -292.424,-428.788 -296.97,-424.242 -286.364,-398.485 -284.848,-393.939 -286.364,-386.364 -284.848,-375.758 -287.879,-372.727 -286.364,-368.182 -278.788,-357.576 -263.636,-336.364 -259.091,-328.788 -257.576,-324.242 -253.03,-310.606 -250,-301.515 -251.515,-300 -248.485,-290.909 -245.455,-281.818 -237.879,-271.212 -224.242,-254.545 -221.212,-251.515 -198.485,-219.697 -189.394,-210.606 -183.333,-204.545 -168.182,-189.394 -153.03,-174.242 -148.485,-160.606 -145.455,-151.515 -133.333,-139.394 -121.212,-127.273 -100,-106.061 -87.8788,-93.9394 -72.7273,-78.7879 -66.6667,-54.5455 -57.5758,-39.3939 -36.3636,-18.1818"/>
  </object>
  <object id="569" x="7368.3" y="6835.09">
   <properties>
    <property name="collision" type="bool" value="true"/>
   </properties>
   <polygon points="0,0 45.4545,39.3939 69.697,39.3939 86.3636,28.7879 143.939,80.303 162.121,80.303 178.788,63.6364 181.818,54.5455 203.03,39.3939 237.879,65.1515 259.091,56.0606 292.424,40.9091 298.485,-7.57576 263.636,-51.5152 251.515,-81.8182 295.455,-107.576 278.788,-133.333 266.667,-206.061 222.727,-246.97 156.061,-295.455 142.424,-287.879 130.303,-300 116.667,-340.909 75.7576,-378.788 53.0303,-404.545 1.51515,-456.061 -18.1818,-478.788 -33.3333,-493.939 -54.5455,-503.03 -83.3333,-522.727 -104.545,-531.818 -125.758,-534.848 -142.424,-536.364 -154.545,-530.303 -159.091,-513.636 -150,-498.485 -143.939,-480.303 -145.455,-478.788 -142.424,-475.758 -136.364,-469.697 -133.333,-460.606 -131.818,-456.061 -128.788,-446.97 -136.364,-451.515 -143.939,-456.061 -148.485,-457.576 -159.091,-459.091 -160.606,-457.576 -180.303,-468.182 -189.394,-477.273 -203.03,-487.879 -206.061,-490.909 -215.152,-493.939 -234.848,-504.545 -272.727,-472.727 -274.242,-453.03 -274.242,-446.97 -266.667,-436.364 -268.182,-434.848 -266.667,-424.242 -269.697,-421.212 -278.788,-424.242 -286.364,-428.788 -292.424,-428.788 -296.97,-424.242 -286.364,-398.485 -284.848,-393.939 -286.364,-386.364 -284.848,-375.758 -287.879,-372.727 -286.364,-368.182 -278.788,-357.576 -263.636,-336.364 -259.091,-328.788 -257.576,-324.242 -253.03,-310.606 -250,-301.515 -251.515,-300 -248.485,-290.909 -245.455,-281.818 -237.879,-271.212 -224.242,-254.545 -221.212,-251.515 -198.485,-219.697 -189.394,-210.606 -183.333,-204.545 -168.182,-189.394 -153.03,-174.242 -148.485,-160.606 -145.455,-151.515 -133.333,-139.394 -121.212,-127.273 -100,-106.061 -87.8788,-93.9394 -72.7273,-78.7879 -66.6667,-54.5455 -57.5758,-39.3939 -36.3636,-18.1818"/>
  </object>
  <object id="570" x="5318.3" y="5418.42">
   <properties>
    <property name="collision" type="bool" value="true"/>
   </properties>
   <polygon points="0,0 45.4545,39.3939 69.697,39.3939 86.3636,28.7879 143.939,80.303 162.121,80.303 178.788,63.6364 181.818,54.5455 203.03,39.3939 237.879,65.1515 259.091,56.0606 292.424,40.9091 298.485,-7.57576 263.636,-51.5152 251.515,-81.8182 295.455,-107.576 278.788,-133.333 266.667,-206.061 222.727,-246.97 156.061,-295.455 142.424,-287.879 130.303,-300 116.667,-340.909 75.7576,-378.788 53.0303,-404.545 1.51515,-456.061 -18.1818,-478.788 -33.3333,-493.939 -54.5455,-503.03 -83.3333,-522.727 -104.545,-531.818 -125.758,-534.848 -142.424,-536.364 -154.545,-530.303 -159.091,-513.636 -150,-498.485 -143.939,-480.303 -145.455,-478.788 -142.424,-475.758 -136.364,-469.697 -133.333,-460.606 -131.818,-456.061 -128.788,-446.97 -136.364,-451.515 -143.939,-456.061 -148.485,-457.576 -159.091,-459.091 -160.606,-457.576 -180.303,-468.182 -189.394,-477.273 -203.03,-487.879 -206.061,-490.909 -215.152,-493.939 -234.848,-504.545 -272.727,-472.727 -274.242,-453.03 -274.242,-446.97 -266.667,-436.364 -268.182,-434.848 -266.667,-424.242 -269.697,-421.212 -278.788,-424.242 -286.364,-428.788 -292.424,-428.788 -296.97,-424.242 -286.364,-398.485 -284.848,-393.939 -286.364,-386.364 -284.848,-375.758 -287.879,-372.727 -286.364,-368.182 -278.788,-357.576 -263.636,-336.364 -259.091,-328.788 -257.576,-324.242 -253.03,-310.606 -250,-301.515 -251.515,-300 -248.485,-290.909 -245.455,-281.818 -237.879,-271.212 -224.242,-254.545 -221.212,-251.515 -198.485,-219.697 -189.394,-210.606 -183.333,-204.545 -168.182,-189.394 -153.03,-174.242 -148.485,-160.606 -145.455,-151.515 -133.333,-139.394 -121.212,-127.273 -100,-106.061 -87.8788,-93.9394 -72.7273,-78.7879 -66.6667,-54.5455 -57.5758,-39.3939 -36.3636,-18.1818"/>
  </object>
  <object id="571" x="4424.36" y="6572.97">
   <properties>
    <property name="collision" type="bool" value="true"/>
   </properties>
   <polygon points="0,0 45.4545,39.3939 69.697,39.3939 86.3636,28.7879 143.939,80.303 162.121,80.303 178.788,63.6364 181.818,54.5455 203.03,39.3939 237.879,65.1515 259.091,56.0606 292.424,40.9091 298.485,-7.57576 263.636,-51.5152 251.515,-81.8182 295.455,-107.576 278.788,-133.333 266.667,-206.061 222.727,-246.97 156.061,-295.455 142.424,-287.879 130.303,-300 116.667,-340.909 75.7576,-378.788 53.0303,-404.545 1.51515,-456.061 -18.1818,-478.788 -33.3333,-493.939 -54.5455,-503.03 -83.3333,-522.727 -104.545,-531.818 -125.758,-534.848 -142.424,-536.364 -154.545,-530.303 -159.091,-513.636 -150,-498.485 -143.939,-480.303 -145.455,-478.788 -142.424,-475.758 -136.364,-469.697 -133.333,-460.606 -131.818,-456.061 -128.788,-446.97 -136.364,-451.515 -143.939,-456.061 -148.485,-457.576 -159.091,-459.091 -160.606,-457.576 -180.303,-468.182 -189.394,-477.273 -203.03,-487.879 -206.061,-490.909 -215.152,-493.939 -234.848,-504.545 -272.727,-472.727 -274.242,-453.03 -274.242,-446.97 -266.667,-436.364 -268.182,-434.848 -266.667,-424.242 -269.697,-421.212 -278.788,-424.242 -286.364,-428.788 -292.424,-428.788 -296.97,-424.242 -286.364,-398.485 -284.848,-393.939 -286.364,-386.364 -284.848,-375.758 -287.879,-372.727 -286.364,-368.182 -278.788,-357.576 -263.636,-336.364 -259.091,-328.788 -257.576,-324.242 -253.03,-310.606 -250,-301.515 -251.515,-300 -248.485,-290.909 -245.455,-281.818 -237.879,-271.212 -224.242,-254.545 -221.212,-251.515 -198.485,-219.697 -189.394,-210.606 -183.333,-204.545 -168.182,-189.394 -153.03,-174.242 -148.485,-160.606 -145.455,-151.515 -133.333,-139.394 -121.212,-127.273 -100,-106.061 -87.8788,-93.9394 -72.7273,-78.7879 -66.6667,-54.5455 -57.5758,-39.3939 -36.3636,-18.1818"/>
  </object>
  <object id="490" name="WallEast" x="13861.6" y="1271.76">
   <properties>
    <property name="collision" type="bool" value="true"/>
   </properties>
   <polygon points="0,0 37.8788,337.879 -37.8788,280.303 -31.8182,377.273 15.1515,421.212 40.9091,783.333 60.6061,806.061 90.9091,830.303 22.7273,819.697 30.303,896.97 13.6364,919.697 -56.0606,910.606 -54.5455,1048.48 -10.6061,1131.82 151.515,1296.97 90.9091,1290.91 103.03,1363.64 78.7879,1387.88 16.6667,1377.27 22.7273,1528.79 72.7273,1600 210.606,1740.91 137.879,1746.97 60.6061,1684.85 57.5758,1687.88 87.8788,1718.18 62.1212,1713.64 68.1818,1774.24 83.3333,1789.39 92.4242,1877.27 48.4848,1830.3 4.54545,1868.18 -24.2424,1842.42 -100,1845.45 -131.818,1822.73 -174.242,1780.3 -134.848,1825.76 -162.121,1822.73 -159.091,1868.18 -136.364,1893.94 -143.939,1968.18 -178.788,1942.42 -224.242,1975.76 -59.0909,2143.94 -57.5758,2166.67 -81.8182,2160.61 -112.121,2136.36 -150,2101.52 -153.03,2104.55 -110.606,2146.97 -143.939,2143.94 -136.364,2190.91 -122.727,2201.52 -121.212,2290.91 -157.576,2260.61 -201.515,2298.48 -36.3636,2472.73 -30.303,2521.21 -7.57576,2540.91 1.51515,2543.94 92.4242,2628.79 81.8182,2639.39 92.4242,2646.97 162.121,2656.06 190.909,2681.82 190.909,2718.18 228.788,2753.03 222.727,2759.09 139.394,2751.52 153.03,2895.45 177.273,2919.7 189.394,2931.82 189.394,2968.18 231.818,3010.61 218.182,3018.18 146.97,3016.67 160.606,3160.61 186.364,3183.33 183.333,3222.73 262.121,3301.52 148.485,3306.06 151.515,3442.42 171.212,3477.27 180.303,3480.3 256.061,3556.06 146.97,3556.06 139.394,3563.64 151.515,3715.15 175.758,3739.39 213.636,3774.24 156.061,3771.21 159.091,3846.97 142.424,3869.7 72.7273,3860.61 77.2727,4001.52 121.212,4078.79 225.758,4186.36 222.727,4189.39 181.818,4151.52 181.818,4242.42 227.273,4287.88 248.485,4587.88 245.455,4578.79 221.212,4566.67 178.788,4530.3 174.242,4625.76 224.242,4672.73 250,4974.24 227.273,4954.55 219.697,4956.06 180.303,4916.67 181.818,5012.12 228.788,5056.06 250,5350 233.333,5348.48 181.818,5296.97 184.848,5396.97 221.212,5433.33 253.03,5819.7 425.758,5968.18 771.212,4343.94 471.212,-186.364"/>
  </object>
  <object id="491" name="WallWest" x="1907.03" y="1226.3">
   <properties>
    <property name="collision" type="bool" value="true"/>
   </properties>
   <polygon points="0,0 3.0303,1700 3.0303,4627.27 -10.6061,5610.61 -425.758,5492.42 -395.455,-446.97"/>
  </object>
  <object id="493" x="2801" y="3427">
   <properties>
    <property name="collision" type="bool" value="true"/>
   </properties>
   <polygon points="0,0 -1,-43 -32,-68 -174,-114 -186,-126 -192,-180 -196,-192 -204,-200 -210,-202 -218,-206 -226,-218 -228,-228 -227,-233 -225,-235 -222,-234 -210,-226 -208,-224 -205,-219 -200,-212 -192,-204 -186,-202 -177,-195 -157,-187 -149,-187 -141,-191 -130,-190 -115,-185 -108,-184 -95,-181 -80,-176 -77,-175 -61,-171 -52,-168 -49,-167 -43,-169 -41,-171 -33,-167 -19,-165 -19,-197 -45,-223 -53,-223 -357,-427 -380,-448 -396,-448 -430,-474 -482,-506 -520,-524 -524,-520 -549,-535 -580,-552 -581,-551 -594,-534 -623,-541 -678,-526 -695,-517 -698,-514 -702,-510 -708,-504 -709,-503 -710,-502 -729,-507 -737,-503 -744,-504 -749,-503 -751,-501 -752,-500 -756,-500 -758,-498 -765,-491 -772,-484 -777,-483 -778,-482 -781,-479 -783,-477 -785,-471 -789,-467 -791,-461 -792,-460 -794,-454 -801,-443 -803,-441 -806,-438 -806,-434 -806,-430 -809,-427 -811,-413 -814,-406 -817,-403 -819,-401 -823,-397 -822,-394 -822,-390 -823,-385 -824,-384 -821,-379 -824,-376 -825,-371 -825,-363 -826,-358 -830,-354 -832,-352 -835,-349 -835,-341 -834,-338 -831,-329 -828,-316 -830,-294 -829,-287 -830,-286 -823,-273 -820,-264 -821,-263 -820,-260 -823,-257 -820,-248 -820,-244 -821,-231 -820,-228 -823,-225 -820,-220 -819,-217 -816,-204 -811,-197 -808,-192 -807,-181 -805,-179 -794,-170 -790,-166 -785,-167 -775,-149 -771,-145 -767,-141 -761,-131 -757,-127 -756,-124 -740,-104 -738,-102 -734,-90 -676,-40 -656,-32 -570,26 -566,22 -562,22 -560,20 -554,22 -553,21 -543,27 -538,30 -532,32 -530,34 -524,36 -513,41 -485,65 -406,110 -325,125 -319,123 -318,122 -316,120 -313,117 -308,108 -311,99 -318,90 -317,89 -322,82 -327,75 -326,74 -333,65 -355,47 -361,33"/>
  </object>
  <object id="494" x="2364" y="2568">
   <properties>
    <property name="collision" type="bool" value="true"/>
   </properties>
   <polygon points="0,0 6,-6 7,-11 7,-15 9,-21 11,-23 14,-26 12,-28 5,-33 -9,-47 -13,-51 -17,-55 -24,-64 -27,-73 -34,-86 -36,-96 -37,-103 -40,-112 -44,-120 -43,-121 -43,-125 -33,-119 -31,-117 -25,-111 -16,-100 -13,-95 -9,-91 -4,-92 -9,-99 -6,-106 -9,-111 -23,-125 -28,-132 -44,-156 -47,-161 -48,-164 -50,-170 -59,-189 -61,-195 -58,-198 -53,-203 -54,-206 -60,-216 -60,-220 -62,-230 -62,-242 -61,-247 -61,-255 -69,-263 -75,-273 -88,-284 -105,-287 -110,-282 -113,-279 -114,-278 -118,-286 -120,-288 -125,-291 -127,-289 -135,-281 -140,-276 -144,-268 -153,-259 -156,-256 -160,-256 -167,-257 -176,-260 -180,-260 -184,-260 -189,-259 -196,-260 -206,-262 -212,-264 -219,-257 -221,-255 -226,-250 -230,-246 -229,-243 -223,-229 -221,-227 -220,-220 -218,-214 -223,-209 -233,-199 -242,-186 -243,-185 -241,-179 -239,-169 -238,-162 -238,-158 -238,-154 -235,-145 -234,-142 -233,-139 -227,-141 -224,-140 -220,-140 -214,-138 -208,-140 -203,-137 -204,-132 -207,-117 -207,-113 -208,-104 -209,-103 -208,-100 -205,-95 -201,-87 -200,-80 -201,-79 -200,-76 -197,-63 -189,-47 -187,-45 -186,-42 -179,-37 -177,-39 -170,-42 -163,-53 -162,-54 -157,-55 -144,-48 -133,-39 -125,-43 -127,-49 -124,-52 -113,-47 -106,-46 -105,-51 -92,-48 -89,-51 -83,-45 -84,-44 -82,-38 -67,-21 -63,-17 -59,-9 -57,-7 -53,-3 -49,-3 -38,-2 -38,-6 -46,-18 -54,-26 -58,-30 -63,-33 -71,-41 -79,-53 -88,-68 -91,-73 -92,-76 -91,-77 -87,-81 -86,-82 -74,-70 -69,-63 -63,-57 -56,-56 -55,-65 -55,-69 -61,-75 -71,-85 -65,-83 -59,-77 -45,-63 -37,-55 -28,-40 -23,-29"/>
  </object>
  <object id="495" x="2749" y="1931">
   <properties>
    <property name="collision" type="bool" value="true"/>
   </properties>
   <polygon points="0,0 6,-6 7,-11 7,-15 9,-21 11,-23 14,-26 12,-28 5,-33 -9,-47 -13,-51 -17,-55 -24,-64 -27,-73 -34,-86 -36,-96 -37,-103 -40,-112 -44,-120 -43,-121 -43,-125 -33,-119 -31,-117 -25,-111 -16,-100 -13,-95 -9,-91 -4,-92 -9,-99 -6,-106 -9,-111 -23,-125 -28,-132 -44,-156 -47,-161 -48,-164 -50,-170 -59,-189 -61,-195 -58,-198 -53,-203 -54,-206 -60,-216 -60,-220 -62,-230 -62,-242 -61,-247 -61,-255 -69,-263 -75,-273 -88,-284 -105,-287 -110,-282 -113,-279 -114,-278 -118,-286 -120,-288 -125,-291 -127,-289 -135,-281 -140,-276 -144,-268 -153,-259 -156,-256 -160,-256 -167,-257 -176,-260 -180,-260 -184,-260 -189,-259 -196,-260 -206,-262 -212,-264 -219,-257 -221,-255 -226,-250 -230,-246 -229,-243 -223,-229 -221,-227 -220,-220 -218,-214 -223,-209 -233,-199 -242,-186 -243,-185 -241,-179 -239,-169 -238,-162 -238,-158 -238,-154 -235,-145 -234,-142 -233,-139 -227,-141 -224,-140 -220,-140 -214,-138 -208,-140 -203,-137 -204,-132 -207,-117 -207,-113 -208,-104 -209,-103 -208,-100 -205,-95 -201,-87 -200,-80 -201,-79 -200,-76 -197,-63 -189,-47 -187,-45 -186,-42 -179,-37 -177,-39 -170,-42 -163,-53 -162,-54 -157,-55 -144,-48 -133,-39 -125,-43 -127,-49 -124,-52 -113,-47 -106,-46 -105,-51 -92,-48 -89,-51 -83,-45 -84,-44 -82,-38 -67,-21 -63,-17 -59,-9 -57,-7 -53,-3 -49,-3 -38,-2 -38,-6 -46,-18 -54,-26 -58,-30 -63,-33 -71,-41 -79,-53 -88,-68 -91,-73 -92,-76 -91,-77 -87,-81 -86,-82 -74,-70 -69,-63 -63,-57 -56,-56 -55,-65 -55,-69 -61,-75 -71,-85 -65,-83 -59,-77 -45,-63 -37,-55 -28,-40 -23,-29"/>
  </object>
  <object id="497" x="4153" y="2311">
   <properties>
    <property name="collision" type="bool" value="true"/>
   </properties>
   <polygon points="0,0 6,-6 7,-11 7,-15 9,-21 11,-23 14,-26 12,-28 5,-33 -9,-47 -13,-51 -17,-55 -24,-64 -27,-73 -34,-86 -36,-96 -37,-103 -40,-112 -44,-120 -43,-121 -43,-125 -33,-119 -31,-117 -25,-111 -16,-100 -13,-95 -9,-91 -4,-92 -9,-99 -6,-106 -9,-111 -23,-125 -28,-132 -44,-156 -47,-161 -48,-164 -50,-170 -59,-189 -61,-195 -58,-198 -53,-203 -54,-206 -60,-216 -60,-220 -62,-230 -62,-242 -61,-247 -61,-255 -69,-263 -75,-273 -88,-284 -105,-287 -110,-282 -113,-279 -114,-278 -118,-286 -120,-288 -125,-291 -127,-289 -135,-281 -140,-276 -144,-268 -153,-259 -156,-256 -160,-256 -167,-257 -176,-260 -180,-260 -184,-260 -189,-259 -196,-260 -206,-262 -212,-264 -219,-257 -221,-255 -226,-250 -230,-246 -229,-243 -223,-229 -221,-227 -220,-220 -218,-214 -223,-209 -233,-199 -242,-186 -243,-185 -241,-179 -239,-169 -238,-162 -238,-158 -238,-154 -235,-145 -234,-142 -233,-139 -227,-141 -224,-140 -220,-140 -214,-138 -208,-140 -203,-137 -204,-132 -207,-117 -207,-113 -208,-104 -209,-103 -208,-100 -205,-95 -201,-87 -200,-80 -201,-79 -200,-76 -197,-63 -189,-47 -187,-45 -186,-42 -179,-37 -177,-39 -170,-42 -163,-53 -162,-54 -157,-55 -144,-48 -133,-39 -125,-43 -127,-49 -124,-52 -113,-47 -106,-46 -105,-51 -92,-48 -89,-51 -83,-45 -84,-44 -82,-38 -67,-21 -63,-17 -59,-9 -57,-7 -53,-3 -49,-3 -38,-2 -38,-6 -46,-18 -54,-26 -58,-30 -63,-33 -71,-41 -79,-53 -88,-68 -91,-73 -92,-76 -91,-77 -87,-81 -86,-82 -74,-70 -69,-63 -63,-57 -56,-56 -55,-65 -55,-69 -61,-75 -71,-85 -65,-83 -59,-77 -45,-63 -37,-55 -28,-40 -23,-29"/>
  </object>
  <object id="529" x="3566" y="1478">
   <properties>
    <property name="collision" type="bool" value="true"/>
   </properties>
   <polygon points="0,0 6,-6 7,-11 7,-15 9,-21 11,-23 14,-26 12,-28 5,-33 -9,-47 -13,-51 -17,-55 -24,-64 -27,-73 -34,-86 -36,-96 -37,-103 -40,-112 -44,-120 -43,-121 -43,-125 -33,-119 -31,-117 -25,-111 -16,-100 -13,-95 -9,-91 -4,-92 -9,-99 -6,-106 -9,-111 -23,-125 -28,-132 -44,-156 -47,-161 -48,-164 -50,-170 -59,-189 -61,-195 -58,-198 -53,-203 -54,-206 -60,-216 -60,-220 -62,-230 -62,-242 -61,-247 -61,-255 -69,-263 -75,-273 -88,-284 -105,-287 -110,-282 -113,-279 -114,-278 -118,-286 -120,-288 -125,-291 -127,-289 -135,-281 -140,-276 -144,-268 -153,-259 -156,-256 -160,-256 -167,-257 -176,-260 -180,-260 -184,-260 -189,-259 -196,-260 -206,-262 -212,-264 -219,-257 -221,-255 -226,-250 -230,-246 -229,-243 -223,-229 -221,-227 -220,-220 -218,-214 -223,-209 -233,-199 -242,-186 -243,-185 -241,-179 -239,-169 -238,-162 -238,-158 -238,-154 -235,-145 -234,-142 -233,-139 -227,-141 -224,-140 -220,-140 -214,-138 -208,-140 -203,-137 -204,-132 -207,-117 -207,-113 -208,-104 -209,-103 -208,-100 -205,-95 -201,-87 -200,-80 -201,-79 -200,-76 -197,-63 -189,-47 -187,-45 -186,-42 -179,-37 -177,-39 -170,-42 -163,-53 -162,-54 -157,-55 -144,-48 -133,-39 -125,-43 -127,-49 -124,-52 -113,-47 -106,-46 -105,-51 -92,-48 -89,-51 -83,-45 -84,-44 -82,-38 -67,-21 -63,-17 -59,-9 -57,-7 -53,-3 -49,-3 -38,-2 -38,-6 -46,-18 -54,-26 -58,-30 -63,-33 -71,-41 -79,-53 -88,-68 -91,-73 -92,-76 -91,-77 -87,-81 -86,-82 -74,-70 -69,-63 -63,-57 -56,-56 -55,-65 -55,-69 -61,-75 -71,-85 -65,-83 -59,-77 -45,-63 -37,-55 -28,-40 -23,-29"/>
  </object>
  <object id="498" x="5052" y="2572">
   <properties>
    <property name="collision" type="bool" value="true"/>
   </properties>
   <polygon points="0,0 6,-6 7,-11 7,-15 9,-21 11,-23 14,-26 12,-28 5,-33 -9,-47 -13,-51 -17,-55 -24,-64 -27,-73 -34,-86 -36,-96 -37,-103 -40,-112 -44,-120 -43,-121 -43,-125 -33,-119 -31,-117 -25,-111 -16,-100 -13,-95 -9,-91 -4,-92 -9,-99 -6,-106 -9,-111 -23,-125 -28,-132 -44,-156 -47,-161 -48,-164 -50,-170 -59,-189 -61,-195 -58,-198 -53,-203 -54,-206 -60,-216 -60,-220 -62,-230 -62,-242 -61,-247 -61,-255 -69,-263 -75,-273 -88,-284 -105,-287 -110,-282 -113,-279 -114,-278 -118,-286 -120,-288 -125,-291 -127,-289 -135,-281 -140,-276 -144,-268 -153,-259 -156,-256 -160,-256 -167,-257 -176,-260 -180,-260 -184,-260 -189,-259 -196,-260 -206,-262 -212,-264 -219,-257 -221,-255 -226,-250 -230,-246 -229,-243 -223,-229 -221,-227 -220,-220 -218,-214 -223,-209 -233,-199 -242,-186 -243,-185 -241,-179 -239,-169 -238,-162 -238,-158 -238,-154 -235,-145 -234,-142 -233,-139 -227,-141 -224,-140 -220,-140 -214,-138 -208,-140 -203,-137 -204,-132 -207,-117 -207,-113 -208,-104 -209,-103 -208,-100 -205,-95 -201,-87 -200,-80 -201,-79 -200,-76 -197,-63 -189,-47 -187,-45 -186,-42 -179,-37 -177,-39 -170,-42 -163,-53 -162,-54 -157,-55 -144,-48 -133,-39 -125,-43 -127,-49 -124,-52 -113,-47 -106,-46 -105,-51 -92,-48 -89,-51 -83,-45 -84,-44 -82,-38 -67,-21 -63,-17 -59,-9 -57,-7 -53,-3 -49,-3 -38,-2 -38,-6 -46,-18 -54,-26 -58,-30 -63,-33 -71,-41 -79,-53 -88,-68 -91,-73 -92,-76 -91,-77 -87,-81 -86,-82 -74,-70 -69,-63 -63,-57 -56,-56 -55,-65 -55,-69 -61,-75 -71,-85 -65,-83 -59,-77 -45,-63 -37,-55 -28,-40 -23,-29"/>
  </object>
  <object id="499" x="5822" y="2826">
   <properties>
    <property name="collision" type="bool" value="true"/>
   </properties>
   <polygon points="0,0 6,-6 7,-11 7,-15 9,-21 11,-23 14,-26 12,-28 5,-33 -9,-47 -13,-51 -17,-55 -24,-64 -27,-73 -34,-86 -36,-96 -37,-103 -40,-112 -44,-120 -43,-121 -43,-125 -33,-119 -31,-117 -25,-111 -16,-100 -13,-95 -9,-91 -4,-92 -9,-99 -6,-106 -9,-111 -23,-125 -28,-132 -44,-156 -47,-161 -48,-164 -50,-170 -59,-189 -61,-195 -58,-198 -53,-203 -54,-206 -60,-216 -60,-220 -62,-230 -62,-242 -61,-247 -61,-255 -69,-263 -75,-273 -88,-284 -105,-287 -110,-282 -113,-279 -114,-278 -118,-286 -120,-288 -125,-291 -127,-289 -135,-281 -140,-276 -144,-268 -153,-259 -156,-256 -160,-256 -167,-257 -176,-260 -180,-260 -184,-260 -189,-259 -196,-260 -206,-262 -212,-264 -219,-257 -221,-255 -226,-250 -230,-246 -229,-243 -223,-229 -221,-227 -220,-220 -218,-214 -223,-209 -233,-199 -242,-186 -243,-185 -241,-179 -239,-169 -238,-162 -238,-158 -238,-154 -235,-145 -234,-142 -233,-139 -227,-141 -224,-140 -220,-140 -214,-138 -208,-140 -203,-137 -204,-132 -207,-117 -207,-113 -208,-104 -209,-103 -208,-100 -205,-95 -201,-87 -200,-80 -201,-79 -200,-76 -197,-63 -189,-47 -187,-45 -186,-42 -179,-37 -177,-39 -170,-42 -163,-53 -162,-54 -157,-55 -144,-48 -133,-39 -125,-43 -127,-49 -124,-52 -113,-47 -106,-46 -105,-51 -92,-48 -89,-51 -83,-45 -84,-44 -82,-38 -67,-21 -63,-17 -59,-9 -57,-7 -53,-3 -49,-3 -38,-2 -38,-6 -46,-18 -54,-26 -58,-30 -63,-33 -71,-41 -79,-53 -88,-68 -91,-73 -92,-76 -91,-77 -87,-81 -86,-82 -74,-70 -69,-63 -63,-57 -56,-56 -55,-65 -55,-69 -61,-75 -71,-85 -65,-83 -59,-77 -45,-63 -37,-55 -28,-40 -23,-29"/>
  </object>
  <object id="500" x="5692" y="1676">
   <properties>
    <property name="collision" type="bool" value="true"/>
   </properties>
   <polygon points="0,0 6,-6 7,-11 7,-15 9,-21 11,-23 14,-26 12,-28 5,-33 -9,-47 -13,-51 -17,-55 -24,-64 -27,-73 -34,-86 -36,-96 -37,-103 -40,-112 -44,-120 -43,-121 -43,-125 -33,-119 -31,-117 -25,-111 -16,-100 -13,-95 -9,-91 -4,-92 -9,-99 -6,-106 -9,-111 -23,-125 -28,-132 -44,-156 -47,-161 -48,-164 -50,-170 -59,-189 -61,-195 -58,-198 -53,-203 -54,-206 -60,-216 -60,-220 -62,-230 -62,-242 -61,-247 -61,-255 -69,-263 -75,-273 -88,-284 -105,-287 -110,-282 -113,-279 -114,-278 -118,-286 -120,-288 -125,-291 -127,-289 -135,-281 -140,-276 -144,-268 -153,-259 -156,-256 -160,-256 -167,-257 -176,-260 -180,-260 -184,-260 -189,-259 -196,-260 -206,-262 -212,-264 -219,-257 -221,-255 -226,-250 -230,-246 -229,-243 -223,-229 -221,-227 -220,-220 -218,-214 -223,-209 -233,-199 -242,-186 -243,-185 -241,-179 -239,-169 -238,-162 -238,-158 -238,-154 -235,-145 -234,-142 -233,-139 -227,-141 -224,-140 -220,-140 -214,-138 -208,-140 -203,-137 -204,-132 -207,-117 -207,-113 -208,-104 -209,-103 -208,-100 -205,-95 -201,-87 -200,-80 -201,-79 -200,-76 -197,-63 -189,-47 -187,-45 -186,-42 -179,-37 -177,-39 -170,-42 -163,-53 -162,-54 -157,-55 -144,-48 -133,-39 -125,-43 -127,-49 -124,-52 -113,-47 -106,-46 -105,-51 -92,-48 -89,-51 -83,-45 -84,-44 -82,-38 -67,-21 -63,-17 -59,-9 -57,-7 -53,-3 -49,-3 -38,-2 -38,-6 -46,-18 -54,-26 -58,-30 -63,-33 -71,-41 -79,-53 -88,-68 -91,-73 -92,-76 -91,-77 -87,-81 -86,-82 -74,-70 -69,-63 -63,-57 -56,-56 -55,-65 -55,-69 -61,-75 -71,-85 -65,-83 -59,-77 -45,-63 -37,-55 -28,-40 -23,-29"/>
  </object>
  <object id="501" x="6335" y="1929">
   <properties>
    <property name="collision" type="bool" value="true"/>
   </properties>
   <polygon points="0,0 6,-6 7,-11 7,-15 9,-21 11,-23 14,-26 12,-28 5,-33 -9,-47 -13,-51 -17,-55 -24,-64 -27,-73 -34,-86 -36,-96 -37,-103 -40,-112 -44,-120 -43,-121 -43,-125 -33,-119 -31,-117 -25,-111 -16,-100 -13,-95 -9,-91 -4,-92 -9,-99 -6,-106 -9,-111 -23,-125 -28,-132 -44,-156 -47,-161 -48,-164 -50,-170 -59,-189 -61,-195 -58,-198 -53,-203 -54,-206 -60,-216 -60,-220 -62,-230 -62,-242 -61,-247 -61,-255 -69,-263 -75,-273 -88,-284 -105,-287 -110,-282 -113,-279 -114,-278 -118,-286 -120,-288 -125,-291 -127,-289 -135,-281 -140,-276 -144,-268 -153,-259 -156,-256 -160,-256 -167,-257 -176,-260 -180,-260 -184,-260 -189,-259 -196,-260 -206,-262 -212,-264 -219,-257 -221,-255 -226,-250 -230,-246 -229,-243 -223,-229 -221,-227 -220,-220 -218,-214 -223,-209 -233,-199 -242,-186 -243,-185 -241,-179 -239,-169 -238,-162 -238,-158 -238,-154 -235,-145 -234,-142 -233,-139 -227,-141 -224,-140 -220,-140 -214,-138 -208,-140 -203,-137 -204,-132 -207,-117 -207,-113 -208,-104 -209,-103 -208,-100 -205,-95 -201,-87 -200,-80 -201,-79 -200,-76 -197,-63 -189,-47 -187,-45 -186,-42 -179,-37 -177,-39 -170,-42 -163,-53 -162,-54 -157,-55 -144,-48 -133,-39 -125,-43 -127,-49 -124,-52 -113,-47 -106,-46 -105,-51 -92,-48 -89,-51 -83,-45 -84,-44 -82,-38 -67,-21 -63,-17 -59,-9 -57,-7 -53,-3 -49,-3 -38,-2 -38,-6 -46,-18 -54,-26 -58,-30 -63,-33 -71,-41 -79,-53 -88,-68 -91,-73 -92,-76 -91,-77 -87,-81 -86,-82 -74,-70 -69,-63 -63,-57 -56,-56 -55,-65 -55,-69 -61,-75 -71,-85 -65,-83 -59,-77 -45,-63 -37,-55 -28,-40 -23,-29"/>
  </object>
  <object id="502" x="7101" y="2827">
   <properties>
    <property name="collision" type="bool" value="true"/>
   </properties>
   <polygon points="0,0 6,-6 7,-11 7,-15 9,-21 11,-23 14,-26 12,-28 5,-33 -9,-47 -13,-51 -17,-55 -24,-64 -27,-73 -34,-86 -36,-96 -37,-103 -40,-112 -44,-120 -43,-121 -43,-125 -33,-119 -31,-117 -25,-111 -16,-100 -13,-95 -9,-91 -4,-92 -9,-99 -6,-106 -9,-111 -23,-125 -28,-132 -44,-156 -47,-161 -48,-164 -50,-170 -59,-189 -61,-195 -58,-198 -53,-203 -54,-206 -60,-216 -60,-220 -62,-230 -62,-242 -61,-247 -61,-255 -69,-263 -75,-273 -88,-284 -105,-287 -110,-282 -113,-279 -114,-278 -118,-286 -120,-288 -125,-291 -127,-289 -135,-281 -140,-276 -144,-268 -153,-259 -156,-256 -160,-256 -167,-257 -176,-260 -180,-260 -184,-260 -189,-259 -196,-260 -206,-262 -212,-264 -219,-257 -221,-255 -226,-250 -230,-246 -229,-243 -223,-229 -221,-227 -220,-220 -218,-214 -223,-209 -233,-199 -242,-186 -243,-185 -241,-179 -239,-169 -238,-162 -238,-158 -238,-154 -235,-145 -234,-142 -233,-139 -227,-141 -224,-140 -220,-140 -214,-138 -208,-140 -203,-137 -204,-132 -207,-117 -207,-113 -208,-104 -209,-103 -208,-100 -205,-95 -201,-87 -200,-80 -201,-79 -200,-76 -197,-63 -189,-47 -187,-45 -186,-42 -179,-37 -177,-39 -170,-42 -163,-53 -162,-54 -157,-55 -144,-48 -133,-39 -125,-43 -127,-49 -124,-52 -113,-47 -106,-46 -105,-51 -92,-48 -89,-51 -83,-45 -84,-44 -82,-38 -67,-21 -63,-17 -59,-9 -57,-7 -53,-3 -49,-3 -38,-2 -38,-6 -46,-18 -54,-26 -58,-30 -63,-33 -71,-41 -79,-53 -88,-68 -91,-73 -92,-76 -91,-77 -87,-81 -86,-82 -74,-70 -69,-63 -63,-57 -56,-56 -55,-65 -55,-69 -61,-75 -71,-85 -65,-83 -59,-77 -45,-63 -37,-55 -28,-40 -23,-29"/>
  </object>
  <object id="503" x="8125" y="2187">
   <properties>
    <property name="collision" type="bool" value="true"/>
   </properties>
   <polygon points="0,0 6,-6 7,-11 7,-15 9,-21 11,-23 14,-26 12,-28 5,-33 -9,-47 -13,-51 -17,-55 -24,-64 -27,-73 -34,-86 -36,-96 -37,-103 -40,-112 -44,-120 -43,-121 -43,-125 -33,-119 -31,-117 -25,-111 -16,-100 -13,-95 -9,-91 -4,-92 -9,-99 -6,-106 -9,-111 -23,-125 -28,-132 -44,-156 -47,-161 -48,-164 -50,-170 -59,-189 -61,-195 -58,-198 -53,-203 -54,-206 -60,-216 -60,-220 -62,-230 -62,-242 -61,-247 -61,-255 -69,-263 -75,-273 -88,-284 -105,-287 -110,-282 -113,-279 -114,-278 -118,-286 -120,-288 -125,-291 -127,-289 -135,-281 -140,-276 -144,-268 -153,-259 -156,-256 -160,-256 -167,-257 -176,-260 -180,-260 -184,-260 -189,-259 -196,-260 -206,-262 -212,-264 -219,-257 -221,-255 -226,-250 -230,-246 -229,-243 -223,-229 -221,-227 -220,-220 -218,-214 -223,-209 -233,-199 -242,-186 -243,-185 -241,-179 -239,-169 -238,-162 -238,-158 -238,-154 -235,-145 -234,-142 -233,-139 -227,-141 -224,-140 -220,-140 -214,-138 -208,-140 -203,-137 -204,-132 -207,-117 -207,-113 -208,-104 -209,-103 -208,-100 -205,-95 -201,-87 -200,-80 -201,-79 -200,-76 -197,-63 -189,-47 -187,-45 -186,-42 -179,-37 -177,-39 -170,-42 -163,-53 -162,-54 -157,-55 -144,-48 -133,-39 -125,-43 -127,-49 -124,-52 -113,-47 -106,-46 -105,-51 -92,-48 -89,-51 -83,-45 -84,-44 -82,-38 -67,-21 -63,-17 -59,-9 -57,-7 -53,-3 -49,-3 -38,-2 -38,-6 -46,-18 -54,-26 -58,-30 -63,-33 -71,-41 -79,-53 -88,-68 -91,-73 -92,-76 -91,-77 -87,-81 -86,-82 -74,-70 -69,-63 -63,-57 -56,-56 -55,-65 -55,-69 -61,-75 -71,-85 -65,-83 -59,-77 -45,-63 -37,-55 -28,-40 -23,-29"/>
  </object>
  <object id="504" x="9276" y="1932">
   <properties>
    <property name="collision" type="bool" value="true"/>
   </properties>
   <polygon points="0,0 6,-6 7,-11 7,-15 9,-21 11,-23 14,-26 12,-28 5,-33 -9,-47 -13,-51 -17,-55 -24,-64 -27,-73 -34,-86 -36,-96 -37,-103 -40,-112 -44,-120 -43,-121 -43,-125 -33,-119 -31,-117 -25,-111 -16,-100 -13,-95 -9,-91 -4,-92 -9,-99 -6,-106 -9,-111 -23,-125 -28,-132 -44,-156 -47,-161 -48,-164 -50,-170 -59,-189 -61,-195 -58,-198 -53,-203 -54,-206 -60,-216 -60,-220 -62,-230 -62,-242 -61,-247 -61,-255 -69,-263 -75,-273 -88,-284 -105,-287 -110,-282 -113,-279 -114,-278 -118,-286 -120,-288 -125,-291 -127,-289 -135,-281 -140,-276 -144,-268 -153,-259 -156,-256 -160,-256 -167,-257 -176,-260 -180,-260 -184,-260 -189,-259 -196,-260 -206,-262 -212,-264 -219,-257 -221,-255 -226,-250 -230,-246 -229,-243 -223,-229 -221,-227 -220,-220 -218,-214 -223,-209 -233,-199 -242,-186 -243,-185 -241,-179 -239,-169 -238,-162 -238,-158 -238,-154 -235,-145 -234,-142 -233,-139 -227,-141 -224,-140 -220,-140 -214,-138 -208,-140 -203,-137 -204,-132 -207,-117 -207,-113 -208,-104 -209,-103 -208,-100 -205,-95 -201,-87 -200,-80 -201,-79 -200,-76 -197,-63 -189,-47 -187,-45 -186,-42 -179,-37 -177,-39 -170,-42 -163,-53 -162,-54 -157,-55 -144,-48 -133,-39 -125,-43 -127,-49 -124,-52 -113,-47 -106,-46 -105,-51 -92,-48 -89,-51 -83,-45 -84,-44 -82,-38 -67,-21 -63,-17 -59,-9 -57,-7 -53,-3 -49,-3 -38,-2 -38,-6 -46,-18 -54,-26 -58,-30 -63,-33 -71,-41 -79,-53 -88,-68 -91,-73 -92,-76 -91,-77 -87,-81 -86,-82 -74,-70 -69,-63 -63,-57 -56,-56 -55,-65 -55,-69 -61,-75 -71,-85 -65,-83 -59,-77 -45,-63 -37,-55 -28,-40 -23,-29"/>
  </object>
  <object id="505" x="11067" y="1673">
   <properties>
    <property name="collision" type="bool" value="true"/>
   </properties>
   <polygon points="0,0 6,-6 7,-11 7,-15 9,-21 11,-23 14,-26 12,-28 5,-33 -9,-47 -13,-51 -17,-55 -24,-64 -27,-73 -34,-86 -36,-96 -37,-103 -40,-112 -44,-120 -43,-121 -43,-125 -33,-119 -31,-117 -25,-111 -16,-100 -13,-95 -9,-91 -4,-92 -9,-99 -6,-106 -9,-111 -23,-125 -28,-132 -44,-156 -47,-161 -48,-164 -50,-170 -59,-189 -61,-195 -58,-198 -53,-203 -54,-206 -60,-216 -60,-220 -62,-230 -62,-242 -61,-247 -61,-255 -69,-263 -75,-273 -88,-284 -105,-287 -110,-282 -113,-279 -114,-278 -118,-286 -120,-288 -125,-291 -127,-289 -135,-281 -140,-276 -144,-268 -153,-259 -156,-256 -160,-256 -167,-257 -176,-260 -180,-260 -184,-260 -189,-259 -196,-260 -206,-262 -212,-264 -219,-257 -221,-255 -226,-250 -230,-246 -229,-243 -223,-229 -221,-227 -220,-220 -218,-214 -223,-209 -233,-199 -242,-186 -243,-185 -241,-179 -239,-169 -238,-162 -238,-158 -238,-154 -235,-145 -234,-142 -233,-139 -227,-141 -224,-140 -220,-140 -214,-138 -208,-140 -203,-137 -204,-132 -207,-117 -207,-113 -208,-104 -209,-103 -208,-100 -205,-95 -201,-87 -200,-80 -201,-79 -200,-76 -197,-63 -189,-47 -187,-45 -186,-42 -179,-37 -177,-39 -170,-42 -163,-53 -162,-54 -157,-55 -144,-48 -133,-39 -125,-43 -127,-49 -124,-52 -113,-47 -106,-46 -105,-51 -92,-48 -89,-51 -83,-45 -84,-44 -82,-38 -67,-21 -63,-17 -59,-9 -57,-7 -53,-3 -49,-3 -38,-2 -38,-6 -46,-18 -54,-26 -58,-30 -63,-33 -71,-41 -79,-53 -88,-68 -91,-73 -92,-76 -91,-77 -87,-81 -86,-82 -74,-70 -69,-63 -63,-57 -56,-56 -55,-65 -55,-69 -61,-75 -71,-85 -65,-83 -59,-77 -45,-63 -37,-55 -28,-40 -23,-29"/>
  </object>
  <object id="506" x="11709" y="2823">
   <properties>
    <property name="collision" type="bool" value="true"/>
   </properties>
   <polygon points="0,0 6,-6 7,-11 7,-15 9,-21 11,-23 14,-26 12,-28 5,-33 -9,-47 -13,-51 -17,-55 -24,-64 -27,-73 -34,-86 -36,-96 -37,-103 -40,-112 -44,-120 -43,-121 -43,-125 -33,-119 -31,-117 -25,-111 -16,-100 -13,-95 -9,-91 -4,-92 -9,-99 -6,-106 -9,-111 -23,-125 -28,-132 -44,-156 -47,-161 -48,-164 -50,-170 -59,-189 -61,-195 -58,-198 -53,-203 -54,-206 -60,-216 -60,-220 -62,-230 -62,-242 -61,-247 -61,-255 -69,-263 -75,-273 -88,-284 -105,-287 -110,-282 -113,-279 -114,-278 -118,-286 -120,-288 -125,-291 -127,-289 -135,-281 -140,-276 -144,-268 -153,-259 -156,-256 -160,-256 -167,-257 -176,-260 -180,-260 -184,-260 -189,-259 -196,-260 -206,-262 -212,-264 -219,-257 -221,-255 -226,-250 -230,-246 -229,-243 -223,-229 -221,-227 -220,-220 -218,-214 -223,-209 -233,-199 -242,-186 -243,-185 -241,-179 -239,-169 -238,-162 -238,-158 -238,-154 -235,-145 -234,-142 -233,-139 -227,-141 -224,-140 -220,-140 -214,-138 -208,-140 -203,-137 -204,-132 -207,-117 -207,-113 -208,-104 -209,-103 -208,-100 -205,-95 -201,-87 -200,-80 -201,-79 -200,-76 -197,-63 -189,-47 -187,-45 -186,-42 -179,-37 -177,-39 -170,-42 -163,-53 -162,-54 -157,-55 -144,-48 -133,-39 -125,-43 -127,-49 -124,-52 -113,-47 -106,-46 -105,-51 -92,-48 -89,-51 -83,-45 -84,-44 -82,-38 -67,-21 -63,-17 -59,-9 -57,-7 -53,-3 -49,-3 -38,-2 -38,-6 -46,-18 -54,-26 -58,-30 -63,-33 -71,-41 -79,-53 -88,-68 -91,-73 -92,-76 -91,-77 -87,-81 -86,-82 -74,-70 -69,-63 -63,-57 -56,-56 -55,-65 -55,-69 -61,-75 -71,-85 -65,-83 -59,-77 -45,-63 -37,-55 -28,-40 -23,-29"/>
  </object>
  <object id="507" x="12218" y="2058">
   <properties>
    <property name="collision" type="bool" value="true"/>
   </properties>
   <polygon points="0,0 6,-6 7,-11 7,-15 9,-21 11,-23 14,-26 12,-28 5,-33 -9,-47 -13,-51 -17,-55 -24,-64 -27,-73 -34,-86 -36,-96 -37,-103 -40,-112 -44,-120 -43,-121 -43,-125 -33,-119 -31,-117 -25,-111 -16,-100 -13,-95 -9,-91 -4,-92 -9,-99 -6,-106 -9,-111 -23,-125 -28,-132 -44,-156 -47,-161 -48,-164 -50,-170 -59,-189 -61,-195 -58,-198 -53,-203 -54,-206 -60,-216 -60,-220 -62,-230 -62,-242 -61,-247 -61,-255 -69,-263 -75,-273 -88,-284 -105,-287 -110,-282 -113,-279 -114,-278 -118,-286 -120,-288 -125,-291 -127,-289 -135,-281 -140,-276 -144,-268 -153,-259 -156,-256 -160,-256 -167,-257 -176,-260 -180,-260 -184,-260 -189,-259 -196,-260 -206,-262 -212,-264 -219,-257 -221,-255 -226,-250 -230,-246 -229,-243 -223,-229 -221,-227 -220,-220 -218,-214 -223,-209 -233,-199 -242,-186 -243,-185 -241,-179 -239,-169 -238,-162 -238,-158 -238,-154 -235,-145 -234,-142 -233,-139 -227,-141 -224,-140 -220,-140 -214,-138 -208,-140 -203,-137 -204,-132 -207,-117 -207,-113 -208,-104 -209,-103 -208,-100 -205,-95 -201,-87 -200,-80 -201,-79 -200,-76 -197,-63 -189,-47 -187,-45 -186,-42 -179,-37 -177,-39 -170,-42 -163,-53 -162,-54 -157,-55 -144,-48 -133,-39 -125,-43 -127,-49 -124,-52 -113,-47 -106,-46 -105,-51 -92,-48 -89,-51 -83,-45 -84,-44 -82,-38 -67,-21 -63,-17 -59,-9 -57,-7 -53,-3 -49,-3 -38,-2 -38,-6 -46,-18 -54,-26 -58,-30 -63,-33 -71,-41 -79,-53 -88,-68 -91,-73 -92,-76 -91,-77 -87,-81 -86,-82 -74,-70 -69,-63 -63,-57 -56,-56 -55,-65 -55,-69 -61,-75 -71,-85 -65,-83 -59,-77 -45,-63 -37,-55 -28,-40 -23,-29"/>
  </object>
  <object id="508" x="12861" y="4615">
   <properties>
    <property name="collision" type="bool" value="true"/>
   </properties>
   <polygon points="0,0 6,-6 7,-11 7,-15 9,-21 11,-23 14,-26 12,-28 5,-33 -9,-47 -13,-51 -17,-55 -24,-64 -27,-73 -34,-86 -36,-96 -37,-103 -40,-112 -44,-120 -43,-121 -43,-125 -33,-119 -31,-117 -25,-111 -16,-100 -13,-95 -9,-91 -4,-92 -9,-99 -6,-106 -9,-111 -23,-125 -28,-132 -44,-156 -47,-161 -48,-164 -50,-170 -59,-189 -61,-195 -58,-198 -53,-203 -54,-206 -60,-216 -60,-220 -62,-230 -62,-242 -61,-247 -61,-255 -69,-263 -75,-273 -88,-284 -105,-287 -110,-282 -113,-279 -114,-278 -118,-286 -120,-288 -125,-291 -127,-289 -135,-281 -140,-276 -144,-268 -153,-259 -156,-256 -160,-256 -167,-257 -176,-260 -180,-260 -184,-260 -189,-259 -196,-260 -206,-262 -212,-264 -219,-257 -221,-255 -226,-250 -230,-246 -229,-243 -223,-229 -221,-227 -220,-220 -218,-214 -223,-209 -233,-199 -242,-186 -243,-185 -241,-179 -239,-169 -238,-162 -238,-158 -238,-154 -235,-145 -234,-142 -233,-139 -227,-141 -224,-140 -220,-140 -214,-138 -208,-140 -203,-137 -204,-132 -207,-117 -207,-113 -208,-104 -209,-103 -208,-100 -205,-95 -201,-87 -200,-80 -201,-79 -200,-76 -197,-63 -189,-47 -187,-45 -186,-42 -179,-37 -177,-39 -170,-42 -163,-53 -162,-54 -157,-55 -144,-48 -133,-39 -125,-43 -127,-49 -124,-52 -113,-47 -106,-46 -105,-51 -92,-48 -89,-51 -83,-45 -84,-44 -82,-38 -67,-21 -63,-17 -59,-9 -57,-7 -53,-3 -49,-3 -38,-2 -38,-6 -46,-18 -54,-26 -58,-30 -63,-33 -71,-41 -79,-53 -88,-68 -91,-73 -92,-76 -91,-77 -87,-81 -86,-82 -74,-70 -69,-63 -63,-57 -56,-56 -55,-65 -55,-69 -61,-75 -71,-85 -65,-83 -59,-77 -45,-63 -37,-55 -28,-40 -23,-29"/>
  </object>
  <object id="509" x="13119" y="6153">
   <properties>
    <property name="collision" type="bool" value="true"/>
   </properties>
   <polygon points="0,0 6,-6 7,-11 7,-15 9,-21 11,-23 14,-26 12,-28 5,-33 -9,-47 -13,-51 -17,-55 -24,-64 -27,-73 -34,-86 -36,-96 -37,-103 -40,-112 -44,-120 -43,-121 -43,-125 -33,-119 -31,-117 -25,-111 -16,-100 -13,-95 -9,-91 -4,-92 -9,-99 -6,-106 -9,-111 -23,-125 -28,-132 -44,-156 -47,-161 -48,-164 -50,-170 -59,-189 -61,-195 -58,-198 -53,-203 -54,-206 -60,-216 -60,-220 -62,-230 -62,-242 -61,-247 -61,-255 -69,-263 -75,-273 -88,-284 -105,-287 -110,-282 -113,-279 -114,-278 -118,-286 -120,-288 -125,-291 -127,-289 -135,-281 -140,-276 -144,-268 -153,-259 -156,-256 -160,-256 -167,-257 -176,-260 -180,-260 -184,-260 -189,-259 -196,-260 -206,-262 -212,-264 -219,-257 -221,-255 -226,-250 -230,-246 -229,-243 -223,-229 -221,-227 -220,-220 -218,-214 -223,-209 -233,-199 -242,-186 -243,-185 -241,-179 -239,-169 -238,-162 -238,-158 -238,-154 -235,-145 -234,-142 -233,-139 -227,-141 -224,-140 -220,-140 -214,-138 -208,-140 -203,-137 -204,-132 -207,-117 -207,-113 -208,-104 -209,-103 -208,-100 -205,-95 -201,-87 -200,-80 -201,-79 -200,-76 -197,-63 -189,-47 -187,-45 -186,-42 -179,-37 -177,-39 -170,-42 -163,-53 -162,-54 -157,-55 -144,-48 -133,-39 -125,-43 -127,-49 -124,-52 -113,-47 -106,-46 -105,-51 -92,-48 -89,-51 -83,-45 -84,-44 -82,-38 -67,-21 -63,-17 -59,-9 -57,-7 -53,-3 -49,-3 -38,-2 -38,-6 -46,-18 -54,-26 -58,-30 -63,-33 -71,-41 -79,-53 -88,-68 -91,-73 -92,-76 -91,-77 -87,-81 -86,-82 -74,-70 -69,-63 -63,-57 -56,-56 -55,-65 -55,-69 -61,-75 -71,-85 -65,-83 -59,-77 -45,-63 -37,-55 -28,-40 -23,-29"/>
  </object>
  <object id="510" x="11839" y="6157">
   <properties>
    <property name="collision" type="bool" value="true"/>
   </properties>
   <polygon points="0,0 6,-6 7,-11 7,-15 9,-21 11,-23 14,-26 12,-28 5,-33 -9,-47 -13,-51 -17,-55 -24,-64 -27,-73 -34,-86 -36,-96 -37,-103 -40,-112 -44,-120 -43,-121 -43,-125 -33,-119 -31,-117 -25,-111 -16,-100 -13,-95 -9,-91 -4,-92 -9,-99 -6,-106 -9,-111 -23,-125 -28,-132 -44,-156 -47,-161 -48,-164 -50,-170 -59,-189 -61,-195 -58,-198 -53,-203 -54,-206 -60,-216 -60,-220 -62,-230 -62,-242 -61,-247 -61,-255 -69,-263 -75,-273 -88,-284 -105,-287 -110,-282 -113,-279 -114,-278 -118,-286 -120,-288 -125,-291 -127,-289 -135,-281 -140,-276 -144,-268 -153,-259 -156,-256 -160,-256 -167,-257 -176,-260 -180,-260 -184,-260 -189,-259 -196,-260 -206,-262 -212,-264 -219,-257 -221,-255 -226,-250 -230,-246 -229,-243 -223,-229 -221,-227 -220,-220 -218,-214 -223,-209 -233,-199 -242,-186 -243,-185 -241,-179 -239,-169 -238,-162 -238,-158 -238,-154 -235,-145 -234,-142 -233,-139 -227,-141 -224,-140 -220,-140 -214,-138 -208,-140 -203,-137 -204,-132 -207,-117 -207,-113 -208,-104 -209,-103 -208,-100 -205,-95 -201,-87 -200,-80 -201,-79 -200,-76 -197,-63 -189,-47 -187,-45 -186,-42 -179,-37 -177,-39 -170,-42 -163,-53 -162,-54 -157,-55 -144,-48 -133,-39 -125,-43 -127,-49 -124,-52 -113,-47 -106,-46 -105,-51 -92,-48 -89,-51 -83,-45 -84,-44 -82,-38 -67,-21 -63,-17 -59,-9 -57,-7 -53,-3 -49,-3 -38,-2 -38,-6 -46,-18 -54,-26 -58,-30 -63,-33 -71,-41 -79,-53 -88,-68 -91,-73 -92,-76 -91,-77 -87,-81 -86,-82 -74,-70 -69,-63 -63,-57 -56,-56 -55,-65 -55,-69 -61,-75 -71,-85 -65,-83 -59,-77 -45,-63 -37,-55 -28,-40 -23,-29"/>
  </object>
  <object id="511" x="10558" y="4874">
   <properties>
    <property name="collision" type="bool" value="true"/>
   </properties>
   <polygon points="0,0 6,-6 7,-11 7,-15 9,-21 11,-23 14,-26 12,-28 5,-33 -9,-47 -13,-51 -17,-55 -24,-64 -27,-73 -34,-86 -36,-96 -37,-103 -40,-112 -44,-120 -43,-121 -43,-125 -33,-119 -31,-117 -25,-111 -16,-100 -13,-95 -9,-91 -4,-92 -9,-99 -6,-106 -9,-111 -23,-125 -28,-132 -44,-156 -47,-161 -48,-164 -50,-170 -59,-189 -61,-195 -58,-198 -53,-203 -54,-206 -60,-216 -60,-220 -62,-230 -62,-242 -61,-247 -61,-255 -69,-263 -75,-273 -88,-284 -105,-287 -110,-282 -113,-279 -114,-278 -118,-286 -120,-288 -125,-291 -127,-289 -135,-281 -140,-276 -144,-268 -153,-259 -156,-256 -160,-256 -167,-257 -176,-260 -180,-260 -184,-260 -189,-259 -196,-260 -206,-262 -212,-264 -219,-257 -221,-255 -226,-250 -230,-246 -229,-243 -223,-229 -221,-227 -220,-220 -218,-214 -223,-209 -233,-199 -242,-186 -243,-185 -241,-179 -239,-169 -238,-162 -238,-158 -238,-154 -235,-145 -234,-142 -233,-139 -227,-141 -224,-140 -220,-140 -214,-138 -208,-140 -203,-137 -204,-132 -207,-117 -207,-113 -208,-104 -209,-103 -208,-100 -205,-95 -201,-87 -200,-80 -201,-79 -200,-76 -197,-63 -189,-47 -187,-45 -186,-42 -179,-37 -177,-39 -170,-42 -163,-53 -162,-54 -157,-55 -144,-48 -133,-39 -125,-43 -127,-49 -124,-52 -113,-47 -106,-46 -105,-51 -92,-48 -89,-51 -83,-45 -84,-44 -82,-38 -67,-21 -63,-17 -59,-9 -57,-7 -53,-3 -49,-3 -38,-2 -38,-6 -46,-18 -54,-26 -58,-30 -63,-33 -71,-41 -79,-53 -88,-68 -91,-73 -92,-76 -91,-77 -87,-81 -86,-82 -74,-70 -69,-63 -63,-57 -56,-56 -55,-65 -55,-69 -61,-75 -71,-85 -65,-83 -59,-77 -45,-63 -37,-55 -28,-40 -23,-29"/>
  </object>
  <object id="512" x="9665" y="6027">
   <properties>
    <property name="collision" type="bool" value="true"/>
   </properties>
   <polygon points="0,0 6,-6 7,-11 7,-15 9,-21 11,-23 14,-26 12,-28 5,-33 -9,-47 -13,-51 -17,-55 -24,-64 -27,-73 -34,-86 -36,-96 -37,-103 -40,-112 -44,-120 -43,-121 -43,-125 -33,-119 -31,-117 -25,-111 -16,-100 -13,-95 -9,-91 -4,-92 -9,-99 -6,-106 -9,-111 -23,-125 -28,-132 -44,-156 -47,-161 -48,-164 -50,-170 -59,-189 -61,-195 -58,-198 -53,-203 -54,-206 -60,-216 -60,-220 -62,-230 -62,-242 -61,-247 -61,-255 -69,-263 -75,-273 -88,-284 -105,-287 -110,-282 -113,-279 -114,-278 -118,-286 -120,-288 -125,-291 -127,-289 -135,-281 -140,-276 -144,-268 -153,-259 -156,-256 -160,-256 -167,-257 -176,-260 -180,-260 -184,-260 -189,-259 -196,-260 -206,-262 -212,-264 -219,-257 -221,-255 -226,-250 -230,-246 -229,-243 -223,-229 -221,-227 -220,-220 -218,-214 -223,-209 -233,-199 -242,-186 -243,-185 -241,-179 -239,-169 -238,-162 -238,-158 -238,-154 -235,-145 -234,-142 -233,-139 -227,-141 -224,-140 -220,-140 -214,-138 -208,-140 -203,-137 -204,-132 -207,-117 -207,-113 -208,-104 -209,-103 -208,-100 -205,-95 -201,-87 -200,-80 -201,-79 -200,-76 -197,-63 -189,-47 -187,-45 -186,-42 -179,-37 -177,-39 -170,-42 -163,-53 -162,-54 -157,-55 -144,-48 -133,-39 -125,-43 -127,-49 -124,-52 -113,-47 -106,-46 -105,-51 -92,-48 -89,-51 -83,-45 -84,-44 -82,-38 -67,-21 -63,-17 -59,-9 -57,-7 -53,-3 -49,-3 -38,-2 -38,-6 -46,-18 -54,-26 -58,-30 -63,-33 -71,-41 -79,-53 -88,-68 -91,-73 -92,-76 -91,-77 -87,-81 -86,-82 -74,-70 -69,-63 -63,-57 -56,-56 -55,-65 -55,-69 -61,-75 -71,-85 -65,-83 -59,-77 -45,-63 -37,-55 -28,-40 -23,-29"/>
  </object>
  <object id="513" x="8510" y="5006">
   <properties>
    <property name="collision" type="bool" value="true"/>
   </properties>
   <polygon points="0,0 6,-6 7,-11 7,-15 9,-21 11,-23 14,-26 12,-28 5,-33 -9,-47 -13,-51 -17,-55 -24,-64 -27,-73 -34,-86 -36,-96 -37,-103 -40,-112 -44,-120 -43,-121 -43,-125 -33,-119 -31,-117 -25,-111 -16,-100 -13,-95 -9,-91 -4,-92 -9,-99 -6,-106 -9,-111 -23,-125 -28,-132 -44,-156 -47,-161 -48,-164 -50,-170 -59,-189 -61,-195 -58,-198 -53,-203 -54,-206 -60,-216 -60,-220 -62,-230 -62,-242 -61,-247 -61,-255 -69,-263 -75,-273 -88,-284 -105,-287 -110,-282 -113,-279 -114,-278 -118,-286 -120,-288 -125,-291 -127,-289 -135,-281 -140,-276 -144,-268 -153,-259 -156,-256 -160,-256 -167,-257 -176,-260 -180,-260 -184,-260 -189,-259 -196,-260 -206,-262 -212,-264 -219,-257 -221,-255 -226,-250 -230,-246 -229,-243 -223,-229 -221,-227 -220,-220 -218,-214 -223,-209 -233,-199 -242,-186 -243,-185 -241,-179 -239,-169 -238,-162 -238,-158 -238,-154 -235,-145 -234,-142 -233,-139 -227,-141 -224,-140 -220,-140 -214,-138 -208,-140 -203,-137 -204,-132 -207,-117 -207,-113 -208,-104 -209,-103 -208,-100 -205,-95 -201,-87 -200,-80 -201,-79 -200,-76 -197,-63 -189,-47 -187,-45 -186,-42 -179,-37 -177,-39 -170,-42 -163,-53 -162,-54 -157,-55 -144,-48 -133,-39 -125,-43 -127,-49 -124,-52 -113,-47 -106,-46 -105,-51 -92,-48 -89,-51 -83,-45 -84,-44 -82,-38 -67,-21 -63,-17 -59,-9 -57,-7 -53,-3 -49,-3 -38,-2 -38,-6 -46,-18 -54,-26 -58,-30 -63,-33 -71,-41 -79,-53 -88,-68 -91,-73 -92,-76 -91,-77 -87,-81 -86,-82 -74,-70 -69,-63 -63,-57 -56,-56 -55,-65 -55,-69 -61,-75 -71,-85 -65,-83 -59,-77 -45,-63 -37,-55 -28,-40 -23,-29"/>
  </object>
  <object id="514" x="7871" y="5901">
   <properties>
    <property name="collision" type="bool" value="true"/>
   </properties>
   <polygon points="0,0 6,-6 7,-11 7,-15 9,-21 11,-23 14,-26 12,-28 5,-33 -9,-47 -13,-51 -17,-55 -24,-64 -27,-73 -34,-86 -36,-96 -37,-103 -40,-112 -44,-120 -43,-121 -43,-125 -33,-119 -31,-117 -25,-111 -16,-100 -13,-95 -9,-91 -4,-92 -9,-99 -6,-106 -9,-111 -23,-125 -28,-132 -44,-156 -47,-161 -48,-164 -50,-170 -59,-189 -61,-195 -58,-198 -53,-203 -54,-206 -60,-216 -60,-220 -62,-230 -62,-242 -61,-247 -61,-255 -69,-263 -75,-273 -88,-284 -105,-287 -110,-282 -113,-279 -114,-278 -118,-286 -120,-288 -125,-291 -127,-289 -135,-281 -140,-276 -144,-268 -153,-259 -156,-256 -160,-256 -167,-257 -176,-260 -180,-260 -184,-260 -189,-259 -196,-260 -206,-262 -212,-264 -219,-257 -221,-255 -226,-250 -230,-246 -229,-243 -223,-229 -221,-227 -220,-220 -218,-214 -223,-209 -233,-199 -242,-186 -243,-185 -241,-179 -239,-169 -238,-162 -238,-158 -238,-154 -235,-145 -234,-142 -233,-139 -227,-141 -224,-140 -220,-140 -214,-138 -208,-140 -203,-137 -204,-132 -207,-117 -207,-113 -208,-104 -209,-103 -208,-100 -205,-95 -201,-87 -200,-80 -201,-79 -200,-76 -197,-63 -189,-47 -187,-45 -186,-42 -179,-37 -177,-39 -170,-42 -163,-53 -162,-54 -157,-55 -144,-48 -133,-39 -125,-43 -127,-49 -124,-52 -113,-47 -106,-46 -105,-51 -92,-48 -89,-51 -83,-45 -84,-44 -82,-38 -67,-21 -63,-17 -59,-9 -57,-7 -53,-3 -49,-3 -38,-2 -38,-6 -46,-18 -54,-26 -58,-30 -63,-33 -71,-41 -79,-53 -88,-68 -91,-73 -92,-76 -91,-77 -87,-81 -86,-82 -74,-70 -69,-63 -63,-57 -56,-56 -55,-65 -55,-69 -61,-75 -71,-85 -65,-83 -59,-77 -45,-63 -37,-55 -28,-40 -23,-29"/>
  </object>
  <object id="515" x="6976" y="5388">
   <properties>
    <property name="collision" type="bool" value="true"/>
   </properties>
   <polygon points="0,0 6,-6 7,-11 7,-15 9,-21 11,-23 14,-26 12,-28 5,-33 -9,-47 -13,-51 -17,-55 -24,-64 -27,-73 -34,-86 -36,-96 -37,-103 -40,-112 -44,-120 -43,-121 -43,-125 -33,-119 -31,-117 -25,-111 -16,-100 -13,-95 -9,-91 -4,-92 -9,-99 -6,-106 -9,-111 -23,-125 -28,-132 -44,-156 -47,-161 -48,-164 -50,-170 -59,-189 -61,-195 -58,-198 -53,-203 -54,-206 -60,-216 -60,-220 -62,-230 -62,-242 -61,-247 -61,-255 -69,-263 -75,-273 -88,-284 -105,-287 -110,-282 -113,-279 -114,-278 -118,-286 -120,-288 -125,-291 -127,-289 -135,-281 -140,-276 -144,-268 -153,-259 -156,-256 -160,-256 -167,-257 -176,-260 -180,-260 -184,-260 -189,-259 -196,-260 -206,-262 -212,-264 -219,-257 -221,-255 -226,-250 -230,-246 -229,-243 -223,-229 -221,-227 -220,-220 -218,-214 -223,-209 -233,-199 -242,-186 -243,-185 -241,-179 -239,-169 -238,-162 -238,-158 -238,-154 -235,-145 -234,-142 -233,-139 -227,-141 -224,-140 -220,-140 -214,-138 -208,-140 -203,-137 -204,-132 -207,-117 -207,-113 -208,-104 -209,-103 -208,-100 -205,-95 -201,-87 -200,-80 -201,-79 -200,-76 -197,-63 -189,-47 -187,-45 -186,-42 -179,-37 -177,-39 -170,-42 -163,-53 -162,-54 -157,-55 -144,-48 -133,-39 -125,-43 -127,-49 -124,-52 -113,-47 -106,-46 -105,-51 -92,-48 -89,-51 -83,-45 -84,-44 -82,-38 -67,-21 -63,-17 -59,-9 -57,-7 -53,-3 -49,-3 -38,-2 -38,-6 -46,-18 -54,-26 -58,-30 -63,-33 -71,-41 -79,-53 -88,-68 -91,-73 -92,-76 -91,-77 -87,-81 -86,-82 -74,-70 -69,-63 -63,-57 -56,-56 -55,-65 -55,-69 -61,-75 -71,-85 -65,-83 -59,-77 -45,-63 -37,-55 -28,-40 -23,-29"/>
  </object>
  <object id="516" x="6711" y="6021">
   <properties>
    <property name="collision" type="bool" value="true"/>
   </properties>
   <polygon points="0,0 6,-6 7,-11 7,-15 9,-21 11,-23 14,-26 12,-28 5,-33 -9,-47 -13,-51 -17,-55 -24,-64 -27,-73 -34,-86 -36,-96 -37,-103 -40,-112 -44,-120 -43,-121 -43,-125 -33,-119 -31,-117 -25,-111 -16,-100 -13,-95 -9,-91 -4,-92 -9,-99 -6,-106 -9,-111 -23,-125 -28,-132 -44,-156 -47,-161 -48,-164 -50,-170 -59,-189 -61,-195 -58,-198 -53,-203 -54,-206 -60,-216 -60,-220 -62,-230 -62,-242 -61,-247 -61,-255 -69,-263 -75,-273 -88,-284 -105,-287 -110,-282 -113,-279 -114,-278 -118,-286 -120,-288 -125,-291 -127,-289 -135,-281 -140,-276 -144,-268 -153,-259 -156,-256 -160,-256 -167,-257 -176,-260 -180,-260 -184,-260 -189,-259 -196,-260 -206,-262 -212,-264 -219,-257 -221,-255 -226,-250 -230,-246 -229,-243 -223,-229 -221,-227 -220,-220 -218,-214 -223,-209 -233,-199 -242,-186 -243,-185 -241,-179 -239,-169 -238,-162 -238,-158 -238,-154 -235,-145 -234,-142 -233,-139 -227,-141 -224,-140 -220,-140 -214,-138 -208,-140 -203,-137 -204,-132 -207,-117 -207,-113 -208,-104 -209,-103 -208,-100 -205,-95 -201,-87 -200,-80 -201,-79 -200,-76 -197,-63 -189,-47 -187,-45 -186,-42 -179,-37 -177,-39 -170,-42 -163,-53 -162,-54 -157,-55 -144,-48 -133,-39 -125,-43 -127,-49 -124,-52 -113,-47 -106,-46 -105,-51 -92,-48 -89,-51 -83,-45 -84,-44 -82,-38 -67,-21 -63,-17 -59,-9 -57,-7 -53,-3 -49,-3 -38,-2 -38,-6 -46,-18 -54,-26 -58,-30 -63,-33 -71,-41 -79,-53 -88,-68 -91,-73 -92,-76 -91,-77 -87,-81 -86,-82 -74,-70 -69,-63 -63,-57 -56,-56 -55,-65 -55,-69 -61,-75 -71,-85 -65,-83 -59,-77 -45,-63 -37,-55 -28,-40 -23,-29"/>
  </object>
  <object id="517" x="5693" y="4747">
   <properties>
    <property name="collision" type="bool" value="true"/>
   </properties>
   <polygon points="0,0 6,-6 7,-11 7,-15 9,-21 11,-23 14,-26 12,-28 5,-33 -9,-47 -13,-51 -17,-55 -24,-64 -27,-73 -34,-86 -36,-96 -37,-103 -40,-112 -44,-120 -43,-121 -43,-125 -33,-119 -31,-117 -25,-111 -16,-100 -13,-95 -9,-91 -4,-92 -9,-99 -6,-106 -9,-111 -23,-125 -28,-132 -44,-156 -47,-161 -48,-164 -50,-170 -59,-189 -61,-195 -58,-198 -53,-203 -54,-206 -60,-216 -60,-220 -62,-230 -62,-242 -61,-247 -61,-255 -69,-263 -75,-273 -88,-284 -105,-287 -110,-282 -113,-279 -114,-278 -118,-286 -120,-288 -125,-291 -127,-289 -135,-281 -140,-276 -144,-268 -153,-259 -156,-256 -160,-256 -167,-257 -176,-260 -180,-260 -184,-260 -189,-259 -196,-260 -206,-262 -212,-264 -219,-257 -221,-255 -226,-250 -230,-246 -229,-243 -223,-229 -221,-227 -220,-220 -218,-214 -223,-209 -233,-199 -242,-186 -243,-185 -241,-179 -239,-169 -238,-162 -238,-158 -238,-154 -235,-145 -234,-142 -233,-139 -227,-141 -224,-140 -220,-140 -214,-138 -208,-140 -203,-137 -204,-132 -207,-117 -207,-113 -208,-104 -209,-103 -208,-100 -205,-95 -201,-87 -200,-80 -201,-79 -200,-76 -197,-63 -189,-47 -187,-45 -186,-42 -179,-37 -177,-39 -170,-42 -163,-53 -162,-54 -157,-55 -144,-48 -133,-39 -125,-43 -127,-49 -124,-52 -113,-47 -106,-46 -105,-51 -92,-48 -89,-51 -83,-45 -84,-44 -82,-38 -67,-21 -63,-17 -59,-9 -57,-7 -53,-3 -49,-3 -38,-2 -38,-6 -46,-18 -54,-26 -58,-30 -63,-33 -71,-41 -79,-53 -88,-68 -91,-73 -92,-76 -91,-77 -87,-81 -86,-82 -74,-70 -69,-63 -63,-57 -56,-56 -55,-65 -55,-69 -61,-75 -71,-85 -65,-83 -59,-77 -45,-63 -37,-55 -28,-40 -23,-29"/>
  </object>
  <object id="521" x="7100" y="4108">
   <properties>
    <property name="collision" type="bool" value="true"/>
   </properties>
   <polygon points="0,0 6,-6 7,-11 7,-15 9,-21 11,-23 14,-26 12,-28 5,-33 -9,-47 -13,-51 -17,-55 -24,-64 -27,-73 -34,-86 -36,-96 -37,-103 -40,-112 -44,-120 -43,-121 -43,-125 -33,-119 -31,-117 -25,-111 -16,-100 -13,-95 -9,-91 -4,-92 -9,-99 -6,-106 -9,-111 -23,-125 -28,-132 -44,-156 -47,-161 -48,-164 -50,-170 -59,-189 -61,-195 -58,-198 -53,-203 -54,-206 -60,-216 -60,-220 -62,-230 -62,-242 -61,-247 -61,-255 -69,-263 -75,-273 -88,-284 -105,-287 -110,-282 -113,-279 -114,-278 -118,-286 -120,-288 -125,-291 -127,-289 -135,-281 -140,-276 -144,-268 -153,-259 -156,-256 -160,-256 -167,-257 -176,-260 -180,-260 -184,-260 -189,-259 -196,-260 -206,-262 -212,-264 -219,-257 -221,-255 -226,-250 -230,-246 -229,-243 -223,-229 -221,-227 -220,-220 -218,-214 -223,-209 -233,-199 -242,-186 -243,-185 -241,-179 -239,-169 -238,-162 -238,-158 -238,-154 -235,-145 -234,-142 -233,-139 -227,-141 -224,-140 -220,-140 -214,-138 -208,-140 -203,-137 -204,-132 -207,-117 -207,-113 -208,-104 -209,-103 -208,-100 -205,-95 -201,-87 -200,-80 -201,-79 -200,-76 -197,-63 -189,-47 -187,-45 -186,-42 -179,-37 -177,-39 -170,-42 -163,-53 -162,-54 -157,-55 -144,-48 -133,-39 -125,-43 -127,-49 -124,-52 -113,-47 -106,-46 -105,-51 -92,-48 -89,-51 -83,-45 -84,-44 -82,-38 -67,-21 -63,-17 -59,-9 -57,-7 -53,-3 -49,-3 -38,-2 -38,-6 -46,-18 -54,-26 -58,-30 -63,-33 -71,-41 -79,-53 -88,-68 -91,-73 -92,-76 -91,-77 -87,-81 -86,-82 -74,-70 -69,-63 -63,-57 -56,-56 -55,-65 -55,-69 -61,-75 -71,-85 -65,-83 -59,-77 -45,-63 -37,-55 -28,-40 -23,-29"/>
  </object>
  <object id="518" x="5308" y="6412">
   <properties>
    <property name="collision" type="bool" value="true"/>
   </properties>
   <polygon points="0,0 6,-6 7,-11 7,-15 9,-21 11,-23 14,-26 12,-28 5,-33 -9,-47 -13,-51 -17,-55 -24,-64 -27,-73 -34,-86 -36,-96 -37,-103 -40,-112 -44,-120 -43,-121 -43,-125 -33,-119 -31,-117 -25,-111 -16,-100 -13,-95 -9,-91 -4,-92 -9,-99 -6,-106 -9,-111 -23,-125 -28,-132 -44,-156 -47,-161 -48,-164 -50,-170 -59,-189 -61,-195 -58,-198 -53,-203 -54,-206 -60,-216 -60,-220 -62,-230 -62,-242 -61,-247 -61,-255 -69,-263 -75,-273 -88,-284 -105,-287 -110,-282 -113,-279 -114,-278 -118,-286 -120,-288 -125,-291 -127,-289 -135,-281 -140,-276 -144,-268 -153,-259 -156,-256 -160,-256 -167,-257 -176,-260 -180,-260 -184,-260 -189,-259 -196,-260 -206,-262 -212,-264 -219,-257 -221,-255 -226,-250 -230,-246 -229,-243 -223,-229 -221,-227 -220,-220 -218,-214 -223,-209 -233,-199 -242,-186 -243,-185 -241,-179 -239,-169 -238,-162 -238,-158 -238,-154 -235,-145 -234,-142 -233,-139 -227,-141 -224,-140 -220,-140 -214,-138 -208,-140 -203,-137 -204,-132 -207,-117 -207,-113 -208,-104 -209,-103 -208,-100 -205,-95 -201,-87 -200,-80 -201,-79 -200,-76 -197,-63 -189,-47 -187,-45 -186,-42 -179,-37 -177,-39 -170,-42 -163,-53 -162,-54 -157,-55 -144,-48 -133,-39 -125,-43 -127,-49 -124,-52 -113,-47 -106,-46 -105,-51 -92,-48 -89,-51 -83,-45 -84,-44 -82,-38 -67,-21 -63,-17 -59,-9 -57,-7 -53,-3 -49,-3 -38,-2 -38,-6 -46,-18 -54,-26 -58,-30 -63,-33 -71,-41 -79,-53 -88,-68 -91,-73 -92,-76 -91,-77 -87,-81 -86,-82 -74,-70 -69,-63 -63,-57 -56,-56 -55,-65 -55,-69 -61,-75 -71,-85 -65,-83 -59,-77 -45,-63 -37,-55 -28,-40 -23,-29"/>
  </object>
  <object id="519" x="3772" y="6284">
   <properties>
    <property name="collision" type="bool" value="true"/>
   </properties>
   <polygon points="0,0 6,-6 7,-11 7,-15 9,-21 11,-23 14,-26 12,-28 5,-33 -9,-47 -13,-51 -17,-55 -24,-64 -27,-73 -34,-86 -36,-96 -37,-103 -40,-112 -44,-120 -43,-121 -43,-125 -33,-119 -31,-117 -25,-111 -16,-100 -13,-95 -9,-91 -4,-92 -9,-99 -6,-106 -9,-111 -23,-125 -28,-132 -44,-156 -47,-161 -48,-164 -50,-170 -59,-189 -61,-195 -58,-198 -53,-203 -54,-206 -60,-216 -60,-220 -62,-230 -62,-242 -61,-247 -61,-255 -69,-263 -75,-273 -88,-284 -105,-287 -110,-282 -113,-279 -114,-278 -118,-286 -120,-288 -125,-291 -127,-289 -135,-281 -140,-276 -144,-268 -153,-259 -156,-256 -160,-256 -167,-257 -176,-260 -180,-260 -184,-260 -189,-259 -196,-260 -206,-262 -212,-264 -219,-257 -221,-255 -226,-250 -230,-246 -229,-243 -223,-229 -221,-227 -220,-220 -218,-214 -223,-209 -233,-199 -242,-186 -243,-185 -241,-179 -239,-169 -238,-162 -238,-158 -238,-154 -235,-145 -234,-142 -233,-139 -227,-141 -224,-140 -220,-140 -214,-138 -208,-140 -203,-137 -204,-132 -207,-117 -207,-113 -208,-104 -209,-103 -208,-100 -205,-95 -201,-87 -200,-80 -201,-79 -200,-76 -197,-63 -189,-47 -187,-45 -186,-42 -179,-37 -177,-39 -170,-42 -163,-53 -162,-54 -157,-55 -144,-48 -133,-39 -125,-43 -127,-49 -124,-52 -113,-47 -106,-46 -105,-51 -92,-48 -89,-51 -83,-45 -84,-44 -82,-38 -67,-21 -63,-17 -59,-9 -57,-7 -53,-3 -49,-3 -38,-2 -38,-6 -46,-18 -54,-26 -58,-30 -63,-33 -71,-41 -79,-53 -88,-68 -91,-73 -92,-76 -91,-77 -87,-81 -86,-82 -74,-70 -69,-63 -63,-57 -56,-56 -55,-65 -55,-69 -61,-75 -71,-85 -65,-83 -59,-77 -45,-63 -37,-55 -28,-40 -23,-29"/>
  </object>
  <object id="520" x="2746" y="5514">
   <properties>
    <property name="collision" type="bool" value="true"/>
   </properties>
   <polygon points="0,0 6,-6 7,-11 7,-15 9,-21 11,-23 14,-26 12,-28 5,-33 -9,-47 -13,-51 -17,-55 -24,-64 -27,-73 -34,-86 -36,-96 -37,-103 -40,-112 -44,-120 -43,-121 -43,-125 -33,-119 -31,-117 -25,-111 -16,-100 -13,-95 -9,-91 -4,-92 -9,-99 -6,-106 -9,-111 -23,-125 -28,-132 -44,-156 -47,-161 -48,-164 -50,-170 -59,-189 -61,-195 -58,-198 -53,-203 -54,-206 -60,-216 -60,-220 -62,-230 -62,-242 -61,-247 -61,-255 -69,-263 -75,-273 -88,-284 -105,-287 -110,-282 -113,-279 -114,-278 -118,-286 -120,-288 -125,-291 -127,-289 -135,-281 -140,-276 -144,-268 -153,-259 -156,-256 -160,-256 -167,-257 -176,-260 -180,-260 -184,-260 -189,-259 -196,-260 -206,-262 -212,-264 -219,-257 -221,-255 -226,-250 -230,-246 -229,-243 -223,-229 -221,-227 -220,-220 -218,-214 -223,-209 -233,-199 -242,-186 -243,-185 -241,-179 -239,-169 -238,-162 -238,-158 -238,-154 -235,-145 -234,-142 -233,-139 -227,-141 -224,-140 -220,-140 -214,-138 -208,-140 -203,-137 -204,-132 -207,-117 -207,-113 -208,-104 -209,-103 -208,-100 -205,-95 -201,-87 -200,-80 -201,-79 -200,-76 -197,-63 -189,-47 -187,-45 -186,-42 -179,-37 -177,-39 -170,-42 -163,-53 -162,-54 -157,-55 -144,-48 -133,-39 -125,-43 -127,-49 -124,-52 -113,-47 -106,-46 -105,-51 -92,-48 -89,-51 -83,-45 -84,-44 -82,-38 -67,-21 -63,-17 -59,-9 -57,-7 -53,-3 -49,-3 -38,-2 -38,-6 -46,-18 -54,-26 -58,-30 -63,-33 -71,-41 -79,-53 -88,-68 -91,-73 -92,-76 -91,-77 -87,-81 -86,-82 -74,-70 -69,-63 -63,-57 -56,-56 -55,-65 -55,-69 -61,-75 -71,-85 -65,-83 -59,-77 -45,-63 -37,-55 -28,-40 -23,-29"/>
  </object>
  <object id="496" x="3004" y="3084">
   <properties>
    <property name="collision" type="bool" value="true"/>
   </properties>
   <polygon points="0,0 6,-6 7,-11 7,-15 9,-21 11,-23 14,-26 12,-28 5,-33 -9,-47 -13,-51 -17,-55 -24,-64 -27,-73 -34,-86 -36,-96 -37,-103 -40,-112 -44,-120 -43,-121 -43,-125 -33,-119 -31,-117 -25,-111 -16,-100 -13,-95 -9,-91 -4,-92 -9,-99 -6,-106 -9,-111 -23,-125 -28,-132 -44,-156 -47,-161 -48,-164 -50,-170 -59,-189 -61,-195 -58,-198 -53,-203 -54,-206 -60,-216 -60,-220 -62,-230 -62,-242 -61,-247 -61,-255 -69,-263 -75,-273 -88,-284 -105,-287 -110,-282 -113,-279 -114,-278 -118,-286 -120,-288 -125,-291 -127,-289 -135,-281 -140,-276 -144,-268 -153,-259 -156,-256 -160,-256 -167,-257 -176,-260 -180,-260 -184,-260 -189,-259 -196,-260 -206,-262 -212,-264 -219,-257 -221,-255 -226,-250 -230,-246 -229,-243 -223,-229 -221,-227 -220,-220 -218,-214 -223,-209 -233,-199 -242,-186 -243,-185 -241,-179 -239,-169 -238,-162 -238,-158 -238,-154 -235,-145 -234,-142 -233,-139 -227,-141 -224,-140 -220,-140 -214,-138 -208,-140 -203,-137 -204,-132 -207,-117 -207,-113 -208,-104 -209,-103 -208,-100 -205,-95 -201,-87 -200,-80 -201,-79 -200,-76 -197,-63 -189,-47 -187,-45 -186,-42 -179,-37 -177,-39 -170,-42 -163,-53 -162,-54 -157,-55 -144,-48 -133,-39 -125,-43 -127,-49 -124,-52 -113,-47 -106,-46 -105,-51 -92,-48 -89,-51 -83,-45 -84,-44 -82,-38 -67,-21 -63,-17 -59,-9 -57,-7 -53,-3 -49,-3 -38,-2 -38,-6 -46,-18 -54,-26 -58,-30 -63,-33 -71,-41 -79,-53 -88,-68 -91,-73 -92,-76 -91,-77 -87,-81 -86,-82 -74,-70 -69,-63 -63,-57 -56,-56 -55,-65 -55,-69 -61,-75 -71,-85 -65,-83 -59,-77 -45,-63 -37,-55 -28,-40 -23,-29"/>
  </object>
  <object id="522" x="2273.33" y="5225.33">
   <properties>
    <property name="collision" type="bool" value="true"/>
   </properties>
   <polygon points="0,0 14.6667,14.6667 20,17.3333 22,18 24,18.6667 26,19.3333 27.3333,20.6667 29.3333,18.6667 30,18 30.6667,17.3333 30,15.3333 30.6667,14.6667 30,12.6667 30.6667,12 31.3333,11.3333 36,12 36.6667,11.3333 40,13.3333 43.3333,12.6667 47.3333,14 48.6667,12.6667 50.6667,10.6667 59.3333,15.3333 62,18 63.3333,19.3333 74.6667,26.6667 76,25.3333 74.6667,21.3333 74,16.6667 71.3333,11.3333 66,3.33333 63.3333,0.666667 65.3333,-1.33333 72.6667,2 73.3333,1.33333 74.6667,2.66667 79.3333,6 80.6667,7.33333 82.6667,8 83.3333,7.33333 86.6667,9.33333 90.6667,10.6667 92.6667,11.3333 97.3333,14.6667 98.6667,16 100.667,14 101.333,13.3333 99.3333,10 95.3333,6 94,4.66667 94,2 98,-2 95.3333,-7.33333 94,-8.66667 94,-11.3333 96,-13.3333 97.3333,-14.6667 98.6667,-13.3333 102,-14 102.667,-14.6667 102,-16.6667 102.667,-20 103.333,-20.6667 106.667,-18.6667 116.667,-15.3333 120.667,-14 127.333,-12.6667 132.667,-12.6667 130.667,-18.6667 129.333,-22.6667 123.333,-30 120.667,-32.6667 115.333,-35.3333 113.333,-36 109.333,-40 104,-48 105.333,-49.3333 107.333,-51.3333 103.333,-55.3333 102,-54 101.333,-53.3333 100,-54.6667 93.3333,-61.3333 95.3333,-63.3333 96.6667,-64.6667 96,-66.6667 94,-70 94.6667,-70.6667 98,-71.3333 100.667,-71.3333 106,-66 110,-64.6667 112.667,-64.6667 118,-64.6667 116.667,-71.3333 114,-74 112.667,-75.3333 107.333,-80.6667 104.667,-83.3333 103.333,-87.3333 100.667,-92.6667 98.6667,-96 98.6667,-93.3333 96,-90.6667 94,-88.6667 92.6667,-90 90,-92.6667 89.3333,-94.6667 88.6667,-96.6667 88.6667,-99.3333 87.3333,-100.667 82,-106 80,-106.667 76,-108 72.6667,-110 68.6667,-114 66.6667,-117.333 65.3333,-121.333 66,-122 67.3333,-120.667 74.6667,-114.667 76.6667,-114 80.6667,-110 85.3333,-106.667 88,-106.667 90,-106 91.3333,-104.667 94,-104.667 94.6667,-108 93.3333,-112 94,-115.333 93.3333,-122.667 91.3333,-128.667 87.3333,-132.667 86.6667,-134.667 86,-136.667 83.3333,-144.667 82,-148.667 79.3333,-154 80,-154.667 78,-155.333 74,-156.667 72,-157.333 69.3333,-157.333 65.3333,-161.333 62.6667,-161.333 62,-160.667 61.3333,-160 62,-158 61.3333,-157.333 64,-154.667 68.6667,-151.333 71.3333,-148.667 70.6667,-148 69.3333,-146.667 66.6667,-149.333 62.6667,-150.667 62,-150 60.6667,-151.333 58,-156.667 55.3333,-159.333 52.6667,-164.667 50.6667,-170.667 48,-176 44,-182.667 40,-189.333 37.3333,-192 33.3333,-196 32.6667,-195.333 28.6667,-199.333 23.3333,-204.667 16.6667,-211.333 14,-214 12.6667,-215.333 3.33333,-222 -2,-224.667 -6,-226 -7.33333,-227.333 -11.3333,-228.667 -12.6667,-227.333 -16.6667,-228.667 -17.3333,-228 -18,-227.333 -14.6667,-217.333 -14,-215.333 -8.66667,-210 -6,-207.333 0.666667,-203.333 3.33333,-200.667 4.66667,-199.333 7.33333,-196.667 8,-194.667 6,-192.667 6,-190 6,-187.333 4,-188 0.666667,-190 -5.33333,-194.667 -5.33333,-189.333 -2.66667,-186.667 -0.666667,-188.667 2.66667,-186.667 4,-185.333 5.33333,-184 6,-179.333 7.33333,-178 14,-171.333 16.6667,-168.667 24,-162.667 27.3333,-160.667 28,-161.333 32.6667,-158 32,-157.333 31.3333,-154 30,-152.667 32,-149.333 31.3333,-148.667 26.6667,-152 22.6667,-156 20,-158.667 15.3333,-162 10.6667,-162.667 5.33333,-165.333 3.33333,-168.667 0,-173.333 -0.666667,-175.333 -4,-180 -11.3333,-188.667 -14,-191.333 -16,-192 -20,-193.333 -21.3333,-192 -16,-178.667 -20,-180 -24,-184 -22.6667,-188 -19.3333,-180.667 -18,-179.333 -18.6667,-178.667 -22,-178 -26,-179.333 -28,-180 -32,-181.333 -31.3333,-182 -32.6667,-186 -34,-192.667 -34,-198 -33.3333,-198.667 -34,-203.333 -32,-205.333 -28.6667,-206 -28,-209.333 -28.6667,-211.333 -30.6667,-220 -30.6667,-222.667 -32,-226.667 -32,-229.333 -29.3333,-232 -44,-252 -45.3333,-253.333 -49.3333,-249.333 -49.3333,-246.667 -50.6667,-240 -55.3333,-240.667 -58.6667,-237.333 -60,-236 -58,-230 -57.3333,-225.333 -54.6667,-220 -61.3333,-224 -62.6667,-225.333 -63.3333,-224.667 -66.6667,-226.667 -68.6667,-227.333 -69.3333,-226.667 -70,-226 -71.3333,-224.667 -70.6667,-220 -68,-214.667 -68.6667,-214 -67.3333,-210 -64.6667,-204.667 -62.6667,-201.333 -61.3333,-200 -60,-198.667 -59.3333,-196.667 -54.6667,-190.667 -53.3333,-189.333 -50.6667,-186.667 -48,-184 -46.6667,-182.667 -44,-180 -45.3333,-178.667 -44,-174.667 -42,-171.333 -48.6667,-172.667 -52.6667,-174 -50,-171.333 -55.3333,-174 -56,-173.333 -56.6667,-172.667 -51.3333,-167.333 -50,-166 -48,-162.667 -49.3333,-161.333 -48.6667,-156.667 -46,-151.333 -43.3333,-148.667 -43.3333,-146 -42.6667,-141.333 -48,-146.667 -46.6667,-148 -50.6667,-154.667 -55.3333,-160.667 -57.3333,-164 -61.3333,-176 -62.6667,-180 -63.3333,-182 -66,-187.333 -70,-194 -72.6667,-199.333 -81.3333,-209.333 -94.6667,-220 -94.6667,-214.667 -91.3333,-207.333 -86.6667,-201.333 -85.3333,-197.333 -85.3333,-194.667 -81.3333,-188 -86.6667,-193.333 -90.6667,-200 -93.3333,-205.333 -97.3333,-212 -98.6667,-213.333 -108.667,-224.667 -118.667,-236 -126,-242 -132,-244 -133.333,-242.667 -138,-240.667 -142,-242 -142.667,-233.333 -137.333,-225.333 -135.333,-222 -126.667,-212 -122.667,-208 -120,-205.333 -117.333,-202.667 -116,-201.333 -112,-197.333 -107.333,-194 -104.667,-191.333 -102,-191.333 -97.3333,-185.333 -95.3333,-179.333 -95.3333,-176.667 -96.6667,-175.333 -100,-174.667 -106,-176.667 -108.667,-176.667 -109.333,-176 -109.333,-173.333 -106.667,-170.667 -103.333,-168.667 -94,-164.667 -92,-164 -80.6667,-156.667 -74,-152.667 -60.6667,-139.333 -65.3333,-142.667 -56,-136 -56.6667,-135.333 -55.3333,-134 -52.6667,-131.333 -58.6667,-125.333 -60.6667,-126 -59.3333,-135.333 -64.6667,-140.667 -69.3333,-144 -76,-148 -88,-154.667 -92.6667,-152.667 -95.3333,-150 -90.6667,-138.667 -86.6667,-132 -82.6667,-125.333 -75.3333,-119.333 -68.6667,-112.667 -70,-111.333 -70.6667,-110.667 -74.6667,-112 -85.3333,-122.667 -86.6667,-124 -98.6667,-130.667 -103.333,-134 -110,-138 -114,-139.333 -116.667,-136.667 -119.333,-136.667 -120.667,-135.333 -122.667,-133.333 -126,-130 -126.667,-126.667 -126,-124.667 -122.667,-120 -115.333,-111.333 -104,-104 -87.3333,-99.3333 -86,-98 -83.3333,-98 -74.6667,-96 -72,-96 -70.6667,-94.6667 -70,-95.3333 -61.3333,-90.6667 -50.6667,-82.6667 -46,-79.3333 -42.6667,-77.3333 -38.6667,-76 -53.3333,-82.6667 -54,-82 -56.6667,-79.3333 -55.3333,-78 -52.6667,-75.3333 -49.3333,-70.6667 -48.6667,-68.6667 -44,-62.6667 -42.6667,-56 -43.3333,-55.3333 -50.6667,-58.6667 -52,-60 -54.6667,-62.6667 -61.3333,-69.3333 -64,-72 -69.3333,-77.3333 -76,-84 -78.6667,-86.6667 -80,-88 -87.3333,-91.3333 -88.6667,-92.6667 -90.6667,-90.6667 -91.3333,-90 -97.3333,-92 -98,-91.3333 -97.3333,-89.3333 -93.3333,-85.3333 -90.6667,-82.6667 -82,-70 -74.6667,-64 -69.3333,-61.3333 -68,-54.6667 -69.3333,-53.3333 -74.6667,-53.3333 -78.6667,-52 -82.6667,-53.3333 -84,-52 -86.6667,-52 -88.6667,-52.6667 -91.3333,-47.3333 -92.6667,-48.6667 -106.667,-56 -112,-58.6667 -106.667,-53.3333 -101.333,-48 -99.3333,-44.6667 -96,-42.6667 -92,-41.3333 -90.6667,-40 -88,-37.3333 -82.6667,-32 -80.6667,-28.6667 -69.3333,-21.3333 -63.3333,-22 -60.6667,-27.3333 -59.3333,-34 -55.3333,-38 -50,-32.6667 -47.3333,-32.6667 -45.3333,-32 -42,-32.6667 -34.6667,-29.3333 -33.3333,-30.6667 -32.6667,-31.3333 -29.3333,-32 -26.6667,-32 -17.3333,-22.6667 -13.3333,-21.3333 -8.66667,-18 -9.33333,-20 -1.33333,-17.3333 5.33333,-13.3333 9.33333,-12 15.3333,-7.33333 22,-0.666667 22.6667,4 18,0.666667 14,-0.666667 7.33333,-4.66667"/>
  </object>
  <object id="541" x="3043.33" y="5867.33">
   <properties>
    <property name="collision" type="bool" value="true"/>
   </properties>
   <polygon points="0,0 14.6667,14.6667 20,17.3333 22,18 24,18.6667 26,19.3333 27.3333,20.6667 29.3333,18.6667 30,18 30.6667,17.3333 30,15.3333 30.6667,14.6667 30,12.6667 30.6667,12 31.3333,11.3333 36,12 36.6667,11.3333 40,13.3333 43.3333,12.6667 47.3333,14 48.6667,12.6667 50.6667,10.6667 59.3333,15.3333 62,18 63.3333,19.3333 74.6667,26.6667 76,25.3333 74.6667,21.3333 74,16.6667 71.3333,11.3333 66,3.33333 63.3333,0.666667 65.3333,-1.33333 72.6667,2 73.3333,1.33333 74.6667,2.66667 79.3333,6 80.6667,7.33333 82.6667,8 83.3333,7.33333 86.6667,9.33333 90.6667,10.6667 92.6667,11.3333 97.3333,14.6667 98.6667,16 100.667,14 101.333,13.3333 99.3333,10 95.3333,6 94,4.66667 94,2 98,-2 95.3333,-7.33333 94,-8.66667 94,-11.3333 96,-13.3333 97.3333,-14.6667 98.6667,-13.3333 102,-14 102.667,-14.6667 102,-16.6667 102.667,-20 103.333,-20.6667 106.667,-18.6667 116.667,-15.3333 120.667,-14 127.333,-12.6667 132.667,-12.6667 130.667,-18.6667 129.333,-22.6667 123.333,-30 120.667,-32.6667 115.333,-35.3333 113.333,-36 109.333,-40 104,-48 105.333,-49.3333 107.333,-51.3333 103.333,-55.3333 102,-54 101.333,-53.3333 100,-54.6667 93.3333,-61.3333 95.3333,-63.3333 96.6667,-64.6667 96,-66.6667 94,-70 94.6667,-70.6667 98,-71.3333 100.667,-71.3333 106,-66 110,-64.6667 112.667,-64.6667 118,-64.6667 116.667,-71.3333 114,-74 112.667,-75.3333 107.333,-80.6667 104.667,-83.3333 103.333,-87.3333 100.667,-92.6667 98.6667,-96 98.6667,-93.3333 96,-90.6667 94,-88.6667 92.6667,-90 90,-92.6667 89.3333,-94.6667 88.6667,-96.6667 88.6667,-99.3333 87.3333,-100.667 82,-106 80,-106.667 76,-108 72.6667,-110 68.6667,-114 66.6667,-117.333 65.3333,-121.333 66,-122 67.3333,-120.667 74.6667,-114.667 76.6667,-114 80.6667,-110 85.3333,-106.667 88,-106.667 90,-106 91.3333,-104.667 94,-104.667 94.6667,-108 93.3333,-112 94,-115.333 93.3333,-122.667 91.3333,-128.667 87.3333,-132.667 86.6667,-134.667 86,-136.667 83.3333,-144.667 82,-148.667 79.3333,-154 80,-154.667 78,-155.333 74,-156.667 72,-157.333 69.3333,-157.333 65.3333,-161.333 62.6667,-161.333 62,-160.667 61.3333,-160 62,-158 61.3333,-157.333 64,-154.667 68.6667,-151.333 71.3333,-148.667 70.6667,-148 69.3333,-146.667 66.6667,-149.333 62.6667,-150.667 62,-150 60.6667,-151.333 58,-156.667 55.3333,-159.333 52.6667,-164.667 50.6667,-170.667 48,-176 44,-182.667 40,-189.333 37.3333,-192 33.3333,-196 32.6667,-195.333 28.6667,-199.333 23.3333,-204.667 16.6667,-211.333 14,-214 12.6667,-215.333 3.33333,-222 -2,-224.667 -6,-226 -7.33333,-227.333 -11.3333,-228.667 -12.6667,-227.333 -16.6667,-228.667 -17.3333,-228 -18,-227.333 -14.6667,-217.333 -14,-215.333 -8.66667,-210 -6,-207.333 0.666667,-203.333 3.33333,-200.667 4.66667,-199.333 7.33333,-196.667 8,-194.667 6,-192.667 6,-190 6,-187.333 4,-188 0.666667,-190 -5.33333,-194.667 -5.33333,-189.333 -2.66667,-186.667 -0.666667,-188.667 2.66667,-186.667 4,-185.333 5.33333,-184 6,-179.333 7.33333,-178 14,-171.333 16.6667,-168.667 24,-162.667 27.3333,-160.667 28,-161.333 32.6667,-158 32,-157.333 31.3333,-154 30,-152.667 32,-149.333 31.3333,-148.667 26.6667,-152 22.6667,-156 20,-158.667 15.3333,-162 10.6667,-162.667 5.33333,-165.333 3.33333,-168.667 0,-173.333 -0.666667,-175.333 -4,-180 -11.3333,-188.667 -14,-191.333 -16,-192 -20,-193.333 -21.3333,-192 -16,-178.667 -20,-180 -24,-184 -22.6667,-188 -19.3333,-180.667 -18,-179.333 -18.6667,-178.667 -22,-178 -26,-179.333 -28,-180 -32,-181.333 -31.3333,-182 -32.6667,-186 -34,-192.667 -34,-198 -33.3333,-198.667 -34,-203.333 -32,-205.333 -28.6667,-206 -28,-209.333 -28.6667,-211.333 -30.6667,-220 -30.6667,-222.667 -32,-226.667 -32,-229.333 -29.3333,-232 -44,-252 -45.3333,-253.333 -49.3333,-249.333 -49.3333,-246.667 -50.6667,-240 -55.3333,-240.667 -58.6667,-237.333 -60,-236 -58,-230 -57.3333,-225.333 -54.6667,-220 -61.3333,-224 -62.6667,-225.333 -63.3333,-224.667 -66.6667,-226.667 -68.6667,-227.333 -69.3333,-226.667 -70,-226 -71.3333,-224.667 -70.6667,-220 -68,-214.667 -68.6667,-214 -67.3333,-210 -64.6667,-204.667 -62.6667,-201.333 -61.3333,-200 -60,-198.667 -59.3333,-196.667 -54.6667,-190.667 -53.3333,-189.333 -50.6667,-186.667 -48,-184 -46.6667,-182.667 -44,-180 -45.3333,-178.667 -44,-174.667 -42,-171.333 -48.6667,-172.667 -52.6667,-174 -50,-171.333 -55.3333,-174 -56,-173.333 -56.6667,-172.667 -51.3333,-167.333 -50,-166 -48,-162.667 -49.3333,-161.333 -48.6667,-156.667 -46,-151.333 -43.3333,-148.667 -43.3333,-146 -42.6667,-141.333 -48,-146.667 -46.6667,-148 -50.6667,-154.667 -55.3333,-160.667 -57.3333,-164 -61.3333,-176 -62.6667,-180 -63.3333,-182 -66,-187.333 -70,-194 -72.6667,-199.333 -81.3333,-209.333 -94.6667,-220 -94.6667,-214.667 -91.3333,-207.333 -86.6667,-201.333 -85.3333,-197.333 -85.3333,-194.667 -81.3333,-188 -86.6667,-193.333 -90.6667,-200 -93.3333,-205.333 -97.3333,-212 -98.6667,-213.333 -108.667,-224.667 -118.667,-236 -126,-242 -132,-244 -133.333,-242.667 -138,-240.667 -142,-242 -142.667,-233.333 -137.333,-225.333 -135.333,-222 -126.667,-212 -122.667,-208 -120,-205.333 -117.333,-202.667 -116,-201.333 -112,-197.333 -107.333,-194 -104.667,-191.333 -102,-191.333 -97.3333,-185.333 -95.3333,-179.333 -95.3333,-176.667 -96.6667,-175.333 -100,-174.667 -106,-176.667 -108.667,-176.667 -109.333,-176 -109.333,-173.333 -106.667,-170.667 -103.333,-168.667 -94,-164.667 -92,-164 -80.6667,-156.667 -74,-152.667 -60.6667,-139.333 -65.3333,-142.667 -56,-136 -56.6667,-135.333 -55.3333,-134 -52.6667,-131.333 -58.6667,-125.333 -60.6667,-126 -59.3333,-135.333 -64.6667,-140.667 -69.3333,-144 -76,-148 -88,-154.667 -92.6667,-152.667 -95.3333,-150 -90.6667,-138.667 -86.6667,-132 -82.6667,-125.333 -75.3333,-119.333 -68.6667,-112.667 -70,-111.333 -70.6667,-110.667 -74.6667,-112 -85.3333,-122.667 -86.6667,-124 -98.6667,-130.667 -103.333,-134 -110,-138 -114,-139.333 -116.667,-136.667 -119.333,-136.667 -120.667,-135.333 -122.667,-133.333 -126,-130 -126.667,-126.667 -126,-124.667 -122.667,-120 -115.333,-111.333 -104,-104 -87.3333,-99.3333 -86,-98 -83.3333,-98 -74.6667,-96 -72,-96 -70.6667,-94.6667 -70,-95.3333 -61.3333,-90.6667 -50.6667,-82.6667 -46,-79.3333 -42.6667,-77.3333 -38.6667,-76 -53.3333,-82.6667 -54,-82 -56.6667,-79.3333 -55.3333,-78 -52.6667,-75.3333 -49.3333,-70.6667 -48.6667,-68.6667 -44,-62.6667 -42.6667,-56 -43.3333,-55.3333 -50.6667,-58.6667 -52,-60 -54.6667,-62.6667 -61.3333,-69.3333 -64,-72 -69.3333,-77.3333 -76,-84 -78.6667,-86.6667 -80,-88 -87.3333,-91.3333 -88.6667,-92.6667 -90.6667,-90.6667 -91.3333,-90 -97.3333,-92 -98,-91.3333 -97.3333,-89.3333 -93.3333,-85.3333 -90.6667,-82.6667 -82,-70 -74.6667,-64 -69.3333,-61.3333 -68,-54.6667 -69.3333,-53.3333 -74.6667,-53.3333 -78.6667,-52 -82.6667,-53.3333 -84,-52 -86.6667,-52 -88.6667,-52.6667 -91.3333,-47.3333 -92.6667,-48.6667 -106.667,-56 -112,-58.6667 -106.667,-53.3333 -101.333,-48 -99.3333,-44.6667 -96,-42.6667 -92,-41.3333 -90.6667,-40 -88,-37.3333 -82.6667,-32 -80.6667,-28.6667 -69.3333,-21.3333 -63.3333,-22 -60.6667,-27.3333 -59.3333,-34 -55.3333,-38 -50,-32.6667 -47.3333,-32.6667 -45.3333,-32 -42,-32.6667 -34.6667,-29.3333 -33.3333,-30.6667 -32.6667,-31.3333 -29.3333,-32 -26.6667,-32 -17.3333,-22.6667 -13.3333,-21.3333 -8.66667,-18 -9.33333,-20 -1.33333,-17.3333 5.33333,-13.3333 9.33333,-12 15.3333,-7.33333 22,-0.666667 22.6667,4 18,0.666667 14,-0.666667 7.33333,-4.66667"/>
  </object>
  <object id="542" x="3940.33" y="5994.33">
   <properties>
    <property name="collision" type="bool" value="true"/>
   </properties>
   <polygon points="0,0 14.6667,14.6667 20,17.3333 22,18 24,18.6667 26,19.3333 27.3333,20.6667 29.3333,18.6667 30,18 30.6667,17.3333 30,15.3333 30.6667,14.6667 30,12.6667 30.6667,12 31.3333,11.3333 36,12 36.6667,11.3333 40,13.3333 43.3333,12.6667 47.3333,14 48.6667,12.6667 50.6667,10.6667 59.3333,15.3333 62,18 63.3333,19.3333 74.6667,26.6667 76,25.3333 74.6667,21.3333 74,16.6667 71.3333,11.3333 66,3.33333 63.3333,0.666667 65.3333,-1.33333 72.6667,2 73.3333,1.33333 74.6667,2.66667 79.3333,6 80.6667,7.33333 82.6667,8 83.3333,7.33333 86.6667,9.33333 90.6667,10.6667 92.6667,11.3333 97.3333,14.6667 98.6667,16 100.667,14 101.333,13.3333 99.3333,10 95.3333,6 94,4.66667 94,2 98,-2 95.3333,-7.33333 94,-8.66667 94,-11.3333 96,-13.3333 97.3333,-14.6667 98.6667,-13.3333 102,-14 102.667,-14.6667 102,-16.6667 102.667,-20 103.333,-20.6667 106.667,-18.6667 116.667,-15.3333 120.667,-14 127.333,-12.6667 132.667,-12.6667 130.667,-18.6667 129.333,-22.6667 123.333,-30 120.667,-32.6667 115.333,-35.3333 113.333,-36 109.333,-40 104,-48 105.333,-49.3333 107.333,-51.3333 103.333,-55.3333 102,-54 101.333,-53.3333 100,-54.6667 93.3333,-61.3333 95.3333,-63.3333 96.6667,-64.6667 96,-66.6667 94,-70 94.6667,-70.6667 98,-71.3333 100.667,-71.3333 106,-66 110,-64.6667 112.667,-64.6667 118,-64.6667 116.667,-71.3333 114,-74 112.667,-75.3333 107.333,-80.6667 104.667,-83.3333 103.333,-87.3333 100.667,-92.6667 98.6667,-96 98.6667,-93.3333 96,-90.6667 94,-88.6667 92.6667,-90 90,-92.6667 89.3333,-94.6667 88.6667,-96.6667 88.6667,-99.3333 87.3333,-100.667 82,-106 80,-106.667 76,-108 72.6667,-110 68.6667,-114 66.6667,-117.333 65.3333,-121.333 66,-122 67.3333,-120.667 74.6667,-114.667 76.6667,-114 80.6667,-110 85.3333,-106.667 88,-106.667 90,-106 91.3333,-104.667 94,-104.667 94.6667,-108 93.3333,-112 94,-115.333 93.3333,-122.667 91.3333,-128.667 87.3333,-132.667 86.6667,-134.667 86,-136.667 83.3333,-144.667 82,-148.667 79.3333,-154 80,-154.667 78,-155.333 74,-156.667 72,-157.333 69.3333,-157.333 65.3333,-161.333 62.6667,-161.333 62,-160.667 61.3333,-160 62,-158 61.3333,-157.333 64,-154.667 68.6667,-151.333 71.3333,-148.667 70.6667,-148 69.3333,-146.667 66.6667,-149.333 62.6667,-150.667 62,-150 60.6667,-151.333 58,-156.667 55.3333,-159.333 52.6667,-164.667 50.6667,-170.667 48,-176 44,-182.667 40,-189.333 37.3333,-192 33.3333,-196 32.6667,-195.333 28.6667,-199.333 23.3333,-204.667 16.6667,-211.333 14,-214 12.6667,-215.333 3.33333,-222 -2,-224.667 -6,-226 -7.33333,-227.333 -11.3333,-228.667 -12.6667,-227.333 -16.6667,-228.667 -17.3333,-228 -18,-227.333 -14.6667,-217.333 -14,-215.333 -8.66667,-210 -6,-207.333 0.666667,-203.333 3.33333,-200.667 4.66667,-199.333 7.33333,-196.667 8,-194.667 6,-192.667 6,-190 6,-187.333 4,-188 0.666667,-190 -5.33333,-194.667 -5.33333,-189.333 -2.66667,-186.667 -0.666667,-188.667 2.66667,-186.667 4,-185.333 5.33333,-184 6,-179.333 7.33333,-178 14,-171.333 16.6667,-168.667 24,-162.667 27.3333,-160.667 28,-161.333 32.6667,-158 32,-157.333 31.3333,-154 30,-152.667 32,-149.333 31.3333,-148.667 26.6667,-152 22.6667,-156 20,-158.667 15.3333,-162 10.6667,-162.667 5.33333,-165.333 3.33333,-168.667 0,-173.333 -0.666667,-175.333 -4,-180 -11.3333,-188.667 -14,-191.333 -16,-192 -20,-193.333 -21.3333,-192 -16,-178.667 -20,-180 -24,-184 -22.6667,-188 -19.3333,-180.667 -18,-179.333 -18.6667,-178.667 -22,-178 -26,-179.333 -28,-180 -32,-181.333 -31.3333,-182 -32.6667,-186 -34,-192.667 -34,-198 -33.3333,-198.667 -34,-203.333 -32,-205.333 -28.6667,-206 -28,-209.333 -28.6667,-211.333 -30.6667,-220 -30.6667,-222.667 -32,-226.667 -32,-229.333 -29.3333,-232 -44,-252 -45.3333,-253.333 -49.3333,-249.333 -49.3333,-246.667 -50.6667,-240 -55.3333,-240.667 -58.6667,-237.333 -60,-236 -58,-230 -57.3333,-225.333 -54.6667,-220 -61.3333,-224 -62.6667,-225.333 -63.3333,-224.667 -66.6667,-226.667 -68.6667,-227.333 -69.3333,-226.667 -70,-226 -71.3333,-224.667 -70.6667,-220 -68,-214.667 -68.6667,-214 -67.3333,-210 -64.6667,-204.667 -62.6667,-201.333 -61.3333,-200 -60,-198.667 -59.3333,-196.667 -54.6667,-190.667 -53.3333,-189.333 -50.6667,-186.667 -48,-184 -46.6667,-182.667 -44,-180 -45.3333,-178.667 -44,-174.667 -42,-171.333 -48.6667,-172.667 -52.6667,-174 -50,-171.333 -55.3333,-174 -56,-173.333 -56.6667,-172.667 -51.3333,-167.333 -50,-166 -48,-162.667 -49.3333,-161.333 -48.6667,-156.667 -46,-151.333 -43.3333,-148.667 -43.3333,-146 -42.6667,-141.333 -48,-146.667 -46.6667,-148 -50.6667,-154.667 -55.3333,-160.667 -57.3333,-164 -61.3333,-176 -62.6667,-180 -63.3333,-182 -66,-187.333 -70,-194 -72.6667,-199.333 -81.3333,-209.333 -94.6667,-220 -94.6667,-214.667 -91.3333,-207.333 -86.6667,-201.333 -85.3333,-197.333 -85.3333,-194.667 -81.3333,-188 -86.6667,-193.333 -90.6667,-200 -93.3333,-205.333 -97.3333,-212 -98.6667,-213.333 -108.667,-224.667 -118.667,-236 -126,-242 -132,-244 -133.333,-242.667 -138,-240.667 -142,-242 -142.667,-233.333 -137.333,-225.333 -135.333,-222 -126.667,-212 -122.667,-208 -120,-205.333 -117.333,-202.667 -116,-201.333 -112,-197.333 -107.333,-194 -104.667,-191.333 -102,-191.333 -97.3333,-185.333 -95.3333,-179.333 -95.3333,-176.667 -96.6667,-175.333 -100,-174.667 -106,-176.667 -108.667,-176.667 -109.333,-176 -109.333,-173.333 -106.667,-170.667 -103.333,-168.667 -94,-164.667 -92,-164 -80.6667,-156.667 -74,-152.667 -60.6667,-139.333 -65.3333,-142.667 -56,-136 -56.6667,-135.333 -55.3333,-134 -52.6667,-131.333 -58.6667,-125.333 -60.6667,-126 -59.3333,-135.333 -64.6667,-140.667 -69.3333,-144 -76,-148 -88,-154.667 -92.6667,-152.667 -95.3333,-150 -90.6667,-138.667 -86.6667,-132 -82.6667,-125.333 -75.3333,-119.333 -68.6667,-112.667 -70,-111.333 -70.6667,-110.667 -74.6667,-112 -85.3333,-122.667 -86.6667,-124 -98.6667,-130.667 -103.333,-134 -110,-138 -114,-139.333 -116.667,-136.667 -119.333,-136.667 -120.667,-135.333 -122.667,-133.333 -126,-130 -126.667,-126.667 -126,-124.667 -122.667,-120 -115.333,-111.333 -104,-104 -87.3333,-99.3333 -86,-98 -83.3333,-98 -74.6667,-96 -72,-96 -70.6667,-94.6667 -70,-95.3333 -61.3333,-90.6667 -50.6667,-82.6667 -46,-79.3333 -42.6667,-77.3333 -38.6667,-76 -53.3333,-82.6667 -54,-82 -56.6667,-79.3333 -55.3333,-78 -52.6667,-75.3333 -49.3333,-70.6667 -48.6667,-68.6667 -44,-62.6667 -42.6667,-56 -43.3333,-55.3333 -50.6667,-58.6667 -52,-60 -54.6667,-62.6667 -61.3333,-69.3333 -64,-72 -69.3333,-77.3333 -76,-84 -78.6667,-86.6667 -80,-88 -87.3333,-91.3333 -88.6667,-92.6667 -90.6667,-90.6667 -91.3333,-90 -97.3333,-92 -98,-91.3333 -97.3333,-89.3333 -93.3333,-85.3333 -90.6667,-82.6667 -82,-70 -74.6667,-64 -69.3333,-61.3333 -68,-54.6667 -69.3333,-53.3333 -74.6667,-53.3333 -78.6667,-52 -82.6667,-53.3333 -84,-52 -86.6667,-52 -88.6667,-52.6667 -91.3333,-47.3333 -92.6667,-48.6667 -106.667,-56 -112,-58.6667 -106.667,-53.3333 -101.333,-48 -99.3333,-44.6667 -96,-42.6667 -92,-41.3333 -90.6667,-40 -88,-37.3333 -82.6667,-32 -80.6667,-28.6667 -69.3333,-21.3333 -63.3333,-22 -60.6667,-27.3333 -59.3333,-34 -55.3333,-38 -50,-32.6667 -47.3333,-32.6667 -45.3333,-32 -42,-32.6667 -34.6667,-29.3333 -33.3333,-30.6667 -32.6667,-31.3333 -29.3333,-32 -26.6667,-32 -17.3333,-22.6667 -13.3333,-21.3333 -8.66667,-18 -9.33333,-20 -1.33333,-17.3333 5.33333,-13.3333 9.33333,-12 15.3333,-7.33333 22,-0.666667 22.6667,4 18,0.666667 14,-0.666667 7.33333,-4.66667"/>
  </object>
  <object id="543" x="5989.33" y="5869.33">
   <properties>
    <property name="collision" type="bool" value="true"/>
   </properties>
   <polygon points="0,0 14.6667,14.6667 20,17.3333 22,18 24,18.6667 26,19.3333 27.3333,20.6667 29.3333,18.6667 30,18 30.6667,17.3333 30,15.3333 30.6667,14.6667 30,12.6667 30.6667,12 31.3333,11.3333 36,12 36.6667,11.3333 40,13.3333 43.3333,12.6667 47.3333,14 48.6667,12.6667 50.6667,10.6667 59.3333,15.3333 62,18 63.3333,19.3333 74.6667,26.6667 76,25.3333 74.6667,21.3333 74,16.6667 71.3333,11.3333 66,3.33333 63.3333,0.666667 65.3333,-1.33333 72.6667,2 73.3333,1.33333 74.6667,2.66667 79.3333,6 80.6667,7.33333 82.6667,8 83.3333,7.33333 86.6667,9.33333 90.6667,10.6667 92.6667,11.3333 97.3333,14.6667 98.6667,16 100.667,14 101.333,13.3333 99.3333,10 95.3333,6 94,4.66667 94,2 98,-2 95.3333,-7.33333 94,-8.66667 94,-11.3333 96,-13.3333 97.3333,-14.6667 98.6667,-13.3333 102,-14 102.667,-14.6667 102,-16.6667 102.667,-20 103.333,-20.6667 106.667,-18.6667 116.667,-15.3333 120.667,-14 127.333,-12.6667 132.667,-12.6667 130.667,-18.6667 129.333,-22.6667 123.333,-30 120.667,-32.6667 115.333,-35.3333 113.333,-36 109.333,-40 104,-48 105.333,-49.3333 107.333,-51.3333 103.333,-55.3333 102,-54 101.333,-53.3333 100,-54.6667 93.3333,-61.3333 95.3333,-63.3333 96.6667,-64.6667 96,-66.6667 94,-70 94.6667,-70.6667 98,-71.3333 100.667,-71.3333 106,-66 110,-64.6667 112.667,-64.6667 118,-64.6667 116.667,-71.3333 114,-74 112.667,-75.3333 107.333,-80.6667 104.667,-83.3333 103.333,-87.3333 100.667,-92.6667 98.6667,-96 98.6667,-93.3333 96,-90.6667 94,-88.6667 92.6667,-90 90,-92.6667 89.3333,-94.6667 88.6667,-96.6667 88.6667,-99.3333 87.3333,-100.667 82,-106 80,-106.667 76,-108 72.6667,-110 68.6667,-114 66.6667,-117.333 65.3333,-121.333 66,-122 67.3333,-120.667 74.6667,-114.667 76.6667,-114 80.6667,-110 85.3333,-106.667 88,-106.667 90,-106 91.3333,-104.667 94,-104.667 94.6667,-108 93.3333,-112 94,-115.333 93.3333,-122.667 91.3333,-128.667 87.3333,-132.667 86.6667,-134.667 86,-136.667 83.3333,-144.667 82,-148.667 79.3333,-154 80,-154.667 78,-155.333 74,-156.667 72,-157.333 69.3333,-157.333 65.3333,-161.333 62.6667,-161.333 62,-160.667 61.3333,-160 62,-158 61.3333,-157.333 64,-154.667 68.6667,-151.333 71.3333,-148.667 70.6667,-148 69.3333,-146.667 66.6667,-149.333 62.6667,-150.667 62,-150 60.6667,-151.333 58,-156.667 55.3333,-159.333 52.6667,-164.667 50.6667,-170.667 48,-176 44,-182.667 40,-189.333 37.3333,-192 33.3333,-196 32.6667,-195.333 28.6667,-199.333 23.3333,-204.667 16.6667,-211.333 14,-214 12.6667,-215.333 3.33333,-222 -2,-224.667 -6,-226 -7.33333,-227.333 -11.3333,-228.667 -12.6667,-227.333 -16.6667,-228.667 -17.3333,-228 -18,-227.333 -14.6667,-217.333 -14,-215.333 -8.66667,-210 -6,-207.333 0.666667,-203.333 3.33333,-200.667 4.66667,-199.333 7.33333,-196.667 8,-194.667 6,-192.667 6,-190 6,-187.333 4,-188 0.666667,-190 -5.33333,-194.667 -5.33333,-189.333 -2.66667,-186.667 -0.666667,-188.667 2.66667,-186.667 4,-185.333 5.33333,-184 6,-179.333 7.33333,-178 14,-171.333 16.6667,-168.667 24,-162.667 27.3333,-160.667 28,-161.333 32.6667,-158 32,-157.333 31.3333,-154 30,-152.667 32,-149.333 31.3333,-148.667 26.6667,-152 22.6667,-156 20,-158.667 15.3333,-162 10.6667,-162.667 5.33333,-165.333 3.33333,-168.667 0,-173.333 -0.666667,-175.333 -4,-180 -11.3333,-188.667 -14,-191.333 -16,-192 -20,-193.333 -21.3333,-192 -16,-178.667 -20,-180 -24,-184 -22.6667,-188 -19.3333,-180.667 -18,-179.333 -18.6667,-178.667 -22,-178 -26,-179.333 -28,-180 -32,-181.333 -31.3333,-182 -32.6667,-186 -34,-192.667 -34,-198 -33.3333,-198.667 -34,-203.333 -32,-205.333 -28.6667,-206 -28,-209.333 -28.6667,-211.333 -30.6667,-220 -30.6667,-222.667 -32,-226.667 -32,-229.333 -29.3333,-232 -44,-252 -45.3333,-253.333 -49.3333,-249.333 -49.3333,-246.667 -50.6667,-240 -55.3333,-240.667 -58.6667,-237.333 -60,-236 -58,-230 -57.3333,-225.333 -54.6667,-220 -61.3333,-224 -62.6667,-225.333 -63.3333,-224.667 -66.6667,-226.667 -68.6667,-227.333 -69.3333,-226.667 -70,-226 -71.3333,-224.667 -70.6667,-220 -68,-214.667 -68.6667,-214 -67.3333,-210 -64.6667,-204.667 -62.6667,-201.333 -61.3333,-200 -60,-198.667 -59.3333,-196.667 -54.6667,-190.667 -53.3333,-189.333 -50.6667,-186.667 -48,-184 -46.6667,-182.667 -44,-180 -45.3333,-178.667 -44,-174.667 -42,-171.333 -48.6667,-172.667 -52.6667,-174 -50,-171.333 -55.3333,-174 -56,-173.333 -56.6667,-172.667 -51.3333,-167.333 -50,-166 -48,-162.667 -49.3333,-161.333 -48.6667,-156.667 -46,-151.333 -43.3333,-148.667 -43.3333,-146 -42.6667,-141.333 -48,-146.667 -46.6667,-148 -50.6667,-154.667 -55.3333,-160.667 -57.3333,-164 -61.3333,-176 -62.6667,-180 -63.3333,-182 -66,-187.333 -70,-194 -72.6667,-199.333 -81.3333,-209.333 -94.6667,-220 -94.6667,-214.667 -91.3333,-207.333 -86.6667,-201.333 -85.3333,-197.333 -85.3333,-194.667 -81.3333,-188 -86.6667,-193.333 -90.6667,-200 -93.3333,-205.333 -97.3333,-212 -98.6667,-213.333 -108.667,-224.667 -118.667,-236 -126,-242 -132,-244 -133.333,-242.667 -138,-240.667 -142,-242 -142.667,-233.333 -137.333,-225.333 -135.333,-222 -126.667,-212 -122.667,-208 -120,-205.333 -117.333,-202.667 -116,-201.333 -112,-197.333 -107.333,-194 -104.667,-191.333 -102,-191.333 -97.3333,-185.333 -95.3333,-179.333 -95.3333,-176.667 -96.6667,-175.333 -100,-174.667 -106,-176.667 -108.667,-176.667 -109.333,-176 -109.333,-173.333 -106.667,-170.667 -103.333,-168.667 -94,-164.667 -92,-164 -80.6667,-156.667 -74,-152.667 -60.6667,-139.333 -65.3333,-142.667 -56,-136 -56.6667,-135.333 -55.3333,-134 -52.6667,-131.333 -58.6667,-125.333 -60.6667,-126 -59.3333,-135.333 -64.6667,-140.667 -69.3333,-144 -76,-148 -88,-154.667 -92.6667,-152.667 -95.3333,-150 -90.6667,-138.667 -86.6667,-132 -82.6667,-125.333 -75.3333,-119.333 -68.6667,-112.667 -70,-111.333 -70.6667,-110.667 -74.6667,-112 -85.3333,-122.667 -86.6667,-124 -98.6667,-130.667 -103.333,-134 -110,-138 -114,-139.333 -116.667,-136.667 -119.333,-136.667 -120.667,-135.333 -122.667,-133.333 -126,-130 -126.667,-126.667 -126,-124.667 -122.667,-120 -115.333,-111.333 -104,-104 -87.3333,-99.3333 -86,-98 -83.3333,-98 -74.6667,-96 -72,-96 -70.6667,-94.6667 -70,-95.3333 -61.3333,-90.6667 -50.6667,-82.6667 -46,-79.3333 -42.6667,-77.3333 -38.6667,-76 -53.3333,-82.6667 -54,-82 -56.6667,-79.3333 -55.3333,-78 -52.6667,-75.3333 -49.3333,-70.6667 -48.6667,-68.6667 -44,-62.6667 -42.6667,-56 -43.3333,-55.3333 -50.6667,-58.6667 -52,-60 -54.6667,-62.6667 -61.3333,-69.3333 -64,-72 -69.3333,-77.3333 -76,-84 -78.6667,-86.6667 -80,-88 -87.3333,-91.3333 -88.6667,-92.6667 -90.6667,-90.6667 -91.3333,-90 -97.3333,-92 -98,-91.3333 -97.3333,-89.3333 -93.3333,-85.3333 -90.6667,-82.6667 -82,-70 -74.6667,-64 -69.3333,-61.3333 -68,-54.6667 -69.3333,-53.3333 -74.6667,-53.3333 -78.6667,-52 -82.6667,-53.3333 -84,-52 -86.6667,-52 -88.6667,-52.6667 -91.3333,-47.3333 -92.6667,-48.6667 -106.667,-56 -112,-58.6667 -106.667,-53.3333 -101.333,-48 -99.3333,-44.6667 -96,-42.6667 -92,-41.3333 -90.6667,-40 -88,-37.3333 -82.6667,-32 -80.6667,-28.6667 -69.3333,-21.3333 -63.3333,-22 -60.6667,-27.3333 -59.3333,-34 -55.3333,-38 -50,-32.6667 -47.3333,-32.6667 -45.3333,-32 -42,-32.6667 -34.6667,-29.3333 -33.3333,-30.6667 -32.6667,-31.3333 -29.3333,-32 -26.6667,-32 -17.3333,-22.6667 -13.3333,-21.3333 -8.66667,-18 -9.33333,-20 -1.33333,-17.3333 5.33333,-13.3333 9.33333,-12 15.3333,-7.33333 22,-0.666667 22.6667,4 18,0.666667 14,-0.666667 7.33333,-4.66667"/>
  </object>
  <object id="523" x="2145.33" y="4713.33">
   <properties>
    <property name="collision" type="bool" value="true"/>
   </properties>
   <polygon points="0,0 14.6667,14.6667 20,17.3333 22,18 24,18.6667 26,19.3333 27.3333,20.6667 29.3333,18.6667 30,18 30.6667,17.3333 30,15.3333 30.6667,14.6667 30,12.6667 30.6667,12 31.3333,11.3333 36,12 36.6667,11.3333 40,13.3333 43.3333,12.6667 47.3333,14 48.6667,12.6667 50.6667,10.6667 59.3333,15.3333 62,18 63.3333,19.3333 74.6667,26.6667 76,25.3333 74.6667,21.3333 74,16.6667 71.3333,11.3333 66,3.33333 63.3333,0.666667 65.3333,-1.33333 72.6667,2 73.3333,1.33333 74.6667,2.66667 79.3333,6 80.6667,7.33333 82.6667,8 83.3333,7.33333 86.6667,9.33333 90.6667,10.6667 92.6667,11.3333 97.3333,14.6667 98.6667,16 100.667,14 101.333,13.3333 99.3333,10 95.3333,6 94,4.66667 94,2 98,-2 95.3333,-7.33333 94,-8.66667 94,-11.3333 96,-13.3333 97.3333,-14.6667 98.6667,-13.3333 102,-14 102.667,-14.6667 102,-16.6667 102.667,-20 103.333,-20.6667 106.667,-18.6667 116.667,-15.3333 120.667,-14 127.333,-12.6667 132.667,-12.6667 130.667,-18.6667 129.333,-22.6667 123.333,-30 120.667,-32.6667 115.333,-35.3333 113.333,-36 109.333,-40 104,-48 105.333,-49.3333 107.333,-51.3333 103.333,-55.3333 102,-54 101.333,-53.3333 100,-54.6667 93.3333,-61.3333 95.3333,-63.3333 96.6667,-64.6667 96,-66.6667 94,-70 94.6667,-70.6667 98,-71.3333 100.667,-71.3333 106,-66 110,-64.6667 112.667,-64.6667 118,-64.6667 116.667,-71.3333 114,-74 112.667,-75.3333 107.333,-80.6667 104.667,-83.3333 103.333,-87.3333 100.667,-92.6667 98.6667,-96 98.6667,-93.3333 96,-90.6667 94,-88.6667 92.6667,-90 90,-92.6667 89.3333,-94.6667 88.6667,-96.6667 88.6667,-99.3333 87.3333,-100.667 82,-106 80,-106.667 76,-108 72.6667,-110 68.6667,-114 66.6667,-117.333 65.3333,-121.333 66,-122 67.3333,-120.667 74.6667,-114.667 76.6667,-114 80.6667,-110 85.3333,-106.667 88,-106.667 90,-106 91.3333,-104.667 94,-104.667 94.6667,-108 93.3333,-112 94,-115.333 93.3333,-122.667 91.3333,-128.667 87.3333,-132.667 86.6667,-134.667 86,-136.667 83.3333,-144.667 82,-148.667 79.3333,-154 80,-154.667 78,-155.333 74,-156.667 72,-157.333 69.3333,-157.333 65.3333,-161.333 62.6667,-161.333 62,-160.667 61.3333,-160 62,-158 61.3333,-157.333 64,-154.667 68.6667,-151.333 71.3333,-148.667 70.6667,-148 69.3333,-146.667 66.6667,-149.333 62.6667,-150.667 62,-150 60.6667,-151.333 58,-156.667 55.3333,-159.333 52.6667,-164.667 50.6667,-170.667 48,-176 44,-182.667 40,-189.333 37.3333,-192 33.3333,-196 32.6667,-195.333 28.6667,-199.333 23.3333,-204.667 16.6667,-211.333 14,-214 12.6667,-215.333 3.33333,-222 -2,-224.667 -6,-226 -7.33333,-227.333 -11.3333,-228.667 -12.6667,-227.333 -16.6667,-228.667 -17.3333,-228 -18,-227.333 -14.6667,-217.333 -14,-215.333 -8.66667,-210 -6,-207.333 0.666667,-203.333 3.33333,-200.667 4.66667,-199.333 7.33333,-196.667 8,-194.667 6,-192.667 6,-190 6,-187.333 4,-188 0.666667,-190 -5.33333,-194.667 -5.33333,-189.333 -2.66667,-186.667 -0.666667,-188.667 2.66667,-186.667 4,-185.333 5.33333,-184 6,-179.333 7.33333,-178 14,-171.333 16.6667,-168.667 24,-162.667 27.3333,-160.667 28,-161.333 32.6667,-158 32,-157.333 31.3333,-154 30,-152.667 32,-149.333 31.3333,-148.667 26.6667,-152 22.6667,-156 20,-158.667 15.3333,-162 10.6667,-162.667 5.33333,-165.333 3.33333,-168.667 0,-173.333 -0.666667,-175.333 -4,-180 -11.3333,-188.667 -14,-191.333 -16,-192 -20,-193.333 -21.3333,-192 -16,-178.667 -20,-180 -24,-184 -22.6667,-188 -19.3333,-180.667 -18,-179.333 -18.6667,-178.667 -22,-178 -26,-179.333 -28,-180 -32,-181.333 -31.3333,-182 -32.6667,-186 -34,-192.667 -34,-198 -33.3333,-198.667 -34,-203.333 -32,-205.333 -28.6667,-206 -28,-209.333 -28.6667,-211.333 -30.6667,-220 -30.6667,-222.667 -32,-226.667 -32,-229.333 -29.3333,-232 -44,-252 -45.3333,-253.333 -49.3333,-249.333 -49.3333,-246.667 -50.6667,-240 -55.3333,-240.667 -58.6667,-237.333 -60,-236 -58,-230 -57.3333,-225.333 -54.6667,-220 -61.3333,-224 -62.6667,-225.333 -63.3333,-224.667 -66.6667,-226.667 -68.6667,-227.333 -69.3333,-226.667 -70,-226 -71.3333,-224.667 -70.6667,-220 -68,-214.667 -68.6667,-214 -67.3333,-210 -64.6667,-204.667 -62.6667,-201.333 -61.3333,-200 -60,-198.667 -59.3333,-196.667 -54.6667,-190.667 -53.3333,-189.333 -50.6667,-186.667 -48,-184 -46.6667,-182.667 -44,-180 -45.3333,-178.667 -44,-174.667 -42,-171.333 -48.6667,-172.667 -52.6667,-174 -50,-171.333 -55.3333,-174 -56,-173.333 -56.6667,-172.667 -51.3333,-167.333 -50,-166 -48,-162.667 -49.3333,-161.333 -48.6667,-156.667 -46,-151.333 -43.3333,-148.667 -43.3333,-146 -42.6667,-141.333 -48,-146.667 -46.6667,-148 -50.6667,-154.667 -55.3333,-160.667 -57.3333,-164 -61.3333,-176 -62.6667,-180 -63.3333,-182 -66,-187.333 -70,-194 -72.6667,-199.333 -81.3333,-209.333 -94.6667,-220 -94.6667,-214.667 -91.3333,-207.333 -86.6667,-201.333 -85.3333,-197.333 -85.3333,-194.667 -81.3333,-188 -86.6667,-193.333 -90.6667,-200 -93.3333,-205.333 -97.3333,-212 -98.6667,-213.333 -108.667,-224.667 -118.667,-236 -126,-242 -132,-244 -133.333,-242.667 -138,-240.667 -142,-242 -142.667,-233.333 -137.333,-225.333 -135.333,-222 -126.667,-212 -122.667,-208 -120,-205.333 -117.333,-202.667 -116,-201.333 -112,-197.333 -107.333,-194 -104.667,-191.333 -102,-191.333 -97.3333,-185.333 -95.3333,-179.333 -95.3333,-176.667 -96.6667,-175.333 -100,-174.667 -106,-176.667 -108.667,-176.667 -109.333,-176 -109.333,-173.333 -106.667,-170.667 -103.333,-168.667 -94,-164.667 -92,-164 -80.6667,-156.667 -74,-152.667 -60.6667,-139.333 -65.3333,-142.667 -56,-136 -56.6667,-135.333 -55.3333,-134 -52.6667,-131.333 -58.6667,-125.333 -60.6667,-126 -59.3333,-135.333 -64.6667,-140.667 -69.3333,-144 -76,-148 -88,-154.667 -92.6667,-152.667 -95.3333,-150 -90.6667,-138.667 -86.6667,-132 -82.6667,-125.333 -75.3333,-119.333 -68.6667,-112.667 -70,-111.333 -70.6667,-110.667 -74.6667,-112 -85.3333,-122.667 -86.6667,-124 -98.6667,-130.667 -103.333,-134 -110,-138 -114,-139.333 -116.667,-136.667 -119.333,-136.667 -120.667,-135.333 -122.667,-133.333 -126,-130 -126.667,-126.667 -126,-124.667 -122.667,-120 -115.333,-111.333 -104,-104 -87.3333,-99.3333 -86,-98 -83.3333,-98 -74.6667,-96 -72,-96 -70.6667,-94.6667 -70,-95.3333 -61.3333,-90.6667 -50.6667,-82.6667 -46,-79.3333 -42.6667,-77.3333 -38.6667,-76 -53.3333,-82.6667 -54,-82 -56.6667,-79.3333 -55.3333,-78 -52.6667,-75.3333 -49.3333,-70.6667 -48.6667,-68.6667 -44,-62.6667 -42.6667,-56 -43.3333,-55.3333 -50.6667,-58.6667 -52,-60 -54.6667,-62.6667 -61.3333,-69.3333 -64,-72 -69.3333,-77.3333 -76,-84 -78.6667,-86.6667 -80,-88 -87.3333,-91.3333 -88.6667,-92.6667 -90.6667,-90.6667 -91.3333,-90 -97.3333,-92 -98,-91.3333 -97.3333,-89.3333 -93.3333,-85.3333 -90.6667,-82.6667 -82,-70 -74.6667,-64 -69.3333,-61.3333 -68,-54.6667 -69.3333,-53.3333 -74.6667,-53.3333 -78.6667,-52 -82.6667,-53.3333 -84,-52 -86.6667,-52 -88.6667,-52.6667 -91.3333,-47.3333 -92.6667,-48.6667 -106.667,-56 -112,-58.6667 -106.667,-53.3333 -101.333,-48 -99.3333,-44.6667 -96,-42.6667 -92,-41.3333 -90.6667,-40 -88,-37.3333 -82.6667,-32 -80.6667,-28.6667 -69.3333,-21.3333 -63.3333,-22 -60.6667,-27.3333 -59.3333,-34 -55.3333,-38 -50,-32.6667 -47.3333,-32.6667 -45.3333,-32 -42,-32.6667 -34.6667,-29.3333 -33.3333,-30.6667 -32.6667,-31.3333 -29.3333,-32 -26.6667,-32 -17.3333,-22.6667 -13.3333,-21.3333 -8.66667,-18 -9.33333,-20 -1.33333,-17.3333 5.33333,-13.3333 9.33333,-12 15.3333,-7.33333 22,-0.666667 22.6667,4 18,0.666667 14,-0.666667 7.33333,-4.66667"/>
  </object>
  <object id="524" x="3777" y="2707">
   <properties>
    <property name="collision" type="bool" value="true"/>
   </properties>
   <polygon points="0,0 14.6667,14.6667 20,17.3333 22,18 24,18.6667 26,19.3333 27.3333,20.6667 29.3333,18.6667 30,18 30.6667,17.3333 30,15.3333 30.6667,14.6667 30,12.6667 30.6667,12 31.3333,11.3333 36,12 36.6667,11.3333 40,13.3333 43.3333,12.6667 47.3333,14 48.6667,12.6667 50.6667,10.6667 59.3333,15.3333 62,18 63.3333,19.3333 74.6667,26.6667 76,25.3333 74.6667,21.3333 74,16.6667 71.3333,11.3333 66,3.33333 63.3333,0.666667 65.3333,-1.33333 72.6667,2 73.3333,1.33333 74.6667,2.66667 79.3333,6 80.6667,7.33333 82.6667,8 83.3333,7.33333 86.6667,9.33333 90.6667,10.6667 92.6667,11.3333 97.3333,14.6667 98.6667,16 100.667,14 101.333,13.3333 99.3333,10 95.3333,6 94,4.66667 94,2 98,-2 95.3333,-7.33333 94,-8.66667 94,-11.3333 96,-13.3333 97.3333,-14.6667 98.6667,-13.3333 102,-14 102.667,-14.6667 102,-16.6667 102.667,-20 103.333,-20.6667 106.667,-18.6667 116.667,-15.3333 120.667,-14 127.333,-12.6667 132.667,-12.6667 130.667,-18.6667 129.333,-22.6667 123.333,-30 120.667,-32.6667 115.333,-35.3333 113.333,-36 109.333,-40 104,-48 105.333,-49.3333 107.333,-51.3333 103.333,-55.3333 102,-54 101.333,-53.3333 100,-54.6667 93.3333,-61.3333 95.3333,-63.3333 96.6667,-64.6667 96,-66.6667 94,-70 94.6667,-70.6667 98,-71.3333 100.667,-71.3333 106,-66 110,-64.6667 112.667,-64.6667 118,-64.6667 116.667,-71.3333 114,-74 112.667,-75.3333 107.333,-80.6667 104.667,-83.3333 103.333,-87.3333 100.667,-92.6667 98.6667,-96 98.6667,-93.3333 96,-90.6667 94,-88.6667 92.6667,-90 90,-92.6667 89.3333,-94.6667 88.6667,-96.6667 88.6667,-99.3333 87.3333,-100.667 82,-106 80,-106.667 76,-108 72.6667,-110 68.6667,-114 66.6667,-117.333 65.3333,-121.333 66,-122 67.3333,-120.667 74.6667,-114.667 76.6667,-114 80.6667,-110 85.3333,-106.667 88,-106.667 90,-106 91.3333,-104.667 94,-104.667 94.6667,-108 93.3333,-112 94,-115.333 93.3333,-122.667 91.3333,-128.667 87.3333,-132.667 86.6667,-134.667 86,-136.667 83.3333,-144.667 82,-148.667 79.3333,-154 80,-154.667 78,-155.333 74,-156.667 72,-157.333 69.3333,-157.333 65.3333,-161.333 62.6667,-161.333 62,-160.667 61.3333,-160 62,-158 61.3333,-157.333 64,-154.667 68.6667,-151.333 71.3333,-148.667 70.6667,-148 69.3333,-146.667 66.6667,-149.333 62.6667,-150.667 62,-150 60.6667,-151.333 58,-156.667 55.3333,-159.333 52.6667,-164.667 50.6667,-170.667 48,-176 44,-182.667 40,-189.333 37.3333,-192 33.3333,-196 32.6667,-195.333 28.6667,-199.333 23.3333,-204.667 16.6667,-211.333 14,-214 12.6667,-215.333 3.33333,-222 -2,-224.667 -6,-226 -7.33333,-227.333 -11.3333,-228.667 -12.6667,-227.333 -16.6667,-228.667 -17.3333,-228 -18,-227.333 -14.6667,-217.333 -14,-215.333 -8.66667,-210 -6,-207.333 0.666667,-203.333 3.33333,-200.667 4.66667,-199.333 7.33333,-196.667 8,-194.667 6,-192.667 6,-190 6,-187.333 4,-188 0.666667,-190 -5.33333,-194.667 -5.33333,-189.333 -2.66667,-186.667 -0.666667,-188.667 2.66667,-186.667 4,-185.333 5.33333,-184 6,-179.333 7.33333,-178 14,-171.333 16.6667,-168.667 24,-162.667 27.3333,-160.667 28,-161.333 32.6667,-158 32,-157.333 31.3333,-154 30,-152.667 32,-149.333 31.3333,-148.667 26.6667,-152 22.6667,-156 20,-158.667 15.3333,-162 10.6667,-162.667 5.33333,-165.333 3.33333,-168.667 0,-173.333 -0.666667,-175.333 -4,-180 -11.3333,-188.667 -14,-191.333 -16,-192 -20,-193.333 -21.3333,-192 -16,-178.667 -20,-180 -24,-184 -22.6667,-188 -19.3333,-180.667 -18,-179.333 -18.6667,-178.667 -22,-178 -26,-179.333 -28,-180 -32,-181.333 -31.3333,-182 -32.6667,-186 -34,-192.667 -34,-198 -33.3333,-198.667 -34,-203.333 -32,-205.333 -28.6667,-206 -28,-209.333 -28.6667,-211.333 -30.6667,-220 -30.6667,-222.667 -32,-226.667 -32,-229.333 -29.3333,-232 -44,-252 -45.3333,-253.333 -49.3333,-249.333 -49.3333,-246.667 -50.6667,-240 -55.3333,-240.667 -58.6667,-237.333 -60,-236 -58,-230 -57.3333,-225.333 -54.6667,-220 -61.3333,-224 -62.6667,-225.333 -63.3333,-224.667 -66.6667,-226.667 -68.6667,-227.333 -69.3333,-226.667 -70,-226 -71.3333,-224.667 -70.6667,-220 -68,-214.667 -68.6667,-214 -67.3333,-210 -64.6667,-204.667 -62.6667,-201.333 -61.3333,-200 -60,-198.667 -59.3333,-196.667 -54.6667,-190.667 -53.3333,-189.333 -50.6667,-186.667 -48,-184 -46.6667,-182.667 -44,-180 -45.3333,-178.667 -44,-174.667 -42,-171.333 -48.6667,-172.667 -52.6667,-174 -50,-171.333 -55.3333,-174 -56,-173.333 -56.6667,-172.667 -51.3333,-167.333 -50,-166 -48,-162.667 -49.3333,-161.333 -48.6667,-156.667 -46,-151.333 -43.3333,-148.667 -43.3333,-146 -42.6667,-141.333 -48,-146.667 -46.6667,-148 -50.6667,-154.667 -55.3333,-160.667 -57.3333,-164 -61.3333,-176 -62.6667,-180 -63.3333,-182 -66,-187.333 -70,-194 -72.6667,-199.333 -81.3333,-209.333 -94.6667,-220 -94.6667,-214.667 -91.3333,-207.333 -86.6667,-201.333 -85.3333,-197.333 -85.3333,-194.667 -81.3333,-188 -86.6667,-193.333 -90.6667,-200 -93.3333,-205.333 -97.3333,-212 -98.6667,-213.333 -108.667,-224.667 -118.667,-236 -126,-242 -132,-244 -133.333,-242.667 -138,-240.667 -142,-242 -142.667,-233.333 -137.333,-225.333 -135.333,-222 -126.667,-212 -122.667,-208 -120,-205.333 -117.333,-202.667 -116,-201.333 -112,-197.333 -107.333,-194 -104.667,-191.333 -102,-191.333 -97.3333,-185.333 -95.3333,-179.333 -95.3333,-176.667 -96.6667,-175.333 -100,-174.667 -106,-176.667 -108.667,-176.667 -109.333,-176 -109.333,-173.333 -106.667,-170.667 -103.333,-168.667 -94,-164.667 -92,-164 -80.6667,-156.667 -74,-152.667 -60.6667,-139.333 -65.3333,-142.667 -56,-136 -56.6667,-135.333 -55.3333,-134 -52.6667,-131.333 -58.6667,-125.333 -60.6667,-126 -59.3333,-135.333 -64.6667,-140.667 -69.3333,-144 -76,-148 -88,-154.667 -92.6667,-152.667 -95.3333,-150 -90.6667,-138.667 -86.6667,-132 -82.6667,-125.333 -75.3333,-119.333 -68.6667,-112.667 -70,-111.333 -70.6667,-110.667 -74.6667,-112 -85.3333,-122.667 -86.6667,-124 -98.6667,-130.667 -103.333,-134 -110,-138 -114,-139.333 -116.667,-136.667 -119.333,-136.667 -120.667,-135.333 -122.667,-133.333 -126,-130 -126.667,-126.667 -126,-124.667 -122.667,-120 -115.333,-111.333 -104,-104 -87.3333,-99.3333 -86,-98 -83.3333,-98 -74.6667,-96 -72,-96 -70.6667,-94.6667 -70,-95.3333 -61.3333,-90.6667 -50.6667,-82.6667 -46,-79.3333 -42.6667,-77.3333 -38.6667,-76 -53.3333,-82.6667 -54,-82 -56.6667,-79.3333 -55.3333,-78 -52.6667,-75.3333 -49.3333,-70.6667 -48.6667,-68.6667 -44,-62.6667 -42.6667,-56 -43.3333,-55.3333 -50.6667,-58.6667 -52,-60 -54.6667,-62.6667 -61.3333,-69.3333 -64,-72 -69.3333,-77.3333 -76,-84 -78.6667,-86.6667 -80,-88 -87.3333,-91.3333 -88.6667,-92.6667 -90.6667,-90.6667 -91.3333,-90 -97.3333,-92 -98,-91.3333 -97.3333,-89.3333 -93.3333,-85.3333 -90.6667,-82.6667 -82,-70 -74.6667,-64 -69.3333,-61.3333 -68,-54.6667 -69.3333,-53.3333 -74.6667,-53.3333 -78.6667,-52 -82.6667,-53.3333 -84,-52 -86.6667,-52 -88.6667,-52.6667 -91.3333,-47.3333 -92.6667,-48.6667 -106.667,-56 -112,-58.6667 -106.667,-53.3333 -101.333,-48 -99.3333,-44.6667 -96,-42.6667 -92,-41.3333 -90.6667,-40 -88,-37.3333 -82.6667,-32 -80.6667,-28.6667 -69.3333,-21.3333 -63.3333,-22 -60.6667,-27.3333 -59.3333,-34 -55.3333,-38 -50,-32.6667 -47.3333,-32.6667 -45.3333,-32 -42,-32.6667 -34.6667,-29.3333 -33.3333,-30.6667 -32.6667,-31.3333 -29.3333,-32 -26.6667,-32 -17.3333,-22.6667 -13.3333,-21.3333 -8.66667,-18 -9.33333,-20 -1.33333,-17.3333 5.33333,-13.3333 9.33333,-12 15.3333,-7.33333 22,-0.666667 22.6667,4 18,0.666667 14,-0.666667 7.33333,-4.66667"/>
  </object>
  <object id="525" x="3941" y="1771">
   <properties>
    <property name="collision" type="bool" value="true"/>
   </properties>
   <polygon points="0,0 14.6667,14.6667 20,17.3333 22,18 24,18.6667 26,19.3333 27.3333,20.6667 29.3333,18.6667 30,18 30.6667,17.3333 30,15.3333 30.6667,14.6667 30,12.6667 30.6667,12 31.3333,11.3333 36,12 36.6667,11.3333 40,13.3333 43.3333,12.6667 47.3333,14 48.6667,12.6667 50.6667,10.6667 59.3333,15.3333 62,18 63.3333,19.3333 74.6667,26.6667 76,25.3333 74.6667,21.3333 74,16.6667 71.3333,11.3333 66,3.33333 63.3333,0.666667 65.3333,-1.33333 72.6667,2 73.3333,1.33333 74.6667,2.66667 79.3333,6 80.6667,7.33333 82.6667,8 83.3333,7.33333 86.6667,9.33333 90.6667,10.6667 92.6667,11.3333 97.3333,14.6667 98.6667,16 100.667,14 101.333,13.3333 99.3333,10 95.3333,6 94,4.66667 94,2 98,-2 95.3333,-7.33333 94,-8.66667 94,-11.3333 96,-13.3333 97.3333,-14.6667 98.6667,-13.3333 102,-14 102.667,-14.6667 102,-16.6667 102.667,-20 103.333,-20.6667 106.667,-18.6667 116.667,-15.3333 120.667,-14 127.333,-12.6667 132.667,-12.6667 130.667,-18.6667 129.333,-22.6667 123.333,-30 120.667,-32.6667 115.333,-35.3333 113.333,-36 109.333,-40 104,-48 105.333,-49.3333 107.333,-51.3333 103.333,-55.3333 102,-54 101.333,-53.3333 100,-54.6667 93.3333,-61.3333 95.3333,-63.3333 96.6667,-64.6667 96,-66.6667 94,-70 94.6667,-70.6667 98,-71.3333 100.667,-71.3333 106,-66 110,-64.6667 112.667,-64.6667 118,-64.6667 116.667,-71.3333 114,-74 112.667,-75.3333 107.333,-80.6667 104.667,-83.3333 103.333,-87.3333 100.667,-92.6667 98.6667,-96 98.6667,-93.3333 96,-90.6667 94,-88.6667 92.6667,-90 90,-92.6667 89.3333,-94.6667 88.6667,-96.6667 88.6667,-99.3333 87.3333,-100.667 82,-106 80,-106.667 76,-108 72.6667,-110 68.6667,-114 66.6667,-117.333 65.3333,-121.333 66,-122 67.3333,-120.667 74.6667,-114.667 76.6667,-114 80.6667,-110 85.3333,-106.667 88,-106.667 90,-106 91.3333,-104.667 94,-104.667 94.6667,-108 93.3333,-112 94,-115.333 93.3333,-122.667 91.3333,-128.667 87.3333,-132.667 86.6667,-134.667 86,-136.667 83.3333,-144.667 82,-148.667 79.3333,-154 80,-154.667 78,-155.333 74,-156.667 72,-157.333 69.3333,-157.333 65.3333,-161.333 62.6667,-161.333 62,-160.667 61.3333,-160 62,-158 61.3333,-157.333 64,-154.667 68.6667,-151.333 71.3333,-148.667 70.6667,-148 69.3333,-146.667 66.6667,-149.333 62.6667,-150.667 62,-150 60.6667,-151.333 58,-156.667 55.3333,-159.333 52.6667,-164.667 50.6667,-170.667 48,-176 44,-182.667 40,-189.333 37.3333,-192 33.3333,-196 32.6667,-195.333 28.6667,-199.333 23.3333,-204.667 16.6667,-211.333 14,-214 12.6667,-215.333 3.33333,-222 -2,-224.667 -6,-226 -7.33333,-227.333 -11.3333,-228.667 -12.6667,-227.333 -16.6667,-228.667 -17.3333,-228 -18,-227.333 -14.6667,-217.333 -14,-215.333 -8.66667,-210 -6,-207.333 0.666667,-203.333 3.33333,-200.667 4.66667,-199.333 7.33333,-196.667 8,-194.667 6,-192.667 6,-190 6,-187.333 4,-188 0.666667,-190 -5.33333,-194.667 -5.33333,-189.333 -2.66667,-186.667 -0.666667,-188.667 2.66667,-186.667 4,-185.333 5.33333,-184 6,-179.333 7.33333,-178 14,-171.333 16.6667,-168.667 24,-162.667 27.3333,-160.667 28,-161.333 32.6667,-158 32,-157.333 31.3333,-154 30,-152.667 32,-149.333 31.3333,-148.667 26.6667,-152 22.6667,-156 20,-158.667 15.3333,-162 10.6667,-162.667 5.33333,-165.333 3.33333,-168.667 0,-173.333 -0.666667,-175.333 -4,-180 -11.3333,-188.667 -14,-191.333 -16,-192 -20,-193.333 -21.3333,-192 -16,-178.667 -20,-180 -24,-184 -22.6667,-188 -19.3333,-180.667 -18,-179.333 -18.6667,-178.667 -22,-178 -26,-179.333 -28,-180 -32,-181.333 -31.3333,-182 -32.6667,-186 -34,-192.667 -34,-198 -33.3333,-198.667 -34,-203.333 -32,-205.333 -28.6667,-206 -28,-209.333 -28.6667,-211.333 -30.6667,-220 -30.6667,-222.667 -32,-226.667 -32,-229.333 -29.3333,-232 -44,-252 -45.3333,-253.333 -49.3333,-249.333 -49.3333,-246.667 -50.6667,-240 -55.3333,-240.667 -58.6667,-237.333 -60,-236 -58,-230 -57.3333,-225.333 -54.6667,-220 -61.3333,-224 -62.6667,-225.333 -63.3333,-224.667 -66.6667,-226.667 -68.6667,-227.333 -69.3333,-226.667 -70,-226 -71.3333,-224.667 -70.6667,-220 -68,-214.667 -68.6667,-214 -67.3333,-210 -64.6667,-204.667 -62.6667,-201.333 -61.3333,-200 -60,-198.667 -59.3333,-196.667 -54.6667,-190.667 -53.3333,-189.333 -50.6667,-186.667 -48,-184 -46.6667,-182.667 -44,-180 -45.3333,-178.667 -44,-174.667 -42,-171.333 -48.6667,-172.667 -52.6667,-174 -50,-171.333 -55.3333,-174 -56,-173.333 -56.6667,-172.667 -51.3333,-167.333 -50,-166 -48,-162.667 -49.3333,-161.333 -48.6667,-156.667 -46,-151.333 -43.3333,-148.667 -43.3333,-146 -42.6667,-141.333 -48,-146.667 -46.6667,-148 -50.6667,-154.667 -55.3333,-160.667 -57.3333,-164 -61.3333,-176 -62.6667,-180 -63.3333,-182 -66,-187.333 -70,-194 -72.6667,-199.333 -81.3333,-209.333 -94.6667,-220 -94.6667,-214.667 -91.3333,-207.333 -86.6667,-201.333 -85.3333,-197.333 -85.3333,-194.667 -81.3333,-188 -86.6667,-193.333 -90.6667,-200 -93.3333,-205.333 -97.3333,-212 -98.6667,-213.333 -108.667,-224.667 -118.667,-236 -126,-242 -132,-244 -133.333,-242.667 -138,-240.667 -142,-242 -142.667,-233.333 -137.333,-225.333 -135.333,-222 -126.667,-212 -122.667,-208 -120,-205.333 -117.333,-202.667 -116,-201.333 -112,-197.333 -107.333,-194 -104.667,-191.333 -102,-191.333 -97.3333,-185.333 -95.3333,-179.333 -95.3333,-176.667 -96.6667,-175.333 -100,-174.667 -106,-176.667 -108.667,-176.667 -109.333,-176 -109.333,-173.333 -106.667,-170.667 -103.333,-168.667 -94,-164.667 -92,-164 -80.6667,-156.667 -74,-152.667 -60.6667,-139.333 -65.3333,-142.667 -56,-136 -56.6667,-135.333 -55.3333,-134 -52.6667,-131.333 -58.6667,-125.333 -60.6667,-126 -59.3333,-135.333 -64.6667,-140.667 -69.3333,-144 -76,-148 -88,-154.667 -92.6667,-152.667 -95.3333,-150 -90.6667,-138.667 -86.6667,-132 -82.6667,-125.333 -75.3333,-119.333 -68.6667,-112.667 -70,-111.333 -70.6667,-110.667 -74.6667,-112 -85.3333,-122.667 -86.6667,-124 -98.6667,-130.667 -103.333,-134 -110,-138 -114,-139.333 -116.667,-136.667 -119.333,-136.667 -120.667,-135.333 -122.667,-133.333 -126,-130 -126.667,-126.667 -126,-124.667 -122.667,-120 -115.333,-111.333 -104,-104 -87.3333,-99.3333 -86,-98 -83.3333,-98 -74.6667,-96 -72,-96 -70.6667,-94.6667 -70,-95.3333 -61.3333,-90.6667 -50.6667,-82.6667 -46,-79.3333 -42.6667,-77.3333 -38.6667,-76 -53.3333,-82.6667 -54,-82 -56.6667,-79.3333 -55.3333,-78 -52.6667,-75.3333 -49.3333,-70.6667 -48.6667,-68.6667 -44,-62.6667 -42.6667,-56 -43.3333,-55.3333 -50.6667,-58.6667 -52,-60 -54.6667,-62.6667 -61.3333,-69.3333 -64,-72 -69.3333,-77.3333 -76,-84 -78.6667,-86.6667 -80,-88 -87.3333,-91.3333 -88.6667,-92.6667 -90.6667,-90.6667 -91.3333,-90 -97.3333,-92 -98,-91.3333 -97.3333,-89.3333 -93.3333,-85.3333 -90.6667,-82.6667 -82,-70 -74.6667,-64 -69.3333,-61.3333 -68,-54.6667 -69.3333,-53.3333 -74.6667,-53.3333 -78.6667,-52 -82.6667,-53.3333 -84,-52 -86.6667,-52 -88.6667,-52.6667 -91.3333,-47.3333 -92.6667,-48.6667 -106.667,-56 -112,-58.6667 -106.667,-53.3333 -101.333,-48 -99.3333,-44.6667 -96,-42.6667 -92,-41.3333 -90.6667,-40 -88,-37.3333 -82.6667,-32 -80.6667,-28.6667 -69.3333,-21.3333 -63.3333,-22 -60.6667,-27.3333 -59.3333,-34 -55.3333,-38 -50,-32.6667 -47.3333,-32.6667 -45.3333,-32 -42,-32.6667 -34.6667,-29.3333 -33.3333,-30.6667 -32.6667,-31.3333 -29.3333,-32 -26.6667,-32 -17.3333,-22.6667 -13.3333,-21.3333 -8.66667,-18 -9.33333,-20 -1.33333,-17.3333 5.33333,-13.3333 9.33333,-12 15.3333,-7.33333 22,-0.666667 22.6667,4 18,0.666667 14,-0.666667 7.33333,-4.66667"/>
  </object>
  <object id="526" x="2701" y="1523">
   <properties>
    <property name="collision" type="bool" value="true"/>
   </properties>
   <polygon points="0,0 14.6667,14.6667 20,17.3333 22,18 24,18.6667 26,19.3333 27.3333,20.6667 29.3333,18.6667 30,18 30.6667,17.3333 30,15.3333 30.6667,14.6667 30,12.6667 30.6667,12 31.3333,11.3333 36,12 36.6667,11.3333 40,13.3333 43.3333,12.6667 47.3333,14 48.6667,12.6667 50.6667,10.6667 59.3333,15.3333 62,18 63.3333,19.3333 74.6667,26.6667 76,25.3333 74.6667,21.3333 74,16.6667 71.3333,11.3333 66,3.33333 63.3333,0.666667 65.3333,-1.33333 72.6667,2 73.3333,1.33333 74.6667,2.66667 79.3333,6 80.6667,7.33333 82.6667,8 83.3333,7.33333 86.6667,9.33333 90.6667,10.6667 92.6667,11.3333 97.3333,14.6667 98.6667,16 100.667,14 101.333,13.3333 99.3333,10 95.3333,6 94,4.66667 94,2 98,-2 95.3333,-7.33333 94,-8.66667 94,-11.3333 96,-13.3333 97.3333,-14.6667 98.6667,-13.3333 102,-14 102.667,-14.6667 102,-16.6667 102.667,-20 103.333,-20.6667 106.667,-18.6667 116.667,-15.3333 120.667,-14 127.333,-12.6667 132.667,-12.6667 130.667,-18.6667 129.333,-22.6667 123.333,-30 120.667,-32.6667 115.333,-35.3333 113.333,-36 109.333,-40 104,-48 105.333,-49.3333 107.333,-51.3333 103.333,-55.3333 102,-54 101.333,-53.3333 100,-54.6667 93.3333,-61.3333 95.3333,-63.3333 96.6667,-64.6667 96,-66.6667 94,-70 94.6667,-70.6667 98,-71.3333 100.667,-71.3333 106,-66 110,-64.6667 112.667,-64.6667 118,-64.6667 116.667,-71.3333 114,-74 112.667,-75.3333 107.333,-80.6667 104.667,-83.3333 103.333,-87.3333 100.667,-92.6667 98.6667,-96 98.6667,-93.3333 96,-90.6667 94,-88.6667 92.6667,-90 90,-92.6667 89.3333,-94.6667 88.6667,-96.6667 88.6667,-99.3333 87.3333,-100.667 82,-106 80,-106.667 76,-108 72.6667,-110 68.6667,-114 66.6667,-117.333 65.3333,-121.333 66,-122 67.3333,-120.667 74.6667,-114.667 76.6667,-114 80.6667,-110 85.3333,-106.667 88,-106.667 90,-106 91.3333,-104.667 94,-104.667 94.6667,-108 93.3333,-112 94,-115.333 93.3333,-122.667 91.3333,-128.667 87.3333,-132.667 86.6667,-134.667 86,-136.667 83.3333,-144.667 82,-148.667 79.3333,-154 80,-154.667 78,-155.333 74,-156.667 72,-157.333 69.3333,-157.333 65.3333,-161.333 62.6667,-161.333 62,-160.667 61.3333,-160 62,-158 61.3333,-157.333 64,-154.667 68.6667,-151.333 71.3333,-148.667 70.6667,-148 69.3333,-146.667 66.6667,-149.333 62.6667,-150.667 62,-150 60.6667,-151.333 58,-156.667 55.3333,-159.333 52.6667,-164.667 50.6667,-170.667 48,-176 44,-182.667 40,-189.333 37.3333,-192 33.3333,-196 32.6667,-195.333 28.6667,-199.333 23.3333,-204.667 16.6667,-211.333 14,-214 12.6667,-215.333 3.33333,-222 -2,-224.667 -6,-226 -7.33333,-227.333 -11.3333,-228.667 -12.6667,-227.333 -16.6667,-228.667 -17.3333,-228 -18,-227.333 -14.6667,-217.333 -14,-215.333 -8.66667,-210 -6,-207.333 0.666667,-203.333 3.33333,-200.667 4.66667,-199.333 7.33333,-196.667 8,-194.667 6,-192.667 6,-190 6,-187.333 4,-188 0.666667,-190 -5.33333,-194.667 -5.33333,-189.333 -2.66667,-186.667 -0.666667,-188.667 2.66667,-186.667 4,-185.333 5.33333,-184 6,-179.333 7.33333,-178 14,-171.333 16.6667,-168.667 24,-162.667 27.3333,-160.667 28,-161.333 32.6667,-158 32,-157.333 31.3333,-154 30,-152.667 32,-149.333 31.3333,-148.667 26.6667,-152 22.6667,-156 20,-158.667 15.3333,-162 10.6667,-162.667 5.33333,-165.333 3.33333,-168.667 0,-173.333 -0.666667,-175.333 -4,-180 -11.3333,-188.667 -14,-191.333 -16,-192 -20,-193.333 -21.3333,-192 -16,-178.667 -20,-180 -24,-184 -22.6667,-188 -19.3333,-180.667 -18,-179.333 -18.6667,-178.667 -22,-178 -26,-179.333 -28,-180 -32,-181.333 -31.3333,-182 -32.6667,-186 -34,-192.667 -34,-198 -33.3333,-198.667 -34,-203.333 -32,-205.333 -28.6667,-206 -28,-209.333 -28.6667,-211.333 -30.6667,-220 -30.6667,-222.667 -32,-226.667 -32,-229.333 -29.3333,-232 -44,-252 -45.3333,-253.333 -49.3333,-249.333 -49.3333,-246.667 -50.6667,-240 -55.3333,-240.667 -58.6667,-237.333 -60,-236 -58,-230 -57.3333,-225.333 -54.6667,-220 -61.3333,-224 -62.6667,-225.333 -63.3333,-224.667 -66.6667,-226.667 -68.6667,-227.333 -69.3333,-226.667 -70,-226 -71.3333,-224.667 -70.6667,-220 -68,-214.667 -68.6667,-214 -67.3333,-210 -64.6667,-204.667 -62.6667,-201.333 -61.3333,-200 -60,-198.667 -59.3333,-196.667 -54.6667,-190.667 -53.3333,-189.333 -50.6667,-186.667 -48,-184 -46.6667,-182.667 -44,-180 -45.3333,-178.667 -44,-174.667 -42,-171.333 -48.6667,-172.667 -52.6667,-174 -50,-171.333 -55.3333,-174 -56,-173.333 -56.6667,-172.667 -51.3333,-167.333 -50,-166 -48,-162.667 -49.3333,-161.333 -48.6667,-156.667 -46,-151.333 -43.3333,-148.667 -43.3333,-146 -42.6667,-141.333 -48,-146.667 -46.6667,-148 -50.6667,-154.667 -55.3333,-160.667 -57.3333,-164 -61.3333,-176 -62.6667,-180 -63.3333,-182 -66,-187.333 -70,-194 -72.6667,-199.333 -81.3333,-209.333 -94.6667,-220 -94.6667,-214.667 -91.3333,-207.333 -86.6667,-201.333 -85.3333,-197.333 -85.3333,-194.667 -81.3333,-188 -86.6667,-193.333 -90.6667,-200 -93.3333,-205.333 -97.3333,-212 -98.6667,-213.333 -108.667,-224.667 -118.667,-236 -126,-242 -132,-244 -133.333,-242.667 -138,-240.667 -142,-242 -142.667,-233.333 -137.333,-225.333 -135.333,-222 -126.667,-212 -122.667,-208 -120,-205.333 -117.333,-202.667 -116,-201.333 -112,-197.333 -107.333,-194 -104.667,-191.333 -102,-191.333 -97.3333,-185.333 -95.3333,-179.333 -95.3333,-176.667 -96.6667,-175.333 -100,-174.667 -106,-176.667 -108.667,-176.667 -109.333,-176 -109.333,-173.333 -106.667,-170.667 -103.333,-168.667 -94,-164.667 -92,-164 -80.6667,-156.667 -74,-152.667 -60.6667,-139.333 -65.3333,-142.667 -56,-136 -56.6667,-135.333 -55.3333,-134 -52.6667,-131.333 -58.6667,-125.333 -60.6667,-126 -59.3333,-135.333 -64.6667,-140.667 -69.3333,-144 -76,-148 -88,-154.667 -92.6667,-152.667 -95.3333,-150 -90.6667,-138.667 -86.6667,-132 -82.6667,-125.333 -75.3333,-119.333 -68.6667,-112.667 -70,-111.333 -70.6667,-110.667 -74.6667,-112 -85.3333,-122.667 -86.6667,-124 -98.6667,-130.667 -103.333,-134 -110,-138 -114,-139.333 -116.667,-136.667 -119.333,-136.667 -120.667,-135.333 -122.667,-133.333 -126,-130 -126.667,-126.667 -126,-124.667 -122.667,-120 -115.333,-111.333 -104,-104 -87.3333,-99.3333 -86,-98 -83.3333,-98 -74.6667,-96 -72,-96 -70.6667,-94.6667 -70,-95.3333 -61.3333,-90.6667 -50.6667,-82.6667 -46,-79.3333 -42.6667,-77.3333 -38.6667,-76 -53.3333,-82.6667 -54,-82 -56.6667,-79.3333 -55.3333,-78 -52.6667,-75.3333 -49.3333,-70.6667 -48.6667,-68.6667 -44,-62.6667 -42.6667,-56 -43.3333,-55.3333 -50.6667,-58.6667 -52,-60 -54.6667,-62.6667 -61.3333,-69.3333 -64,-72 -69.3333,-77.3333 -76,-84 -78.6667,-86.6667 -80,-88 -87.3333,-91.3333 -88.6667,-92.6667 -90.6667,-90.6667 -91.3333,-90 -97.3333,-92 -98,-91.3333 -97.3333,-89.3333 -93.3333,-85.3333 -90.6667,-82.6667 -82,-70 -74.6667,-64 -69.3333,-61.3333 -68,-54.6667 -69.3333,-53.3333 -74.6667,-53.3333 -78.6667,-52 -82.6667,-53.3333 -84,-52 -86.6667,-52 -88.6667,-52.6667 -91.3333,-47.3333 -92.6667,-48.6667 -106.667,-56 -112,-58.6667 -106.667,-53.3333 -101.333,-48 -99.3333,-44.6667 -96,-42.6667 -92,-41.3333 -90.6667,-40 -88,-37.3333 -82.6667,-32 -80.6667,-28.6667 -69.3333,-21.3333 -63.3333,-22 -60.6667,-27.3333 -59.3333,-34 -55.3333,-38 -50,-32.6667 -47.3333,-32.6667 -45.3333,-32 -42,-32.6667 -34.6667,-29.3333 -33.3333,-30.6667 -32.6667,-31.3333 -29.3333,-32 -26.6667,-32 -17.3333,-22.6667 -13.3333,-21.3333 -8.66667,-18 -9.33333,-20 -1.33333,-17.3333 5.33333,-13.3333 9.33333,-12 15.3333,-7.33333 22,-0.666667 22.6667,4 18,0.666667 14,-0.666667 7.33333,-4.66667"/>
  </object>
  <object id="527" x="4961" y="1899">
   <properties>
    <property name="collision" type="bool" value="true"/>
   </properties>
   <polygon points="0,0 14.6667,14.6667 20,17.3333 22,18 24,18.6667 26,19.3333 27.3333,20.6667 29.3333,18.6667 30,18 30.6667,17.3333 30,15.3333 30.6667,14.6667 30,12.6667 30.6667,12 31.3333,11.3333 36,12 36.6667,11.3333 40,13.3333 43.3333,12.6667 47.3333,14 48.6667,12.6667 50.6667,10.6667 59.3333,15.3333 62,18 63.3333,19.3333 74.6667,26.6667 76,25.3333 74.6667,21.3333 74,16.6667 71.3333,11.3333 66,3.33333 63.3333,0.666667 65.3333,-1.33333 72.6667,2 73.3333,1.33333 74.6667,2.66667 79.3333,6 80.6667,7.33333 82.6667,8 83.3333,7.33333 86.6667,9.33333 90.6667,10.6667 92.6667,11.3333 97.3333,14.6667 98.6667,16 100.667,14 101.333,13.3333 99.3333,10 95.3333,6 94,4.66667 94,2 98,-2 95.3333,-7.33333 94,-8.66667 94,-11.3333 96,-13.3333 97.3333,-14.6667 98.6667,-13.3333 102,-14 102.667,-14.6667 102,-16.6667 102.667,-20 103.333,-20.6667 106.667,-18.6667 116.667,-15.3333 120.667,-14 127.333,-12.6667 132.667,-12.6667 130.667,-18.6667 129.333,-22.6667 123.333,-30 120.667,-32.6667 115.333,-35.3333 113.333,-36 109.333,-40 104,-48 105.333,-49.3333 107.333,-51.3333 103.333,-55.3333 102,-54 101.333,-53.3333 100,-54.6667 93.3333,-61.3333 95.3333,-63.3333 96.6667,-64.6667 96,-66.6667 94,-70 94.6667,-70.6667 98,-71.3333 100.667,-71.3333 106,-66 110,-64.6667 112.667,-64.6667 118,-64.6667 116.667,-71.3333 114,-74 112.667,-75.3333 107.333,-80.6667 104.667,-83.3333 103.333,-87.3333 100.667,-92.6667 98.6667,-96 98.6667,-93.3333 96,-90.6667 94,-88.6667 92.6667,-90 90,-92.6667 89.3333,-94.6667 88.6667,-96.6667 88.6667,-99.3333 87.3333,-100.667 82,-106 80,-106.667 76,-108 72.6667,-110 68.6667,-114 66.6667,-117.333 65.3333,-121.333 66,-122 67.3333,-120.667 74.6667,-114.667 76.6667,-114 80.6667,-110 85.3333,-106.667 88,-106.667 90,-106 91.3333,-104.667 94,-104.667 94.6667,-108 93.3333,-112 94,-115.333 93.3333,-122.667 91.3333,-128.667 87.3333,-132.667 86.6667,-134.667 86,-136.667 83.3333,-144.667 82,-148.667 79.3333,-154 80,-154.667 78,-155.333 74,-156.667 72,-157.333 69.3333,-157.333 65.3333,-161.333 62.6667,-161.333 62,-160.667 61.3333,-160 62,-158 61.3333,-157.333 64,-154.667 68.6667,-151.333 71.3333,-148.667 70.6667,-148 69.3333,-146.667 66.6667,-149.333 62.6667,-150.667 62,-150 60.6667,-151.333 58,-156.667 55.3333,-159.333 52.6667,-164.667 50.6667,-170.667 48,-176 44,-182.667 40,-189.333 37.3333,-192 33.3333,-196 32.6667,-195.333 28.6667,-199.333 23.3333,-204.667 16.6667,-211.333 14,-214 12.6667,-215.333 3.33333,-222 -2,-224.667 -6,-226 -7.33333,-227.333 -11.3333,-228.667 -12.6667,-227.333 -16.6667,-228.667 -17.3333,-228 -18,-227.333 -14.6667,-217.333 -14,-215.333 -8.66667,-210 -6,-207.333 0.666667,-203.333 3.33333,-200.667 4.66667,-199.333 7.33333,-196.667 8,-194.667 6,-192.667 6,-190 6,-187.333 4,-188 0.666667,-190 -5.33333,-194.667 -5.33333,-189.333 -2.66667,-186.667 -0.666667,-188.667 2.66667,-186.667 4,-185.333 5.33333,-184 6,-179.333 7.33333,-178 14,-171.333 16.6667,-168.667 24,-162.667 27.3333,-160.667 28,-161.333 32.6667,-158 32,-157.333 31.3333,-154 30,-152.667 32,-149.333 31.3333,-148.667 26.6667,-152 22.6667,-156 20,-158.667 15.3333,-162 10.6667,-162.667 5.33333,-165.333 3.33333,-168.667 0,-173.333 -0.666667,-175.333 -4,-180 -11.3333,-188.667 -14,-191.333 -16,-192 -20,-193.333 -21.3333,-192 -16,-178.667 -20,-180 -24,-184 -22.6667,-188 -19.3333,-180.667 -18,-179.333 -18.6667,-178.667 -22,-178 -26,-179.333 -28,-180 -32,-181.333 -31.3333,-182 -32.6667,-186 -34,-192.667 -34,-198 -33.3333,-198.667 -34,-203.333 -32,-205.333 -28.6667,-206 -28,-209.333 -28.6667,-211.333 -30.6667,-220 -30.6667,-222.667 -32,-226.667 -32,-229.333 -29.3333,-232 -44,-252 -45.3333,-253.333 -49.3333,-249.333 -49.3333,-246.667 -50.6667,-240 -55.3333,-240.667 -58.6667,-237.333 -60,-236 -58,-230 -57.3333,-225.333 -54.6667,-220 -61.3333,-224 -62.6667,-225.333 -63.3333,-224.667 -66.6667,-226.667 -68.6667,-227.333 -69.3333,-226.667 -70,-226 -71.3333,-224.667 -70.6667,-220 -68,-214.667 -68.6667,-214 -67.3333,-210 -64.6667,-204.667 -62.6667,-201.333 -61.3333,-200 -60,-198.667 -59.3333,-196.667 -54.6667,-190.667 -53.3333,-189.333 -50.6667,-186.667 -48,-184 -46.6667,-182.667 -44,-180 -45.3333,-178.667 -44,-174.667 -42,-171.333 -48.6667,-172.667 -52.6667,-174 -50,-171.333 -55.3333,-174 -56,-173.333 -56.6667,-172.667 -51.3333,-167.333 -50,-166 -48,-162.667 -49.3333,-161.333 -48.6667,-156.667 -46,-151.333 -43.3333,-148.667 -43.3333,-146 -42.6667,-141.333 -48,-146.667 -46.6667,-148 -50.6667,-154.667 -55.3333,-160.667 -57.3333,-164 -61.3333,-176 -62.6667,-180 -63.3333,-182 -66,-187.333 -70,-194 -72.6667,-199.333 -81.3333,-209.333 -94.6667,-220 -94.6667,-214.667 -91.3333,-207.333 -86.6667,-201.333 -85.3333,-197.333 -85.3333,-194.667 -81.3333,-188 -86.6667,-193.333 -90.6667,-200 -93.3333,-205.333 -97.3333,-212 -98.6667,-213.333 -108.667,-224.667 -118.667,-236 -126,-242 -132,-244 -133.333,-242.667 -138,-240.667 -142,-242 -142.667,-233.333 -137.333,-225.333 -135.333,-222 -126.667,-212 -122.667,-208 -120,-205.333 -117.333,-202.667 -116,-201.333 -112,-197.333 -107.333,-194 -104.667,-191.333 -102,-191.333 -97.3333,-185.333 -95.3333,-179.333 -95.3333,-176.667 -96.6667,-175.333 -100,-174.667 -106,-176.667 -108.667,-176.667 -109.333,-176 -109.333,-173.333 -106.667,-170.667 -103.333,-168.667 -94,-164.667 -92,-164 -80.6667,-156.667 -74,-152.667 -60.6667,-139.333 -65.3333,-142.667 -56,-136 -56.6667,-135.333 -55.3333,-134 -52.6667,-131.333 -58.6667,-125.333 -60.6667,-126 -59.3333,-135.333 -64.6667,-140.667 -69.3333,-144 -76,-148 -88,-154.667 -92.6667,-152.667 -95.3333,-150 -90.6667,-138.667 -86.6667,-132 -82.6667,-125.333 -75.3333,-119.333 -68.6667,-112.667 -70,-111.333 -70.6667,-110.667 -74.6667,-112 -85.3333,-122.667 -86.6667,-124 -98.6667,-130.667 -103.333,-134 -110,-138 -114,-139.333 -116.667,-136.667 -119.333,-136.667 -120.667,-135.333 -122.667,-133.333 -126,-130 -126.667,-126.667 -126,-124.667 -122.667,-120 -115.333,-111.333 -104,-104 -87.3333,-99.3333 -86,-98 -83.3333,-98 -74.6667,-96 -72,-96 -70.6667,-94.6667 -70,-95.3333 -61.3333,-90.6667 -50.6667,-82.6667 -46,-79.3333 -42.6667,-77.3333 -38.6667,-76 -53.3333,-82.6667 -54,-82 -56.6667,-79.3333 -55.3333,-78 -52.6667,-75.3333 -49.3333,-70.6667 -48.6667,-68.6667 -44,-62.6667 -42.6667,-56 -43.3333,-55.3333 -50.6667,-58.6667 -52,-60 -54.6667,-62.6667 -61.3333,-69.3333 -64,-72 -69.3333,-77.3333 -76,-84 -78.6667,-86.6667 -80,-88 -87.3333,-91.3333 -88.6667,-92.6667 -90.6667,-90.6667 -91.3333,-90 -97.3333,-92 -98,-91.3333 -97.3333,-89.3333 -93.3333,-85.3333 -90.6667,-82.6667 -82,-70 -74.6667,-64 -69.3333,-61.3333 -68,-54.6667 -69.3333,-53.3333 -74.6667,-53.3333 -78.6667,-52 -82.6667,-53.3333 -84,-52 -86.6667,-52 -88.6667,-52.6667 -91.3333,-47.3333 -92.6667,-48.6667 -106.667,-56 -112,-58.6667 -106.667,-53.3333 -101.333,-48 -99.3333,-44.6667 -96,-42.6667 -92,-41.3333 -90.6667,-40 -88,-37.3333 -82.6667,-32 -80.6667,-28.6667 -69.3333,-21.3333 -63.3333,-22 -60.6667,-27.3333 -59.3333,-34 -55.3333,-38 -50,-32.6667 -47.3333,-32.6667 -45.3333,-32 -42,-32.6667 -34.6667,-29.3333 -33.3333,-30.6667 -32.6667,-31.3333 -29.3333,-32 -26.6667,-32 -17.3333,-22.6667 -13.3333,-21.3333 -8.66667,-18 -9.33333,-20 -1.33333,-17.3333 5.33333,-13.3333 9.33333,-12 15.3333,-7.33333 22,-0.666667 22.6667,4 18,0.666667 14,-0.666667 7.33333,-4.66667"/>
  </object>
  <object id="528" x="5987" y="2029">
   <properties>
    <property name="collision" type="bool" value="true"/>
   </properties>
   <polygon points="0,0 14.6667,14.6667 20,17.3333 22,18 24,18.6667 26,19.3333 27.3333,20.6667 29.3333,18.6667 30,18 30.6667,17.3333 30,15.3333 30.6667,14.6667 30,12.6667 30.6667,12 31.3333,11.3333 36,12 36.6667,11.3333 40,13.3333 43.3333,12.6667 47.3333,14 48.6667,12.6667 50.6667,10.6667 59.3333,15.3333 62,18 63.3333,19.3333 74.6667,26.6667 76,25.3333 74.6667,21.3333 74,16.6667 71.3333,11.3333 66,3.33333 63.3333,0.666667 65.3333,-1.33333 72.6667,2 73.3333,1.33333 74.6667,2.66667 79.3333,6 80.6667,7.33333 82.6667,8 83.3333,7.33333 86.6667,9.33333 90.6667,10.6667 92.6667,11.3333 97.3333,14.6667 98.6667,16 100.667,14 101.333,13.3333 99.3333,10 95.3333,6 94,4.66667 94,2 98,-2 95.3333,-7.33333 94,-8.66667 94,-11.3333 96,-13.3333 97.3333,-14.6667 98.6667,-13.3333 102,-14 102.667,-14.6667 102,-16.6667 102.667,-20 103.333,-20.6667 106.667,-18.6667 116.667,-15.3333 120.667,-14 127.333,-12.6667 132.667,-12.6667 130.667,-18.6667 129.333,-22.6667 123.333,-30 120.667,-32.6667 115.333,-35.3333 113.333,-36 109.333,-40 104,-48 105.333,-49.3333 107.333,-51.3333 103.333,-55.3333 102,-54 101.333,-53.3333 100,-54.6667 93.3333,-61.3333 95.3333,-63.3333 96.6667,-64.6667 96,-66.6667 94,-70 94.6667,-70.6667 98,-71.3333 100.667,-71.3333 106,-66 110,-64.6667 112.667,-64.6667 118,-64.6667 116.667,-71.3333 114,-74 112.667,-75.3333 107.333,-80.6667 104.667,-83.3333 103.333,-87.3333 100.667,-92.6667 98.6667,-96 98.6667,-93.3333 96,-90.6667 94,-88.6667 92.6667,-90 90,-92.6667 89.3333,-94.6667 88.6667,-96.6667 88.6667,-99.3333 87.3333,-100.667 82,-106 80,-106.667 76,-108 72.6667,-110 68.6667,-114 66.6667,-117.333 65.3333,-121.333 66,-122 67.3333,-120.667 74.6667,-114.667 76.6667,-114 80.6667,-110 85.3333,-106.667 88,-106.667 90,-106 91.3333,-104.667 94,-104.667 94.6667,-108 93.3333,-112 94,-115.333 93.3333,-122.667 91.3333,-128.667 87.3333,-132.667 86.6667,-134.667 86,-136.667 83.3333,-144.667 82,-148.667 79.3333,-154 80,-154.667 78,-155.333 74,-156.667 72,-157.333 69.3333,-157.333 65.3333,-161.333 62.6667,-161.333 62,-160.667 61.3333,-160 62,-158 61.3333,-157.333 64,-154.667 68.6667,-151.333 71.3333,-148.667 70.6667,-148 69.3333,-146.667 66.6667,-149.333 62.6667,-150.667 62,-150 60.6667,-151.333 58,-156.667 55.3333,-159.333 52.6667,-164.667 50.6667,-170.667 48,-176 44,-182.667 40,-189.333 37.3333,-192 33.3333,-196 32.6667,-195.333 28.6667,-199.333 23.3333,-204.667 16.6667,-211.333 14,-214 12.6667,-215.333 3.33333,-222 -2,-224.667 -6,-226 -7.33333,-227.333 -11.3333,-228.667 -12.6667,-227.333 -16.6667,-228.667 -17.3333,-228 -18,-227.333 -14.6667,-217.333 -14,-215.333 -8.66667,-210 -6,-207.333 0.666667,-203.333 3.33333,-200.667 4.66667,-199.333 7.33333,-196.667 8,-194.667 6,-192.667 6,-190 6,-187.333 4,-188 0.666667,-190 -5.33333,-194.667 -5.33333,-189.333 -2.66667,-186.667 -0.666667,-188.667 2.66667,-186.667 4,-185.333 5.33333,-184 6,-179.333 7.33333,-178 14,-171.333 16.6667,-168.667 24,-162.667 27.3333,-160.667 28,-161.333 32.6667,-158 32,-157.333 31.3333,-154 30,-152.667 32,-149.333 31.3333,-148.667 26.6667,-152 22.6667,-156 20,-158.667 15.3333,-162 10.6667,-162.667 5.33333,-165.333 3.33333,-168.667 0,-173.333 -0.666667,-175.333 -4,-180 -11.3333,-188.667 -14,-191.333 -16,-192 -20,-193.333 -21.3333,-192 -16,-178.667 -20,-180 -24,-184 -22.6667,-188 -19.3333,-180.667 -18,-179.333 -18.6667,-178.667 -22,-178 -26,-179.333 -28,-180 -32,-181.333 -31.3333,-182 -32.6667,-186 -34,-192.667 -34,-198 -33.3333,-198.667 -34,-203.333 -32,-205.333 -28.6667,-206 -28,-209.333 -28.6667,-211.333 -30.6667,-220 -30.6667,-222.667 -32,-226.667 -32,-229.333 -29.3333,-232 -44,-252 -45.3333,-253.333 -49.3333,-249.333 -49.3333,-246.667 -50.6667,-240 -55.3333,-240.667 -58.6667,-237.333 -60,-236 -58,-230 -57.3333,-225.333 -54.6667,-220 -61.3333,-224 -62.6667,-225.333 -63.3333,-224.667 -66.6667,-226.667 -68.6667,-227.333 -69.3333,-226.667 -70,-226 -71.3333,-224.667 -70.6667,-220 -68,-214.667 -68.6667,-214 -67.3333,-210 -64.6667,-204.667 -62.6667,-201.333 -61.3333,-200 -60,-198.667 -59.3333,-196.667 -54.6667,-190.667 -53.3333,-189.333 -50.6667,-186.667 -48,-184 -46.6667,-182.667 -44,-180 -45.3333,-178.667 -44,-174.667 -42,-171.333 -48.6667,-172.667 -52.6667,-174 -50,-171.333 -55.3333,-174 -56,-173.333 -56.6667,-172.667 -51.3333,-167.333 -50,-166 -48,-162.667 -49.3333,-161.333 -48.6667,-156.667 -46,-151.333 -43.3333,-148.667 -43.3333,-146 -42.6667,-141.333 -48,-146.667 -46.6667,-148 -50.6667,-154.667 -55.3333,-160.667 -57.3333,-164 -61.3333,-176 -62.6667,-180 -63.3333,-182 -66,-187.333 -70,-194 -72.6667,-199.333 -81.3333,-209.333 -94.6667,-220 -94.6667,-214.667 -91.3333,-207.333 -86.6667,-201.333 -85.3333,-197.333 -85.3333,-194.667 -81.3333,-188 -86.6667,-193.333 -90.6667,-200 -93.3333,-205.333 -97.3333,-212 -98.6667,-213.333 -108.667,-224.667 -118.667,-236 -126,-242 -132,-244 -133.333,-242.667 -138,-240.667 -142,-242 -142.667,-233.333 -137.333,-225.333 -135.333,-222 -126.667,-212 -122.667,-208 -120,-205.333 -117.333,-202.667 -116,-201.333 -112,-197.333 -107.333,-194 -104.667,-191.333 -102,-191.333 -97.3333,-185.333 -95.3333,-179.333 -95.3333,-176.667 -96.6667,-175.333 -100,-174.667 -106,-176.667 -108.667,-176.667 -109.333,-176 -109.333,-173.333 -106.667,-170.667 -103.333,-168.667 -94,-164.667 -92,-164 -80.6667,-156.667 -74,-152.667 -60.6667,-139.333 -65.3333,-142.667 -56,-136 -56.6667,-135.333 -55.3333,-134 -52.6667,-131.333 -58.6667,-125.333 -60.6667,-126 -59.3333,-135.333 -64.6667,-140.667 -69.3333,-144 -76,-148 -88,-154.667 -92.6667,-152.667 -95.3333,-150 -90.6667,-138.667 -86.6667,-132 -82.6667,-125.333 -75.3333,-119.333 -68.6667,-112.667 -70,-111.333 -70.6667,-110.667 -74.6667,-112 -85.3333,-122.667 -86.6667,-124 -98.6667,-130.667 -103.333,-134 -110,-138 -114,-139.333 -116.667,-136.667 -119.333,-136.667 -120.667,-135.333 -122.667,-133.333 -126,-130 -126.667,-126.667 -126,-124.667 -122.667,-120 -115.333,-111.333 -104,-104 -87.3333,-99.3333 -86,-98 -83.3333,-98 -74.6667,-96 -72,-96 -70.6667,-94.6667 -70,-95.3333 -61.3333,-90.6667 -50.6667,-82.6667 -46,-79.3333 -42.6667,-77.3333 -38.6667,-76 -53.3333,-82.6667 -54,-82 -56.6667,-79.3333 -55.3333,-78 -52.6667,-75.3333 -49.3333,-70.6667 -48.6667,-68.6667 -44,-62.6667 -42.6667,-56 -43.3333,-55.3333 -50.6667,-58.6667 -52,-60 -54.6667,-62.6667 -61.3333,-69.3333 -64,-72 -69.3333,-77.3333 -76,-84 -78.6667,-86.6667 -80,-88 -87.3333,-91.3333 -88.6667,-92.6667 -90.6667,-90.6667 -91.3333,-90 -97.3333,-92 -98,-91.3333 -97.3333,-89.3333 -93.3333,-85.3333 -90.6667,-82.6667 -82,-70 -74.6667,-64 -69.3333,-61.3333 -68,-54.6667 -69.3333,-53.3333 -74.6667,-53.3333 -78.6667,-52 -82.6667,-53.3333 -84,-52 -86.6667,-52 -88.6667,-52.6667 -91.3333,-47.3333 -92.6667,-48.6667 -106.667,-56 -112,-58.6667 -106.667,-53.3333 -101.333,-48 -99.3333,-44.6667 -96,-42.6667 -92,-41.3333 -90.6667,-40 -88,-37.3333 -82.6667,-32 -80.6667,-28.6667 -69.3333,-21.3333 -63.3333,-22 -60.6667,-27.3333 -59.3333,-34 -55.3333,-38 -50,-32.6667 -47.3333,-32.6667 -45.3333,-32 -42,-32.6667 -34.6667,-29.3333 -33.3333,-30.6667 -32.6667,-31.3333 -29.3333,-32 -26.6667,-32 -17.3333,-22.6667 -13.3333,-21.3333 -8.66667,-18 -9.33333,-20 -1.33333,-17.3333 5.33333,-13.3333 9.33333,-12 15.3333,-7.33333 22,-0.666667 22.6667,4 18,0.666667 14,-0.666667 7.33333,-4.66667"/>
  </object>
  <object id="530" x="8526" y="1546">
   <properties>
    <property name="collision" type="bool" value="true"/>
   </properties>
   <polygon points="0,0 14.6667,14.6667 20,17.3333 22,18 24,18.6667 26,19.3333 27.3333,20.6667 29.3333,18.6667 30,18 30.6667,17.3333 30,15.3333 30.6667,14.6667 30,12.6667 30.6667,12 31.3333,11.3333 36,12 36.6667,11.3333 40,13.3333 43.3333,12.6667 47.3333,14 48.6667,12.6667 50.6667,10.6667 59.3333,15.3333 62,18 63.3333,19.3333 74.6667,26.6667 76,25.3333 74.6667,21.3333 74,16.6667 71.3333,11.3333 66,3.33333 63.3333,0.666667 65.3333,-1.33333 72.6667,2 73.3333,1.33333 74.6667,2.66667 79.3333,6 80.6667,7.33333 82.6667,8 83.3333,7.33333 86.6667,9.33333 90.6667,10.6667 92.6667,11.3333 97.3333,14.6667 98.6667,16 100.667,14 101.333,13.3333 99.3333,10 95.3333,6 94,4.66667 94,2 98,-2 95.3333,-7.33333 94,-8.66667 94,-11.3333 96,-13.3333 97.3333,-14.6667 98.6667,-13.3333 102,-14 102.667,-14.6667 102,-16.6667 102.667,-20 103.333,-20.6667 106.667,-18.6667 116.667,-15.3333 120.667,-14 127.333,-12.6667 132.667,-12.6667 130.667,-18.6667 129.333,-22.6667 123.333,-30 120.667,-32.6667 115.333,-35.3333 113.333,-36 109.333,-40 104,-48 105.333,-49.3333 107.333,-51.3333 103.333,-55.3333 102,-54 101.333,-53.3333 100,-54.6667 93.3333,-61.3333 95.3333,-63.3333 96.6667,-64.6667 96,-66.6667 94,-70 94.6667,-70.6667 98,-71.3333 100.667,-71.3333 106,-66 110,-64.6667 112.667,-64.6667 118,-64.6667 116.667,-71.3333 114,-74 112.667,-75.3333 107.333,-80.6667 104.667,-83.3333 103.333,-87.3333 100.667,-92.6667 98.6667,-96 98.6667,-93.3333 96,-90.6667 94,-88.6667 92.6667,-90 90,-92.6667 89.3333,-94.6667 88.6667,-96.6667 88.6667,-99.3333 87.3333,-100.667 82,-106 80,-106.667 76,-108 72.6667,-110 68.6667,-114 66.6667,-117.333 65.3333,-121.333 66,-122 67.3333,-120.667 74.6667,-114.667 76.6667,-114 80.6667,-110 85.3333,-106.667 88,-106.667 90,-106 91.3333,-104.667 94,-104.667 94.6667,-108 93.3333,-112 94,-115.333 93.3333,-122.667 91.3333,-128.667 87.3333,-132.667 86.6667,-134.667 86,-136.667 83.3333,-144.667 82,-148.667 79.3333,-154 80,-154.667 78,-155.333 74,-156.667 72,-157.333 69.3333,-157.333 65.3333,-161.333 62.6667,-161.333 62,-160.667 61.3333,-160 62,-158 61.3333,-157.333 64,-154.667 68.6667,-151.333 71.3333,-148.667 70.6667,-148 69.3333,-146.667 66.6667,-149.333 62.6667,-150.667 62,-150 60.6667,-151.333 58,-156.667 55.3333,-159.333 52.6667,-164.667 50.6667,-170.667 48,-176 44,-182.667 40,-189.333 37.3333,-192 33.3333,-196 32.6667,-195.333 28.6667,-199.333 23.3333,-204.667 16.6667,-211.333 14,-214 12.6667,-215.333 3.33333,-222 -2,-224.667 -6,-226 -7.33333,-227.333 -11.3333,-228.667 -12.6667,-227.333 -16.6667,-228.667 -17.3333,-228 -18,-227.333 -14.6667,-217.333 -14,-215.333 -8.66667,-210 -6,-207.333 0.666667,-203.333 3.33333,-200.667 4.66667,-199.333 7.33333,-196.667 8,-194.667 6,-192.667 6,-190 6,-187.333 4,-188 0.666667,-190 -5.33333,-194.667 -5.33333,-189.333 -2.66667,-186.667 -0.666667,-188.667 2.66667,-186.667 4,-185.333 5.33333,-184 6,-179.333 7.33333,-178 14,-171.333 16.6667,-168.667 24,-162.667 27.3333,-160.667 28,-161.333 32.6667,-158 32,-157.333 31.3333,-154 30,-152.667 32,-149.333 31.3333,-148.667 26.6667,-152 22.6667,-156 20,-158.667 15.3333,-162 10.6667,-162.667 5.33333,-165.333 3.33333,-168.667 0,-173.333 -0.666667,-175.333 -4,-180 -11.3333,-188.667 -14,-191.333 -16,-192 -20,-193.333 -21.3333,-192 -16,-178.667 -20,-180 -24,-184 -22.6667,-188 -19.3333,-180.667 -18,-179.333 -18.6667,-178.667 -22,-178 -26,-179.333 -28,-180 -32,-181.333 -31.3333,-182 -32.6667,-186 -34,-192.667 -34,-198 -33.3333,-198.667 -34,-203.333 -32,-205.333 -28.6667,-206 -28,-209.333 -28.6667,-211.333 -30.6667,-220 -30.6667,-222.667 -32,-226.667 -32,-229.333 -29.3333,-232 -44,-252 -45.3333,-253.333 -49.3333,-249.333 -49.3333,-246.667 -50.6667,-240 -55.3333,-240.667 -58.6667,-237.333 -60,-236 -58,-230 -57.3333,-225.333 -54.6667,-220 -61.3333,-224 -62.6667,-225.333 -63.3333,-224.667 -66.6667,-226.667 -68.6667,-227.333 -69.3333,-226.667 -70,-226 -71.3333,-224.667 -70.6667,-220 -68,-214.667 -68.6667,-214 -67.3333,-210 -64.6667,-204.667 -62.6667,-201.333 -61.3333,-200 -60,-198.667 -59.3333,-196.667 -54.6667,-190.667 -53.3333,-189.333 -50.6667,-186.667 -48,-184 -46.6667,-182.667 -44,-180 -45.3333,-178.667 -44,-174.667 -42,-171.333 -48.6667,-172.667 -52.6667,-174 -50,-171.333 -55.3333,-174 -56,-173.333 -56.6667,-172.667 -51.3333,-167.333 -50,-166 -48,-162.667 -49.3333,-161.333 -48.6667,-156.667 -46,-151.333 -43.3333,-148.667 -43.3333,-146 -42.6667,-141.333 -48,-146.667 -46.6667,-148 -50.6667,-154.667 -55.3333,-160.667 -57.3333,-164 -61.3333,-176 -62.6667,-180 -63.3333,-182 -66,-187.333 -70,-194 -72.6667,-199.333 -81.3333,-209.333 -94.6667,-220 -94.6667,-214.667 -91.3333,-207.333 -86.6667,-201.333 -85.3333,-197.333 -85.3333,-194.667 -81.3333,-188 -86.6667,-193.333 -90.6667,-200 -93.3333,-205.333 -97.3333,-212 -98.6667,-213.333 -108.667,-224.667 -118.667,-236 -126,-242 -132,-244 -133.333,-242.667 -138,-240.667 -142,-242 -142.667,-233.333 -137.333,-225.333 -135.333,-222 -126.667,-212 -122.667,-208 -120,-205.333 -117.333,-202.667 -116,-201.333 -112,-197.333 -107.333,-194 -104.667,-191.333 -102,-191.333 -97.3333,-185.333 -95.3333,-179.333 -95.3333,-176.667 -96.6667,-175.333 -100,-174.667 -106,-176.667 -108.667,-176.667 -109.333,-176 -109.333,-173.333 -106.667,-170.667 -103.333,-168.667 -94,-164.667 -92,-164 -80.6667,-156.667 -74,-152.667 -60.6667,-139.333 -65.3333,-142.667 -56,-136 -56.6667,-135.333 -55.3333,-134 -52.6667,-131.333 -58.6667,-125.333 -60.6667,-126 -59.3333,-135.333 -64.6667,-140.667 -69.3333,-144 -76,-148 -88,-154.667 -92.6667,-152.667 -95.3333,-150 -90.6667,-138.667 -86.6667,-132 -82.6667,-125.333 -75.3333,-119.333 -68.6667,-112.667 -70,-111.333 -70.6667,-110.667 -74.6667,-112 -85.3333,-122.667 -86.6667,-124 -98.6667,-130.667 -103.333,-134 -110,-138 -114,-139.333 -116.667,-136.667 -119.333,-136.667 -120.667,-135.333 -122.667,-133.333 -126,-130 -126.667,-126.667 -126,-124.667 -122.667,-120 -115.333,-111.333 -104,-104 -87.3333,-99.3333 -86,-98 -83.3333,-98 -74.6667,-96 -72,-96 -70.6667,-94.6667 -70,-95.3333 -61.3333,-90.6667 -50.6667,-82.6667 -46,-79.3333 -42.6667,-77.3333 -38.6667,-76 -53.3333,-82.6667 -54,-82 -56.6667,-79.3333 -55.3333,-78 -52.6667,-75.3333 -49.3333,-70.6667 -48.6667,-68.6667 -44,-62.6667 -42.6667,-56 -43.3333,-55.3333 -50.6667,-58.6667 -52,-60 -54.6667,-62.6667 -61.3333,-69.3333 -64,-72 -69.3333,-77.3333 -76,-84 -78.6667,-86.6667 -80,-88 -87.3333,-91.3333 -88.6667,-92.6667 -90.6667,-90.6667 -91.3333,-90 -97.3333,-92 -98,-91.3333 -97.3333,-89.3333 -93.3333,-85.3333 -90.6667,-82.6667 -82,-70 -74.6667,-64 -69.3333,-61.3333 -68,-54.6667 -69.3333,-53.3333 -74.6667,-53.3333 -78.6667,-52 -82.6667,-53.3333 -84,-52 -86.6667,-52 -88.6667,-52.6667 -91.3333,-47.3333 -92.6667,-48.6667 -106.667,-56 -112,-58.6667 -106.667,-53.3333 -101.333,-48 -99.3333,-44.6667 -96,-42.6667 -92,-41.3333 -90.6667,-40 -88,-37.3333 -82.6667,-32 -80.6667,-28.6667 -69.3333,-21.3333 -63.3333,-22 -60.6667,-27.3333 -59.3333,-34 -55.3333,-38 -50,-32.6667 -47.3333,-32.6667 -45.3333,-32 -42,-32.6667 -34.6667,-29.3333 -33.3333,-30.6667 -32.6667,-31.3333 -29.3333,-32 -26.6667,-32 -17.3333,-22.6667 -13.3333,-21.3333 -8.66667,-18 -9.33333,-20 -1.33333,-17.3333 5.33333,-13.3333 9.33333,-12 15.3333,-7.33333 22,-0.666667 22.6667,4 18,0.666667 14,-0.666667 7.33333,-4.66667"/>
  </object>
  <object id="531" x="9441" y="2535">
   <properties>
    <property name="collision" type="bool" value="true"/>
   </properties>
   <polygon points="0,0 14.6667,14.6667 20,17.3333 22,18 24,18.6667 26,19.3333 27.3333,20.6667 29.3333,18.6667 30,18 30.6667,17.3333 30,15.3333 30.6667,14.6667 30,12.6667 30.6667,12 31.3333,11.3333 36,12 36.6667,11.3333 40,13.3333 43.3333,12.6667 47.3333,14 48.6667,12.6667 50.6667,10.6667 59.3333,15.3333 62,18 63.3333,19.3333 74.6667,26.6667 76,25.3333 74.6667,21.3333 74,16.6667 71.3333,11.3333 66,3.33333 63.3333,0.666667 65.3333,-1.33333 72.6667,2 73.3333,1.33333 74.6667,2.66667 79.3333,6 80.6667,7.33333 82.6667,8 83.3333,7.33333 86.6667,9.33333 90.6667,10.6667 92.6667,11.3333 97.3333,14.6667 98.6667,16 100.667,14 101.333,13.3333 99.3333,10 95.3333,6 94,4.66667 94,2 98,-2 95.3333,-7.33333 94,-8.66667 94,-11.3333 96,-13.3333 97.3333,-14.6667 98.6667,-13.3333 102,-14 102.667,-14.6667 102,-16.6667 102.667,-20 103.333,-20.6667 106.667,-18.6667 116.667,-15.3333 120.667,-14 127.333,-12.6667 132.667,-12.6667 130.667,-18.6667 129.333,-22.6667 123.333,-30 120.667,-32.6667 115.333,-35.3333 113.333,-36 109.333,-40 104,-48 105.333,-49.3333 107.333,-51.3333 103.333,-55.3333 102,-54 101.333,-53.3333 100,-54.6667 93.3333,-61.3333 95.3333,-63.3333 96.6667,-64.6667 96,-66.6667 94,-70 94.6667,-70.6667 98,-71.3333 100.667,-71.3333 106,-66 110,-64.6667 112.667,-64.6667 118,-64.6667 116.667,-71.3333 114,-74 112.667,-75.3333 107.333,-80.6667 104.667,-83.3333 103.333,-87.3333 100.667,-92.6667 98.6667,-96 98.6667,-93.3333 96,-90.6667 94,-88.6667 92.6667,-90 90,-92.6667 89.3333,-94.6667 88.6667,-96.6667 88.6667,-99.3333 87.3333,-100.667 82,-106 80,-106.667 76,-108 72.6667,-110 68.6667,-114 66.6667,-117.333 65.3333,-121.333 66,-122 67.3333,-120.667 74.6667,-114.667 76.6667,-114 80.6667,-110 85.3333,-106.667 88,-106.667 90,-106 91.3333,-104.667 94,-104.667 94.6667,-108 93.3333,-112 94,-115.333 93.3333,-122.667 91.3333,-128.667 87.3333,-132.667 86.6667,-134.667 86,-136.667 83.3333,-144.667 82,-148.667 79.3333,-154 80,-154.667 78,-155.333 74,-156.667 72,-157.333 69.3333,-157.333 65.3333,-161.333 62.6667,-161.333 62,-160.667 61.3333,-160 62,-158 61.3333,-157.333 64,-154.667 68.6667,-151.333 71.3333,-148.667 70.6667,-148 69.3333,-146.667 66.6667,-149.333 62.6667,-150.667 62,-150 60.6667,-151.333 58,-156.667 55.3333,-159.333 52.6667,-164.667 50.6667,-170.667 48,-176 44,-182.667 40,-189.333 37.3333,-192 33.3333,-196 32.6667,-195.333 28.6667,-199.333 23.3333,-204.667 16.6667,-211.333 14,-214 12.6667,-215.333 3.33333,-222 -2,-224.667 -6,-226 -7.33333,-227.333 -11.3333,-228.667 -12.6667,-227.333 -16.6667,-228.667 -17.3333,-228 -18,-227.333 -14.6667,-217.333 -14,-215.333 -8.66667,-210 -6,-207.333 0.666667,-203.333 3.33333,-200.667 4.66667,-199.333 7.33333,-196.667 8,-194.667 6,-192.667 6,-190 6,-187.333 4,-188 0.666667,-190 -5.33333,-194.667 -5.33333,-189.333 -2.66667,-186.667 -0.666667,-188.667 2.66667,-186.667 4,-185.333 5.33333,-184 6,-179.333 7.33333,-178 14,-171.333 16.6667,-168.667 24,-162.667 27.3333,-160.667 28,-161.333 32.6667,-158 32,-157.333 31.3333,-154 30,-152.667 32,-149.333 31.3333,-148.667 26.6667,-152 22.6667,-156 20,-158.667 15.3333,-162 10.6667,-162.667 5.33333,-165.333 3.33333,-168.667 0,-173.333 -0.666667,-175.333 -4,-180 -11.3333,-188.667 -14,-191.333 -16,-192 -20,-193.333 -21.3333,-192 -16,-178.667 -20,-180 -24,-184 -22.6667,-188 -19.3333,-180.667 -18,-179.333 -18.6667,-178.667 -22,-178 -26,-179.333 -28,-180 -32,-181.333 -31.3333,-182 -32.6667,-186 -34,-192.667 -34,-198 -33.3333,-198.667 -34,-203.333 -32,-205.333 -28.6667,-206 -28,-209.333 -28.6667,-211.333 -30.6667,-220 -30.6667,-222.667 -32,-226.667 -32,-229.333 -29.3333,-232 -44,-252 -45.3333,-253.333 -49.3333,-249.333 -49.3333,-246.667 -50.6667,-240 -55.3333,-240.667 -58.6667,-237.333 -60,-236 -58,-230 -57.3333,-225.333 -54.6667,-220 -61.3333,-224 -62.6667,-225.333 -63.3333,-224.667 -66.6667,-226.667 -68.6667,-227.333 -69.3333,-226.667 -70,-226 -71.3333,-224.667 -70.6667,-220 -68,-214.667 -68.6667,-214 -67.3333,-210 -64.6667,-204.667 -62.6667,-201.333 -61.3333,-200 -60,-198.667 -59.3333,-196.667 -54.6667,-190.667 -53.3333,-189.333 -50.6667,-186.667 -48,-184 -46.6667,-182.667 -44,-180 -45.3333,-178.667 -44,-174.667 -42,-171.333 -48.6667,-172.667 -52.6667,-174 -50,-171.333 -55.3333,-174 -56,-173.333 -56.6667,-172.667 -51.3333,-167.333 -50,-166 -48,-162.667 -49.3333,-161.333 -48.6667,-156.667 -46,-151.333 -43.3333,-148.667 -43.3333,-146 -42.6667,-141.333 -48,-146.667 -46.6667,-148 -50.6667,-154.667 -55.3333,-160.667 -57.3333,-164 -61.3333,-176 -62.6667,-180 -63.3333,-182 -66,-187.333 -70,-194 -72.6667,-199.333 -81.3333,-209.333 -94.6667,-220 -94.6667,-214.667 -91.3333,-207.333 -86.6667,-201.333 -85.3333,-197.333 -85.3333,-194.667 -81.3333,-188 -86.6667,-193.333 -90.6667,-200 -93.3333,-205.333 -97.3333,-212 -98.6667,-213.333 -108.667,-224.667 -118.667,-236 -126,-242 -132,-244 -133.333,-242.667 -138,-240.667 -142,-242 -142.667,-233.333 -137.333,-225.333 -135.333,-222 -126.667,-212 -122.667,-208 -120,-205.333 -117.333,-202.667 -116,-201.333 -112,-197.333 -107.333,-194 -104.667,-191.333 -102,-191.333 -97.3333,-185.333 -95.3333,-179.333 -95.3333,-176.667 -96.6667,-175.333 -100,-174.667 -106,-176.667 -108.667,-176.667 -109.333,-176 -109.333,-173.333 -106.667,-170.667 -103.333,-168.667 -94,-164.667 -92,-164 -80.6667,-156.667 -74,-152.667 -60.6667,-139.333 -65.3333,-142.667 -56,-136 -56.6667,-135.333 -55.3333,-134 -52.6667,-131.333 -58.6667,-125.333 -60.6667,-126 -59.3333,-135.333 -64.6667,-140.667 -69.3333,-144 -76,-148 -88,-154.667 -92.6667,-152.667 -95.3333,-150 -90.6667,-138.667 -86.6667,-132 -82.6667,-125.333 -75.3333,-119.333 -68.6667,-112.667 -70,-111.333 -70.6667,-110.667 -74.6667,-112 -85.3333,-122.667 -86.6667,-124 -98.6667,-130.667 -103.333,-134 -110,-138 -114,-139.333 -116.667,-136.667 -119.333,-136.667 -120.667,-135.333 -122.667,-133.333 -126,-130 -126.667,-126.667 -126,-124.667 -122.667,-120 -115.333,-111.333 -104,-104 -87.3333,-99.3333 -86,-98 -83.3333,-98 -74.6667,-96 -72,-96 -70.6667,-94.6667 -70,-95.3333 -61.3333,-90.6667 -50.6667,-82.6667 -46,-79.3333 -42.6667,-77.3333 -38.6667,-76 -53.3333,-82.6667 -54,-82 -56.6667,-79.3333 -55.3333,-78 -52.6667,-75.3333 -49.3333,-70.6667 -48.6667,-68.6667 -44,-62.6667 -42.6667,-56 -43.3333,-55.3333 -50.6667,-58.6667 -52,-60 -54.6667,-62.6667 -61.3333,-69.3333 -64,-72 -69.3333,-77.3333 -76,-84 -78.6667,-86.6667 -80,-88 -87.3333,-91.3333 -88.6667,-92.6667 -90.6667,-90.6667 -91.3333,-90 -97.3333,-92 -98,-91.3333 -97.3333,-89.3333 -93.3333,-85.3333 -90.6667,-82.6667 -82,-70 -74.6667,-64 -69.3333,-61.3333 -68,-54.6667 -69.3333,-53.3333 -74.6667,-53.3333 -78.6667,-52 -82.6667,-53.3333 -84,-52 -86.6667,-52 -88.6667,-52.6667 -91.3333,-47.3333 -92.6667,-48.6667 -106.667,-56 -112,-58.6667 -106.667,-53.3333 -101.333,-48 -99.3333,-44.6667 -96,-42.6667 -92,-41.3333 -90.6667,-40 -88,-37.3333 -82.6667,-32 -80.6667,-28.6667 -69.3333,-21.3333 -63.3333,-22 -60.6667,-27.3333 -59.3333,-34 -55.3333,-38 -50,-32.6667 -47.3333,-32.6667 -45.3333,-32 -42,-32.6667 -34.6667,-29.3333 -33.3333,-30.6667 -32.6667,-31.3333 -29.3333,-32 -26.6667,-32 -17.3333,-22.6667 -13.3333,-21.3333 -8.66667,-18 -9.33333,-20 -1.33333,-17.3333 5.33333,-13.3333 9.33333,-12 15.3333,-7.33333 22,-0.666667 22.6667,4 18,0.666667 14,-0.666667 7.33333,-4.66667"/>
  </object>
  <object id="532" x="9700" y="2028">
   <properties>
    <property name="collision" type="bool" value="true"/>
   </properties>
   <polygon points="0,0 14.6667,14.6667 20,17.3333 22,18 24,18.6667 26,19.3333 27.3333,20.6667 29.3333,18.6667 30,18 30.6667,17.3333 30,15.3333 30.6667,14.6667 30,12.6667 30.6667,12 31.3333,11.3333 36,12 36.6667,11.3333 40,13.3333 43.3333,12.6667 47.3333,14 48.6667,12.6667 50.6667,10.6667 59.3333,15.3333 62,18 63.3333,19.3333 74.6667,26.6667 76,25.3333 74.6667,21.3333 74,16.6667 71.3333,11.3333 66,3.33333 63.3333,0.666667 65.3333,-1.33333 72.6667,2 73.3333,1.33333 74.6667,2.66667 79.3333,6 80.6667,7.33333 82.6667,8 83.3333,7.33333 86.6667,9.33333 90.6667,10.6667 92.6667,11.3333 97.3333,14.6667 98.6667,16 100.667,14 101.333,13.3333 99.3333,10 95.3333,6 94,4.66667 94,2 98,-2 95.3333,-7.33333 94,-8.66667 94,-11.3333 96,-13.3333 97.3333,-14.6667 98.6667,-13.3333 102,-14 102.667,-14.6667 102,-16.6667 102.667,-20 103.333,-20.6667 106.667,-18.6667 116.667,-15.3333 120.667,-14 127.333,-12.6667 132.667,-12.6667 130.667,-18.6667 129.333,-22.6667 123.333,-30 120.667,-32.6667 115.333,-35.3333 113.333,-36 109.333,-40 104,-48 105.333,-49.3333 107.333,-51.3333 103.333,-55.3333 102,-54 101.333,-53.3333 100,-54.6667 93.3333,-61.3333 95.3333,-63.3333 96.6667,-64.6667 96,-66.6667 94,-70 94.6667,-70.6667 98,-71.3333 100.667,-71.3333 106,-66 110,-64.6667 112.667,-64.6667 118,-64.6667 116.667,-71.3333 114,-74 112.667,-75.3333 107.333,-80.6667 104.667,-83.3333 103.333,-87.3333 100.667,-92.6667 98.6667,-96 98.6667,-93.3333 96,-90.6667 94,-88.6667 92.6667,-90 90,-92.6667 89.3333,-94.6667 88.6667,-96.6667 88.6667,-99.3333 87.3333,-100.667 82,-106 80,-106.667 76,-108 72.6667,-110 68.6667,-114 66.6667,-117.333 65.3333,-121.333 66,-122 67.3333,-120.667 74.6667,-114.667 76.6667,-114 80.6667,-110 85.3333,-106.667 88,-106.667 90,-106 91.3333,-104.667 94,-104.667 94.6667,-108 93.3333,-112 94,-115.333 93.3333,-122.667 91.3333,-128.667 87.3333,-132.667 86.6667,-134.667 86,-136.667 83.3333,-144.667 82,-148.667 79.3333,-154 80,-154.667 78,-155.333 74,-156.667 72,-157.333 69.3333,-157.333 65.3333,-161.333 62.6667,-161.333 62,-160.667 61.3333,-160 62,-158 61.3333,-157.333 64,-154.667 68.6667,-151.333 71.3333,-148.667 70.6667,-148 69.3333,-146.667 66.6667,-149.333 62.6667,-150.667 62,-150 60.6667,-151.333 58,-156.667 55.3333,-159.333 52.6667,-164.667 50.6667,-170.667 48,-176 44,-182.667 40,-189.333 37.3333,-192 33.3333,-196 32.6667,-195.333 28.6667,-199.333 23.3333,-204.667 16.6667,-211.333 14,-214 12.6667,-215.333 3.33333,-222 -2,-224.667 -6,-226 -7.33333,-227.333 -11.3333,-228.667 -12.6667,-227.333 -16.6667,-228.667 -17.3333,-228 -18,-227.333 -14.6667,-217.333 -14,-215.333 -8.66667,-210 -6,-207.333 0.666667,-203.333 3.33333,-200.667 4.66667,-199.333 7.33333,-196.667 8,-194.667 6,-192.667 6,-190 6,-187.333 4,-188 0.666667,-190 -5.33333,-194.667 -5.33333,-189.333 -2.66667,-186.667 -0.666667,-188.667 2.66667,-186.667 4,-185.333 5.33333,-184 6,-179.333 7.33333,-178 14,-171.333 16.6667,-168.667 24,-162.667 27.3333,-160.667 28,-161.333 32.6667,-158 32,-157.333 31.3333,-154 30,-152.667 32,-149.333 31.3333,-148.667 26.6667,-152 22.6667,-156 20,-158.667 15.3333,-162 10.6667,-162.667 5.33333,-165.333 3.33333,-168.667 0,-173.333 -0.666667,-175.333 -4,-180 -11.3333,-188.667 -14,-191.333 -16,-192 -20,-193.333 -21.3333,-192 -16,-178.667 -20,-180 -24,-184 -22.6667,-188 -19.3333,-180.667 -18,-179.333 -18.6667,-178.667 -22,-178 -26,-179.333 -28,-180 -32,-181.333 -31.3333,-182 -32.6667,-186 -34,-192.667 -34,-198 -33.3333,-198.667 -34,-203.333 -32,-205.333 -28.6667,-206 -28,-209.333 -28.6667,-211.333 -30.6667,-220 -30.6667,-222.667 -32,-226.667 -32,-229.333 -29.3333,-232 -44,-252 -45.3333,-253.333 -49.3333,-249.333 -49.3333,-246.667 -50.6667,-240 -55.3333,-240.667 -58.6667,-237.333 -60,-236 -58,-230 -57.3333,-225.333 -54.6667,-220 -61.3333,-224 -62.6667,-225.333 -63.3333,-224.667 -66.6667,-226.667 -68.6667,-227.333 -69.3333,-226.667 -70,-226 -71.3333,-224.667 -70.6667,-220 -68,-214.667 -68.6667,-214 -67.3333,-210 -64.6667,-204.667 -62.6667,-201.333 -61.3333,-200 -60,-198.667 -59.3333,-196.667 -54.6667,-190.667 -53.3333,-189.333 -50.6667,-186.667 -48,-184 -46.6667,-182.667 -44,-180 -45.3333,-178.667 -44,-174.667 -42,-171.333 -48.6667,-172.667 -52.6667,-174 -50,-171.333 -55.3333,-174 -56,-173.333 -56.6667,-172.667 -51.3333,-167.333 -50,-166 -48,-162.667 -49.3333,-161.333 -48.6667,-156.667 -46,-151.333 -43.3333,-148.667 -43.3333,-146 -42.6667,-141.333 -48,-146.667 -46.6667,-148 -50.6667,-154.667 -55.3333,-160.667 -57.3333,-164 -61.3333,-176 -62.6667,-180 -63.3333,-182 -66,-187.333 -70,-194 -72.6667,-199.333 -81.3333,-209.333 -94.6667,-220 -94.6667,-214.667 -91.3333,-207.333 -86.6667,-201.333 -85.3333,-197.333 -85.3333,-194.667 -81.3333,-188 -86.6667,-193.333 -90.6667,-200 -93.3333,-205.333 -97.3333,-212 -98.6667,-213.333 -108.667,-224.667 -118.667,-236 -126,-242 -132,-244 -133.333,-242.667 -138,-240.667 -142,-242 -142.667,-233.333 -137.333,-225.333 -135.333,-222 -126.667,-212 -122.667,-208 -120,-205.333 -117.333,-202.667 -116,-201.333 -112,-197.333 -107.333,-194 -104.667,-191.333 -102,-191.333 -97.3333,-185.333 -95.3333,-179.333 -95.3333,-176.667 -96.6667,-175.333 -100,-174.667 -106,-176.667 -108.667,-176.667 -109.333,-176 -109.333,-173.333 -106.667,-170.667 -103.333,-168.667 -94,-164.667 -92,-164 -80.6667,-156.667 -74,-152.667 -60.6667,-139.333 -65.3333,-142.667 -56,-136 -56.6667,-135.333 -55.3333,-134 -52.6667,-131.333 -58.6667,-125.333 -60.6667,-126 -59.3333,-135.333 -64.6667,-140.667 -69.3333,-144 -76,-148 -88,-154.667 -92.6667,-152.667 -95.3333,-150 -90.6667,-138.667 -86.6667,-132 -82.6667,-125.333 -75.3333,-119.333 -68.6667,-112.667 -70,-111.333 -70.6667,-110.667 -74.6667,-112 -85.3333,-122.667 -86.6667,-124 -98.6667,-130.667 -103.333,-134 -110,-138 -114,-139.333 -116.667,-136.667 -119.333,-136.667 -120.667,-135.333 -122.667,-133.333 -126,-130 -126.667,-126.667 -126,-124.667 -122.667,-120 -115.333,-111.333 -104,-104 -87.3333,-99.3333 -86,-98 -83.3333,-98 -74.6667,-96 -72,-96 -70.6667,-94.6667 -70,-95.3333 -61.3333,-90.6667 -50.6667,-82.6667 -46,-79.3333 -42.6667,-77.3333 -38.6667,-76 -53.3333,-82.6667 -54,-82 -56.6667,-79.3333 -55.3333,-78 -52.6667,-75.3333 -49.3333,-70.6667 -48.6667,-68.6667 -44,-62.6667 -42.6667,-56 -43.3333,-55.3333 -50.6667,-58.6667 -52,-60 -54.6667,-62.6667 -61.3333,-69.3333 -64,-72 -69.3333,-77.3333 -76,-84 -78.6667,-86.6667 -80,-88 -87.3333,-91.3333 -88.6667,-92.6667 -90.6667,-90.6667 -91.3333,-90 -97.3333,-92 -98,-91.3333 -97.3333,-89.3333 -93.3333,-85.3333 -90.6667,-82.6667 -82,-70 -74.6667,-64 -69.3333,-61.3333 -68,-54.6667 -69.3333,-53.3333 -74.6667,-53.3333 -78.6667,-52 -82.6667,-53.3333 -84,-52 -86.6667,-52 -88.6667,-52.6667 -91.3333,-47.3333 -92.6667,-48.6667 -106.667,-56 -112,-58.6667 -106.667,-53.3333 -101.333,-48 -99.3333,-44.6667 -96,-42.6667 -92,-41.3333 -90.6667,-40 -88,-37.3333 -82.6667,-32 -80.6667,-28.6667 -69.3333,-21.3333 -63.3333,-22 -60.6667,-27.3333 -59.3333,-34 -55.3333,-38 -50,-32.6667 -47.3333,-32.6667 -45.3333,-32 -42,-32.6667 -34.6667,-29.3333 -33.3333,-30.6667 -32.6667,-31.3333 -29.3333,-32 -26.6667,-32 -17.3333,-22.6667 -13.3333,-21.3333 -8.66667,-18 -9.33333,-20 -1.33333,-17.3333 5.33333,-13.3333 9.33333,-12 15.3333,-7.33333 22,-0.666667 22.6667,4 18,0.666667 14,-0.666667 7.33333,-4.66667"/>
  </object>
  <object id="533" x="10465" y="1767">
   <properties>
    <property name="collision" type="bool" value="true"/>
   </properties>
   <polygon points="0,0 14.6667,14.6667 20,17.3333 22,18 24,18.6667 26,19.3333 27.3333,20.6667 29.3333,18.6667 30,18 30.6667,17.3333 30,15.3333 30.6667,14.6667 30,12.6667 30.6667,12 31.3333,11.3333 36,12 36.6667,11.3333 40,13.3333 43.3333,12.6667 47.3333,14 48.6667,12.6667 50.6667,10.6667 59.3333,15.3333 62,18 63.3333,19.3333 74.6667,26.6667 76,25.3333 74.6667,21.3333 74,16.6667 71.3333,11.3333 66,3.33333 63.3333,0.666667 65.3333,-1.33333 72.6667,2 73.3333,1.33333 74.6667,2.66667 79.3333,6 80.6667,7.33333 82.6667,8 83.3333,7.33333 86.6667,9.33333 90.6667,10.6667 92.6667,11.3333 97.3333,14.6667 98.6667,16 100.667,14 101.333,13.3333 99.3333,10 95.3333,6 94,4.66667 94,2 98,-2 95.3333,-7.33333 94,-8.66667 94,-11.3333 96,-13.3333 97.3333,-14.6667 98.6667,-13.3333 102,-14 102.667,-14.6667 102,-16.6667 102.667,-20 103.333,-20.6667 106.667,-18.6667 116.667,-15.3333 120.667,-14 127.333,-12.6667 132.667,-12.6667 130.667,-18.6667 129.333,-22.6667 123.333,-30 120.667,-32.6667 115.333,-35.3333 113.333,-36 109.333,-40 104,-48 105.333,-49.3333 107.333,-51.3333 103.333,-55.3333 102,-54 101.333,-53.3333 100,-54.6667 93.3333,-61.3333 95.3333,-63.3333 96.6667,-64.6667 96,-66.6667 94,-70 94.6667,-70.6667 98,-71.3333 100.667,-71.3333 106,-66 110,-64.6667 112.667,-64.6667 118,-64.6667 116.667,-71.3333 114,-74 112.667,-75.3333 107.333,-80.6667 104.667,-83.3333 103.333,-87.3333 100.667,-92.6667 98.6667,-96 98.6667,-93.3333 96,-90.6667 94,-88.6667 92.6667,-90 90,-92.6667 89.3333,-94.6667 88.6667,-96.6667 88.6667,-99.3333 87.3333,-100.667 82,-106 80,-106.667 76,-108 72.6667,-110 68.6667,-114 66.6667,-117.333 65.3333,-121.333 66,-122 67.3333,-120.667 74.6667,-114.667 76.6667,-114 80.6667,-110 85.3333,-106.667 88,-106.667 90,-106 91.3333,-104.667 94,-104.667 94.6667,-108 93.3333,-112 94,-115.333 93.3333,-122.667 91.3333,-128.667 87.3333,-132.667 86.6667,-134.667 86,-136.667 83.3333,-144.667 82,-148.667 79.3333,-154 80,-154.667 78,-155.333 74,-156.667 72,-157.333 69.3333,-157.333 65.3333,-161.333 62.6667,-161.333 62,-160.667 61.3333,-160 62,-158 61.3333,-157.333 64,-154.667 68.6667,-151.333 71.3333,-148.667 70.6667,-148 69.3333,-146.667 66.6667,-149.333 62.6667,-150.667 62,-150 60.6667,-151.333 58,-156.667 55.3333,-159.333 52.6667,-164.667 50.6667,-170.667 48,-176 44,-182.667 40,-189.333 37.3333,-192 33.3333,-196 32.6667,-195.333 28.6667,-199.333 23.3333,-204.667 16.6667,-211.333 14,-214 12.6667,-215.333 3.33333,-222 -2,-224.667 -6,-226 -7.33333,-227.333 -11.3333,-228.667 -12.6667,-227.333 -16.6667,-228.667 -17.3333,-228 -18,-227.333 -14.6667,-217.333 -14,-215.333 -8.66667,-210 -6,-207.333 0.666667,-203.333 3.33333,-200.667 4.66667,-199.333 7.33333,-196.667 8,-194.667 6,-192.667 6,-190 6,-187.333 4,-188 0.666667,-190 -5.33333,-194.667 -5.33333,-189.333 -2.66667,-186.667 -0.666667,-188.667 2.66667,-186.667 4,-185.333 5.33333,-184 6,-179.333 7.33333,-178 14,-171.333 16.6667,-168.667 24,-162.667 27.3333,-160.667 28,-161.333 32.6667,-158 32,-157.333 31.3333,-154 30,-152.667 32,-149.333 31.3333,-148.667 26.6667,-152 22.6667,-156 20,-158.667 15.3333,-162 10.6667,-162.667 5.33333,-165.333 3.33333,-168.667 0,-173.333 -0.666667,-175.333 -4,-180 -11.3333,-188.667 -14,-191.333 -16,-192 -20,-193.333 -21.3333,-192 -16,-178.667 -20,-180 -24,-184 -22.6667,-188 -19.3333,-180.667 -18,-179.333 -18.6667,-178.667 -22,-178 -26,-179.333 -28,-180 -32,-181.333 -31.3333,-182 -32.6667,-186 -34,-192.667 -34,-198 -33.3333,-198.667 -34,-203.333 -32,-205.333 -28.6667,-206 -28,-209.333 -28.6667,-211.333 -30.6667,-220 -30.6667,-222.667 -32,-226.667 -32,-229.333 -29.3333,-232 -44,-252 -45.3333,-253.333 -49.3333,-249.333 -49.3333,-246.667 -50.6667,-240 -55.3333,-240.667 -58.6667,-237.333 -60,-236 -58,-230 -57.3333,-225.333 -54.6667,-220 -61.3333,-224 -62.6667,-225.333 -63.3333,-224.667 -66.6667,-226.667 -68.6667,-227.333 -69.3333,-226.667 -70,-226 -71.3333,-224.667 -70.6667,-220 -68,-214.667 -68.6667,-214 -67.3333,-210 -64.6667,-204.667 -62.6667,-201.333 -61.3333,-200 -60,-198.667 -59.3333,-196.667 -54.6667,-190.667 -53.3333,-189.333 -50.6667,-186.667 -48,-184 -46.6667,-182.667 -44,-180 -45.3333,-178.667 -44,-174.667 -42,-171.333 -48.6667,-172.667 -52.6667,-174 -50,-171.333 -55.3333,-174 -56,-173.333 -56.6667,-172.667 -51.3333,-167.333 -50,-166 -48,-162.667 -49.3333,-161.333 -48.6667,-156.667 -46,-151.333 -43.3333,-148.667 -43.3333,-146 -42.6667,-141.333 -48,-146.667 -46.6667,-148 -50.6667,-154.667 -55.3333,-160.667 -57.3333,-164 -61.3333,-176 -62.6667,-180 -63.3333,-182 -66,-187.333 -70,-194 -72.6667,-199.333 -81.3333,-209.333 -94.6667,-220 -94.6667,-214.667 -91.3333,-207.333 -86.6667,-201.333 -85.3333,-197.333 -85.3333,-194.667 -81.3333,-188 -86.6667,-193.333 -90.6667,-200 -93.3333,-205.333 -97.3333,-212 -98.6667,-213.333 -108.667,-224.667 -118.667,-236 -126,-242 -132,-244 -133.333,-242.667 -138,-240.667 -142,-242 -142.667,-233.333 -137.333,-225.333 -135.333,-222 -126.667,-212 -122.667,-208 -120,-205.333 -117.333,-202.667 -116,-201.333 -112,-197.333 -107.333,-194 -104.667,-191.333 -102,-191.333 -97.3333,-185.333 -95.3333,-179.333 -95.3333,-176.667 -96.6667,-175.333 -100,-174.667 -106,-176.667 -108.667,-176.667 -109.333,-176 -109.333,-173.333 -106.667,-170.667 -103.333,-168.667 -94,-164.667 -92,-164 -80.6667,-156.667 -74,-152.667 -60.6667,-139.333 -65.3333,-142.667 -56,-136 -56.6667,-135.333 -55.3333,-134 -52.6667,-131.333 -58.6667,-125.333 -60.6667,-126 -59.3333,-135.333 -64.6667,-140.667 -69.3333,-144 -76,-148 -88,-154.667 -92.6667,-152.667 -95.3333,-150 -90.6667,-138.667 -86.6667,-132 -82.6667,-125.333 -75.3333,-119.333 -68.6667,-112.667 -70,-111.333 -70.6667,-110.667 -74.6667,-112 -85.3333,-122.667 -86.6667,-124 -98.6667,-130.667 -103.333,-134 -110,-138 -114,-139.333 -116.667,-136.667 -119.333,-136.667 -120.667,-135.333 -122.667,-133.333 -126,-130 -126.667,-126.667 -126,-124.667 -122.667,-120 -115.333,-111.333 -104,-104 -87.3333,-99.3333 -86,-98 -83.3333,-98 -74.6667,-96 -72,-96 -70.6667,-94.6667 -70,-95.3333 -61.3333,-90.6667 -50.6667,-82.6667 -46,-79.3333 -42.6667,-77.3333 -38.6667,-76 -53.3333,-82.6667 -54,-82 -56.6667,-79.3333 -55.3333,-78 -52.6667,-75.3333 -49.3333,-70.6667 -48.6667,-68.6667 -44,-62.6667 -42.6667,-56 -43.3333,-55.3333 -50.6667,-58.6667 -52,-60 -54.6667,-62.6667 -61.3333,-69.3333 -64,-72 -69.3333,-77.3333 -76,-84 -78.6667,-86.6667 -80,-88 -87.3333,-91.3333 -88.6667,-92.6667 -90.6667,-90.6667 -91.3333,-90 -97.3333,-92 -98,-91.3333 -97.3333,-89.3333 -93.3333,-85.3333 -90.6667,-82.6667 -82,-70 -74.6667,-64 -69.3333,-61.3333 -68,-54.6667 -69.3333,-53.3333 -74.6667,-53.3333 -78.6667,-52 -82.6667,-53.3333 -84,-52 -86.6667,-52 -88.6667,-52.6667 -91.3333,-47.3333 -92.6667,-48.6667 -106.667,-56 -112,-58.6667 -106.667,-53.3333 -101.333,-48 -99.3333,-44.6667 -96,-42.6667 -92,-41.3333 -90.6667,-40 -88,-37.3333 -82.6667,-32 -80.6667,-28.6667 -69.3333,-21.3333 -63.3333,-22 -60.6667,-27.3333 -59.3333,-34 -55.3333,-38 -50,-32.6667 -47.3333,-32.6667 -45.3333,-32 -42,-32.6667 -34.6667,-29.3333 -33.3333,-30.6667 -32.6667,-31.3333 -29.3333,-32 -26.6667,-32 -17.3333,-22.6667 -13.3333,-21.3333 -8.66667,-18 -9.33333,-20 -1.33333,-17.3333 5.33333,-13.3333 9.33333,-12 15.3333,-7.33333 22,-0.666667 22.6667,4 18,0.666667 14,-0.666667 7.33333,-4.66667"/>
  </object>
  <object id="535" x="12386" y="5098">
   <properties>
    <property name="collision" type="bool" value="true"/>
   </properties>
   <polygon points="0,0 14.6667,14.6667 20,17.3333 22,18 24,18.6667 26,19.3333 27.3333,20.6667 29.3333,18.6667 30,18 30.6667,17.3333 30,15.3333 30.6667,14.6667 30,12.6667 30.6667,12 31.3333,11.3333 36,12 36.6667,11.3333 40,13.3333 43.3333,12.6667 47.3333,14 48.6667,12.6667 50.6667,10.6667 59.3333,15.3333 62,18 63.3333,19.3333 74.6667,26.6667 76,25.3333 74.6667,21.3333 74,16.6667 71.3333,11.3333 66,3.33333 63.3333,0.666667 65.3333,-1.33333 72.6667,2 73.3333,1.33333 74.6667,2.66667 79.3333,6 80.6667,7.33333 82.6667,8 83.3333,7.33333 86.6667,9.33333 90.6667,10.6667 92.6667,11.3333 97.3333,14.6667 98.6667,16 100.667,14 101.333,13.3333 99.3333,10 95.3333,6 94,4.66667 94,2 98,-2 95.3333,-7.33333 94,-8.66667 94,-11.3333 96,-13.3333 97.3333,-14.6667 98.6667,-13.3333 102,-14 102.667,-14.6667 102,-16.6667 102.667,-20 103.333,-20.6667 106.667,-18.6667 116.667,-15.3333 120.667,-14 127.333,-12.6667 132.667,-12.6667 130.667,-18.6667 129.333,-22.6667 123.333,-30 120.667,-32.6667 115.333,-35.3333 113.333,-36 109.333,-40 104,-48 105.333,-49.3333 107.333,-51.3333 103.333,-55.3333 102,-54 101.333,-53.3333 100,-54.6667 93.3333,-61.3333 95.3333,-63.3333 96.6667,-64.6667 96,-66.6667 94,-70 94.6667,-70.6667 98,-71.3333 100.667,-71.3333 106,-66 110,-64.6667 112.667,-64.6667 118,-64.6667 116.667,-71.3333 114,-74 112.667,-75.3333 107.333,-80.6667 104.667,-83.3333 103.333,-87.3333 100.667,-92.6667 98.6667,-96 98.6667,-93.3333 96,-90.6667 94,-88.6667 92.6667,-90 90,-92.6667 89.3333,-94.6667 88.6667,-96.6667 88.6667,-99.3333 87.3333,-100.667 82,-106 80,-106.667 76,-108 72.6667,-110 68.6667,-114 66.6667,-117.333 65.3333,-121.333 66,-122 67.3333,-120.667 74.6667,-114.667 76.6667,-114 80.6667,-110 85.3333,-106.667 88,-106.667 90,-106 91.3333,-104.667 94,-104.667 94.6667,-108 93.3333,-112 94,-115.333 93.3333,-122.667 91.3333,-128.667 87.3333,-132.667 86.6667,-134.667 86,-136.667 83.3333,-144.667 82,-148.667 79.3333,-154 80,-154.667 78,-155.333 74,-156.667 72,-157.333 69.3333,-157.333 65.3333,-161.333 62.6667,-161.333 62,-160.667 61.3333,-160 62,-158 61.3333,-157.333 64,-154.667 68.6667,-151.333 71.3333,-148.667 70.6667,-148 69.3333,-146.667 66.6667,-149.333 62.6667,-150.667 62,-150 60.6667,-151.333 58,-156.667 55.3333,-159.333 52.6667,-164.667 50.6667,-170.667 48,-176 44,-182.667 40,-189.333 37.3333,-192 33.3333,-196 32.6667,-195.333 28.6667,-199.333 23.3333,-204.667 16.6667,-211.333 14,-214 12.6667,-215.333 3.33333,-222 -2,-224.667 -6,-226 -7.33333,-227.333 -11.3333,-228.667 -12.6667,-227.333 -16.6667,-228.667 -17.3333,-228 -18,-227.333 -14.6667,-217.333 -14,-215.333 -8.66667,-210 -6,-207.333 0.666667,-203.333 3.33333,-200.667 4.66667,-199.333 7.33333,-196.667 8,-194.667 6,-192.667 6,-190 6,-187.333 4,-188 0.666667,-190 -5.33333,-194.667 -5.33333,-189.333 -2.66667,-186.667 -0.666667,-188.667 2.66667,-186.667 4,-185.333 5.33333,-184 6,-179.333 7.33333,-178 14,-171.333 16.6667,-168.667 24,-162.667 27.3333,-160.667 28,-161.333 32.6667,-158 32,-157.333 31.3333,-154 30,-152.667 32,-149.333 31.3333,-148.667 26.6667,-152 22.6667,-156 20,-158.667 15.3333,-162 10.6667,-162.667 5.33333,-165.333 3.33333,-168.667 0,-173.333 -0.666667,-175.333 -4,-180 -11.3333,-188.667 -14,-191.333 -16,-192 -20,-193.333 -21.3333,-192 -16,-178.667 -20,-180 -24,-184 -22.6667,-188 -19.3333,-180.667 -18,-179.333 -18.6667,-178.667 -22,-178 -26,-179.333 -28,-180 -32,-181.333 -31.3333,-182 -32.6667,-186 -34,-192.667 -34,-198 -33.3333,-198.667 -34,-203.333 -32,-205.333 -28.6667,-206 -28,-209.333 -28.6667,-211.333 -30.6667,-220 -30.6667,-222.667 -32,-226.667 -32,-229.333 -29.3333,-232 -44,-252 -45.3333,-253.333 -49.3333,-249.333 -49.3333,-246.667 -50.6667,-240 -55.3333,-240.667 -58.6667,-237.333 -60,-236 -58,-230 -57.3333,-225.333 -54.6667,-220 -61.3333,-224 -62.6667,-225.333 -63.3333,-224.667 -66.6667,-226.667 -68.6667,-227.333 -69.3333,-226.667 -70,-226 -71.3333,-224.667 -70.6667,-220 -68,-214.667 -68.6667,-214 -67.3333,-210 -64.6667,-204.667 -62.6667,-201.333 -61.3333,-200 -60,-198.667 -59.3333,-196.667 -54.6667,-190.667 -53.3333,-189.333 -50.6667,-186.667 -48,-184 -46.6667,-182.667 -44,-180 -45.3333,-178.667 -44,-174.667 -42,-171.333 -48.6667,-172.667 -52.6667,-174 -50,-171.333 -55.3333,-174 -56,-173.333 -56.6667,-172.667 -51.3333,-167.333 -50,-166 -48,-162.667 -49.3333,-161.333 -48.6667,-156.667 -46,-151.333 -43.3333,-148.667 -43.3333,-146 -42.6667,-141.333 -48,-146.667 -46.6667,-148 -50.6667,-154.667 -55.3333,-160.667 -57.3333,-164 -61.3333,-176 -62.6667,-180 -63.3333,-182 -66,-187.333 -70,-194 -72.6667,-199.333 -81.3333,-209.333 -94.6667,-220 -94.6667,-214.667 -91.3333,-207.333 -86.6667,-201.333 -85.3333,-197.333 -85.3333,-194.667 -81.3333,-188 -86.6667,-193.333 -90.6667,-200 -93.3333,-205.333 -97.3333,-212 -98.6667,-213.333 -108.667,-224.667 -118.667,-236 -126,-242 -132,-244 -133.333,-242.667 -138,-240.667 -142,-242 -142.667,-233.333 -137.333,-225.333 -135.333,-222 -126.667,-212 -122.667,-208 -120,-205.333 -117.333,-202.667 -116,-201.333 -112,-197.333 -107.333,-194 -104.667,-191.333 -102,-191.333 -97.3333,-185.333 -95.3333,-179.333 -95.3333,-176.667 -96.6667,-175.333 -100,-174.667 -106,-176.667 -108.667,-176.667 -109.333,-176 -109.333,-173.333 -106.667,-170.667 -103.333,-168.667 -94,-164.667 -92,-164 -80.6667,-156.667 -74,-152.667 -60.6667,-139.333 -65.3333,-142.667 -56,-136 -56.6667,-135.333 -55.3333,-134 -52.6667,-131.333 -58.6667,-125.333 -60.6667,-126 -59.3333,-135.333 -64.6667,-140.667 -69.3333,-144 -76,-148 -88,-154.667 -92.6667,-152.667 -95.3333,-150 -90.6667,-138.667 -86.6667,-132 -82.6667,-125.333 -75.3333,-119.333 -68.6667,-112.667 -70,-111.333 -70.6667,-110.667 -74.6667,-112 -85.3333,-122.667 -86.6667,-124 -98.6667,-130.667 -103.333,-134 -110,-138 -114,-139.333 -116.667,-136.667 -119.333,-136.667 -120.667,-135.333 -122.667,-133.333 -126,-130 -126.667,-126.667 -126,-124.667 -122.667,-120 -115.333,-111.333 -104,-104 -87.3333,-99.3333 -86,-98 -83.3333,-98 -74.6667,-96 -72,-96 -70.6667,-94.6667 -70,-95.3333 -61.3333,-90.6667 -50.6667,-82.6667 -46,-79.3333 -42.6667,-77.3333 -38.6667,-76 -53.3333,-82.6667 -54,-82 -56.6667,-79.3333 -55.3333,-78 -52.6667,-75.3333 -49.3333,-70.6667 -48.6667,-68.6667 -44,-62.6667 -42.6667,-56 -43.3333,-55.3333 -50.6667,-58.6667 -52,-60 -54.6667,-62.6667 -61.3333,-69.3333 -64,-72 -69.3333,-77.3333 -76,-84 -78.6667,-86.6667 -80,-88 -87.3333,-91.3333 -88.6667,-92.6667 -90.6667,-90.6667 -91.3333,-90 -97.3333,-92 -98,-91.3333 -97.3333,-89.3333 -93.3333,-85.3333 -90.6667,-82.6667 -82,-70 -74.6667,-64 -69.3333,-61.3333 -68,-54.6667 -69.3333,-53.3333 -74.6667,-53.3333 -78.6667,-52 -82.6667,-53.3333 -84,-52 -86.6667,-52 -88.6667,-52.6667 -91.3333,-47.3333 -92.6667,-48.6667 -106.667,-56 -112,-58.6667 -106.667,-53.3333 -101.333,-48 -99.3333,-44.6667 -96,-42.6667 -92,-41.3333 -90.6667,-40 -88,-37.3333 -82.6667,-32 -80.6667,-28.6667 -69.3333,-21.3333 -63.3333,-22 -60.6667,-27.3333 -59.3333,-34 -55.3333,-38 -50,-32.6667 -47.3333,-32.6667 -45.3333,-32 -42,-32.6667 -34.6667,-29.3333 -33.3333,-30.6667 -32.6667,-31.3333 -29.3333,-32 -26.6667,-32 -17.3333,-22.6667 -13.3333,-21.3333 -8.66667,-18 -9.33333,-20 -1.33333,-17.3333 5.33333,-13.3333 9.33333,-12 15.3333,-7.33333 22,-0.666667 22.6667,4 18,0.666667 14,-0.666667 7.33333,-4.66667"/>
  </object>
  <object id="536" x="13407" y="6889">
   <properties>
    <property name="collision" type="bool" value="true"/>
   </properties>
   <polygon points="0,0 14.6667,14.6667 20,17.3333 22,18 24,18.6667 26,19.3333 27.3333,20.6667 29.3333,18.6667 30,18 30.6667,17.3333 30,15.3333 30.6667,14.6667 30,12.6667 30.6667,12 31.3333,11.3333 36,12 36.6667,11.3333 40,13.3333 43.3333,12.6667 47.3333,14 48.6667,12.6667 50.6667,10.6667 59.3333,15.3333 62,18 63.3333,19.3333 74.6667,26.6667 76,25.3333 74.6667,21.3333 74,16.6667 71.3333,11.3333 66,3.33333 63.3333,0.666667 65.3333,-1.33333 72.6667,2 73.3333,1.33333 74.6667,2.66667 79.3333,6 80.6667,7.33333 82.6667,8 83.3333,7.33333 86.6667,9.33333 90.6667,10.6667 92.6667,11.3333 97.3333,14.6667 98.6667,16 100.667,14 101.333,13.3333 99.3333,10 95.3333,6 94,4.66667 94,2 98,-2 95.3333,-7.33333 94,-8.66667 94,-11.3333 96,-13.3333 97.3333,-14.6667 98.6667,-13.3333 102,-14 102.667,-14.6667 102,-16.6667 102.667,-20 103.333,-20.6667 106.667,-18.6667 116.667,-15.3333 120.667,-14 127.333,-12.6667 132.667,-12.6667 130.667,-18.6667 129.333,-22.6667 123.333,-30 120.667,-32.6667 115.333,-35.3333 113.333,-36 109.333,-40 104,-48 105.333,-49.3333 107.333,-51.3333 103.333,-55.3333 102,-54 101.333,-53.3333 100,-54.6667 93.3333,-61.3333 95.3333,-63.3333 96.6667,-64.6667 96,-66.6667 94,-70 94.6667,-70.6667 98,-71.3333 100.667,-71.3333 106,-66 110,-64.6667 112.667,-64.6667 118,-64.6667 116.667,-71.3333 114,-74 112.667,-75.3333 107.333,-80.6667 104.667,-83.3333 103.333,-87.3333 100.667,-92.6667 98.6667,-96 98.6667,-93.3333 96,-90.6667 94,-88.6667 92.6667,-90 90,-92.6667 89.3333,-94.6667 88.6667,-96.6667 88.6667,-99.3333 87.3333,-100.667 82,-106 80,-106.667 76,-108 72.6667,-110 68.6667,-114 66.6667,-117.333 65.3333,-121.333 66,-122 67.3333,-120.667 74.6667,-114.667 76.6667,-114 80.6667,-110 85.3333,-106.667 88,-106.667 90,-106 91.3333,-104.667 94,-104.667 94.6667,-108 93.3333,-112 94,-115.333 93.3333,-122.667 91.3333,-128.667 87.3333,-132.667 86.6667,-134.667 86,-136.667 83.3333,-144.667 82,-148.667 79.3333,-154 80,-154.667 78,-155.333 74,-156.667 72,-157.333 69.3333,-157.333 65.3333,-161.333 62.6667,-161.333 62,-160.667 61.3333,-160 62,-158 61.3333,-157.333 64,-154.667 68.6667,-151.333 71.3333,-148.667 70.6667,-148 69.3333,-146.667 66.6667,-149.333 62.6667,-150.667 62,-150 60.6667,-151.333 58,-156.667 55.3333,-159.333 52.6667,-164.667 50.6667,-170.667 48,-176 44,-182.667 40,-189.333 37.3333,-192 33.3333,-196 32.6667,-195.333 28.6667,-199.333 23.3333,-204.667 16.6667,-211.333 14,-214 12.6667,-215.333 3.33333,-222 -2,-224.667 -6,-226 -7.33333,-227.333 -11.3333,-228.667 -12.6667,-227.333 -16.6667,-228.667 -17.3333,-228 -18,-227.333 -14.6667,-217.333 -14,-215.333 -8.66667,-210 -6,-207.333 0.666667,-203.333 3.33333,-200.667 4.66667,-199.333 7.33333,-196.667 8,-194.667 6,-192.667 6,-190 6,-187.333 4,-188 0.666667,-190 -5.33333,-194.667 -5.33333,-189.333 -2.66667,-186.667 -0.666667,-188.667 2.66667,-186.667 4,-185.333 5.33333,-184 6,-179.333 7.33333,-178 14,-171.333 16.6667,-168.667 24,-162.667 27.3333,-160.667 28,-161.333 32.6667,-158 32,-157.333 31.3333,-154 30,-152.667 32,-149.333 31.3333,-148.667 26.6667,-152 22.6667,-156 20,-158.667 15.3333,-162 10.6667,-162.667 5.33333,-165.333 3.33333,-168.667 0,-173.333 -0.666667,-175.333 -4,-180 -11.3333,-188.667 -14,-191.333 -16,-192 -20,-193.333 -21.3333,-192 -16,-178.667 -20,-180 -24,-184 -22.6667,-188 -19.3333,-180.667 -18,-179.333 -18.6667,-178.667 -22,-178 -26,-179.333 -28,-180 -32,-181.333 -31.3333,-182 -32.6667,-186 -34,-192.667 -34,-198 -33.3333,-198.667 -34,-203.333 -32,-205.333 -28.6667,-206 -28,-209.333 -28.6667,-211.333 -30.6667,-220 -30.6667,-222.667 -32,-226.667 -32,-229.333 -29.3333,-232 -44,-252 -45.3333,-253.333 -49.3333,-249.333 -49.3333,-246.667 -50.6667,-240 -55.3333,-240.667 -58.6667,-237.333 -60,-236 -58,-230 -57.3333,-225.333 -54.6667,-220 -61.3333,-224 -62.6667,-225.333 -63.3333,-224.667 -66.6667,-226.667 -68.6667,-227.333 -69.3333,-226.667 -70,-226 -71.3333,-224.667 -70.6667,-220 -68,-214.667 -68.6667,-214 -67.3333,-210 -64.6667,-204.667 -62.6667,-201.333 -61.3333,-200 -60,-198.667 -59.3333,-196.667 -54.6667,-190.667 -53.3333,-189.333 -50.6667,-186.667 -48,-184 -46.6667,-182.667 -44,-180 -45.3333,-178.667 -44,-174.667 -42,-171.333 -48.6667,-172.667 -52.6667,-174 -50,-171.333 -55.3333,-174 -56,-173.333 -56.6667,-172.667 -51.3333,-167.333 -50,-166 -48,-162.667 -49.3333,-161.333 -48.6667,-156.667 -46,-151.333 -43.3333,-148.667 -43.3333,-146 -42.6667,-141.333 -48,-146.667 -46.6667,-148 -50.6667,-154.667 -55.3333,-160.667 -57.3333,-164 -61.3333,-176 -62.6667,-180 -63.3333,-182 -66,-187.333 -70,-194 -72.6667,-199.333 -81.3333,-209.333 -94.6667,-220 -94.6667,-214.667 -91.3333,-207.333 -86.6667,-201.333 -85.3333,-197.333 -85.3333,-194.667 -81.3333,-188 -86.6667,-193.333 -90.6667,-200 -93.3333,-205.333 -97.3333,-212 -98.6667,-213.333 -108.667,-224.667 -118.667,-236 -126,-242 -132,-244 -133.333,-242.667 -138,-240.667 -142,-242 -142.667,-233.333 -137.333,-225.333 -135.333,-222 -126.667,-212 -122.667,-208 -120,-205.333 -117.333,-202.667 -116,-201.333 -112,-197.333 -107.333,-194 -104.667,-191.333 -102,-191.333 -97.3333,-185.333 -95.3333,-179.333 -95.3333,-176.667 -96.6667,-175.333 -100,-174.667 -106,-176.667 -108.667,-176.667 -109.333,-176 -109.333,-173.333 -106.667,-170.667 -103.333,-168.667 -94,-164.667 -92,-164 -80.6667,-156.667 -74,-152.667 -60.6667,-139.333 -65.3333,-142.667 -56,-136 -56.6667,-135.333 -55.3333,-134 -52.6667,-131.333 -58.6667,-125.333 -60.6667,-126 -59.3333,-135.333 -64.6667,-140.667 -69.3333,-144 -76,-148 -88,-154.667 -92.6667,-152.667 -95.3333,-150 -90.6667,-138.667 -86.6667,-132 -82.6667,-125.333 -75.3333,-119.333 -68.6667,-112.667 -70,-111.333 -70.6667,-110.667 -74.6667,-112 -85.3333,-122.667 -86.6667,-124 -98.6667,-130.667 -103.333,-134 -110,-138 -114,-139.333 -116.667,-136.667 -119.333,-136.667 -120.667,-135.333 -122.667,-133.333 -126,-130 -126.667,-126.667 -126,-124.667 -122.667,-120 -115.333,-111.333 -104,-104 -87.3333,-99.3333 -86,-98 -83.3333,-98 -74.6667,-96 -72,-96 -70.6667,-94.6667 -70,-95.3333 -61.3333,-90.6667 -50.6667,-82.6667 -46,-79.3333 -42.6667,-77.3333 -38.6667,-76 -53.3333,-82.6667 -54,-82 -56.6667,-79.3333 -55.3333,-78 -52.6667,-75.3333 -49.3333,-70.6667 -48.6667,-68.6667 -44,-62.6667 -42.6667,-56 -43.3333,-55.3333 -50.6667,-58.6667 -52,-60 -54.6667,-62.6667 -61.3333,-69.3333 -64,-72 -69.3333,-77.3333 -76,-84 -78.6667,-86.6667 -80,-88 -87.3333,-91.3333 -88.6667,-92.6667 -90.6667,-90.6667 -91.3333,-90 -97.3333,-92 -98,-91.3333 -97.3333,-89.3333 -93.3333,-85.3333 -90.6667,-82.6667 -82,-70 -74.6667,-64 -69.3333,-61.3333 -68,-54.6667 -69.3333,-53.3333 -74.6667,-53.3333 -78.6667,-52 -82.6667,-53.3333 -84,-52 -86.6667,-52 -88.6667,-52.6667 -91.3333,-47.3333 -92.6667,-48.6667 -106.667,-56 -112,-58.6667 -106.667,-53.3333 -101.333,-48 -99.3333,-44.6667 -96,-42.6667 -92,-41.3333 -90.6667,-40 -88,-37.3333 -82.6667,-32 -80.6667,-28.6667 -69.3333,-21.3333 -63.3333,-22 -60.6667,-27.3333 -59.3333,-34 -55.3333,-38 -50,-32.6667 -47.3333,-32.6667 -45.3333,-32 -42,-32.6667 -34.6667,-29.3333 -33.3333,-30.6667 -32.6667,-31.3333 -29.3333,-32 -26.6667,-32 -17.3333,-22.6667 -13.3333,-21.3333 -8.66667,-18 -9.33333,-20 -1.33333,-17.3333 5.33333,-13.3333 9.33333,-12 15.3333,-7.33333 22,-0.666667 22.6667,4 18,0.666667 14,-0.666667 7.33333,-4.66667"/>
  </object>
  <object id="537" x="11618" y="6762">
   <properties>
    <property name="collision" type="bool" value="true"/>
   </properties>
   <polygon points="0,0 14.6667,14.6667 20,17.3333 22,18 24,18.6667 26,19.3333 27.3333,20.6667 29.3333,18.6667 30,18 30.6667,17.3333 30,15.3333 30.6667,14.6667 30,12.6667 30.6667,12 31.3333,11.3333 36,12 36.6667,11.3333 40,13.3333 43.3333,12.6667 47.3333,14 48.6667,12.6667 50.6667,10.6667 59.3333,15.3333 62,18 63.3333,19.3333 74.6667,26.6667 76,25.3333 74.6667,21.3333 74,16.6667 71.3333,11.3333 66,3.33333 63.3333,0.666667 65.3333,-1.33333 72.6667,2 73.3333,1.33333 74.6667,2.66667 79.3333,6 80.6667,7.33333 82.6667,8 83.3333,7.33333 86.6667,9.33333 90.6667,10.6667 92.6667,11.3333 97.3333,14.6667 98.6667,16 100.667,14 101.333,13.3333 99.3333,10 95.3333,6 94,4.66667 94,2 98,-2 95.3333,-7.33333 94,-8.66667 94,-11.3333 96,-13.3333 97.3333,-14.6667 98.6667,-13.3333 102,-14 102.667,-14.6667 102,-16.6667 102.667,-20 103.333,-20.6667 106.667,-18.6667 116.667,-15.3333 120.667,-14 127.333,-12.6667 132.667,-12.6667 130.667,-18.6667 129.333,-22.6667 123.333,-30 120.667,-32.6667 115.333,-35.3333 113.333,-36 109.333,-40 104,-48 105.333,-49.3333 107.333,-51.3333 103.333,-55.3333 102,-54 101.333,-53.3333 100,-54.6667 93.3333,-61.3333 95.3333,-63.3333 96.6667,-64.6667 96,-66.6667 94,-70 94.6667,-70.6667 98,-71.3333 100.667,-71.3333 106,-66 110,-64.6667 112.667,-64.6667 118,-64.6667 116.667,-71.3333 114,-74 112.667,-75.3333 107.333,-80.6667 104.667,-83.3333 103.333,-87.3333 100.667,-92.6667 98.6667,-96 98.6667,-93.3333 96,-90.6667 94,-88.6667 92.6667,-90 90,-92.6667 89.3333,-94.6667 88.6667,-96.6667 88.6667,-99.3333 87.3333,-100.667 82,-106 80,-106.667 76,-108 72.6667,-110 68.6667,-114 66.6667,-117.333 65.3333,-121.333 66,-122 67.3333,-120.667 74.6667,-114.667 76.6667,-114 80.6667,-110 85.3333,-106.667 88,-106.667 90,-106 91.3333,-104.667 94,-104.667 94.6667,-108 93.3333,-112 94,-115.333 93.3333,-122.667 91.3333,-128.667 87.3333,-132.667 86.6667,-134.667 86,-136.667 83.3333,-144.667 82,-148.667 79.3333,-154 80,-154.667 78,-155.333 74,-156.667 72,-157.333 69.3333,-157.333 65.3333,-161.333 62.6667,-161.333 62,-160.667 61.3333,-160 62,-158 61.3333,-157.333 64,-154.667 68.6667,-151.333 71.3333,-148.667 70.6667,-148 69.3333,-146.667 66.6667,-149.333 62.6667,-150.667 62,-150 60.6667,-151.333 58,-156.667 55.3333,-159.333 52.6667,-164.667 50.6667,-170.667 48,-176 44,-182.667 40,-189.333 37.3333,-192 33.3333,-196 32.6667,-195.333 28.6667,-199.333 23.3333,-204.667 16.6667,-211.333 14,-214 12.6667,-215.333 3.33333,-222 -2,-224.667 -6,-226 -7.33333,-227.333 -11.3333,-228.667 -12.6667,-227.333 -16.6667,-228.667 -17.3333,-228 -18,-227.333 -14.6667,-217.333 -14,-215.333 -8.66667,-210 -6,-207.333 0.666667,-203.333 3.33333,-200.667 4.66667,-199.333 7.33333,-196.667 8,-194.667 6,-192.667 6,-190 6,-187.333 4,-188 0.666667,-190 -5.33333,-194.667 -5.33333,-189.333 -2.66667,-186.667 -0.666667,-188.667 2.66667,-186.667 4,-185.333 5.33333,-184 6,-179.333 7.33333,-178 14,-171.333 16.6667,-168.667 24,-162.667 27.3333,-160.667 28,-161.333 32.6667,-158 32,-157.333 31.3333,-154 30,-152.667 32,-149.333 31.3333,-148.667 26.6667,-152 22.6667,-156 20,-158.667 15.3333,-162 10.6667,-162.667 5.33333,-165.333 3.33333,-168.667 0,-173.333 -0.666667,-175.333 -4,-180 -11.3333,-188.667 -14,-191.333 -16,-192 -20,-193.333 -21.3333,-192 -16,-178.667 -20,-180 -24,-184 -22.6667,-188 -19.3333,-180.667 -18,-179.333 -18.6667,-178.667 -22,-178 -26,-179.333 -28,-180 -32,-181.333 -31.3333,-182 -32.6667,-186 -34,-192.667 -34,-198 -33.3333,-198.667 -34,-203.333 -32,-205.333 -28.6667,-206 -28,-209.333 -28.6667,-211.333 -30.6667,-220 -30.6667,-222.667 -32,-226.667 -32,-229.333 -29.3333,-232 -44,-252 -45.3333,-253.333 -49.3333,-249.333 -49.3333,-246.667 -50.6667,-240 -55.3333,-240.667 -58.6667,-237.333 -60,-236 -58,-230 -57.3333,-225.333 -54.6667,-220 -61.3333,-224 -62.6667,-225.333 -63.3333,-224.667 -66.6667,-226.667 -68.6667,-227.333 -69.3333,-226.667 -70,-226 -71.3333,-224.667 -70.6667,-220 -68,-214.667 -68.6667,-214 -67.3333,-210 -64.6667,-204.667 -62.6667,-201.333 -61.3333,-200 -60,-198.667 -59.3333,-196.667 -54.6667,-190.667 -53.3333,-189.333 -50.6667,-186.667 -48,-184 -46.6667,-182.667 -44,-180 -45.3333,-178.667 -44,-174.667 -42,-171.333 -48.6667,-172.667 -52.6667,-174 -50,-171.333 -55.3333,-174 -56,-173.333 -56.6667,-172.667 -51.3333,-167.333 -50,-166 -48,-162.667 -49.3333,-161.333 -48.6667,-156.667 -46,-151.333 -43.3333,-148.667 -43.3333,-146 -42.6667,-141.333 -48,-146.667 -46.6667,-148 -50.6667,-154.667 -55.3333,-160.667 -57.3333,-164 -61.3333,-176 -62.6667,-180 -63.3333,-182 -66,-187.333 -70,-194 -72.6667,-199.333 -81.3333,-209.333 -94.6667,-220 -94.6667,-214.667 -91.3333,-207.333 -86.6667,-201.333 -85.3333,-197.333 -85.3333,-194.667 -81.3333,-188 -86.6667,-193.333 -90.6667,-200 -93.3333,-205.333 -97.3333,-212 -98.6667,-213.333 -108.667,-224.667 -118.667,-236 -126,-242 -132,-244 -133.333,-242.667 -138,-240.667 -142,-242 -142.667,-233.333 -137.333,-225.333 -135.333,-222 -126.667,-212 -122.667,-208 -120,-205.333 -117.333,-202.667 -116,-201.333 -112,-197.333 -107.333,-194 -104.667,-191.333 -102,-191.333 -97.3333,-185.333 -95.3333,-179.333 -95.3333,-176.667 -96.6667,-175.333 -100,-174.667 -106,-176.667 -108.667,-176.667 -109.333,-176 -109.333,-173.333 -106.667,-170.667 -103.333,-168.667 -94,-164.667 -92,-164 -80.6667,-156.667 -74,-152.667 -60.6667,-139.333 -65.3333,-142.667 -56,-136 -56.6667,-135.333 -55.3333,-134 -52.6667,-131.333 -58.6667,-125.333 -60.6667,-126 -59.3333,-135.333 -64.6667,-140.667 -69.3333,-144 -76,-148 -88,-154.667 -92.6667,-152.667 -95.3333,-150 -90.6667,-138.667 -86.6667,-132 -82.6667,-125.333 -75.3333,-119.333 -68.6667,-112.667 -70,-111.333 -70.6667,-110.667 -74.6667,-112 -85.3333,-122.667 -86.6667,-124 -98.6667,-130.667 -103.333,-134 -110,-138 -114,-139.333 -116.667,-136.667 -119.333,-136.667 -120.667,-135.333 -122.667,-133.333 -126,-130 -126.667,-126.667 -126,-124.667 -122.667,-120 -115.333,-111.333 -104,-104 -87.3333,-99.3333 -86,-98 -83.3333,-98 -74.6667,-96 -72,-96 -70.6667,-94.6667 -70,-95.3333 -61.3333,-90.6667 -50.6667,-82.6667 -46,-79.3333 -42.6667,-77.3333 -38.6667,-76 -53.3333,-82.6667 -54,-82 -56.6667,-79.3333 -55.3333,-78 -52.6667,-75.3333 -49.3333,-70.6667 -48.6667,-68.6667 -44,-62.6667 -42.6667,-56 -43.3333,-55.3333 -50.6667,-58.6667 -52,-60 -54.6667,-62.6667 -61.3333,-69.3333 -64,-72 -69.3333,-77.3333 -76,-84 -78.6667,-86.6667 -80,-88 -87.3333,-91.3333 -88.6667,-92.6667 -90.6667,-90.6667 -91.3333,-90 -97.3333,-92 -98,-91.3333 -97.3333,-89.3333 -93.3333,-85.3333 -90.6667,-82.6667 -82,-70 -74.6667,-64 -69.3333,-61.3333 -68,-54.6667 -69.3333,-53.3333 -74.6667,-53.3333 -78.6667,-52 -82.6667,-53.3333 -84,-52 -86.6667,-52 -88.6667,-52.6667 -91.3333,-47.3333 -92.6667,-48.6667 -106.667,-56 -112,-58.6667 -106.667,-53.3333 -101.333,-48 -99.3333,-44.6667 -96,-42.6667 -92,-41.3333 -90.6667,-40 -88,-37.3333 -82.6667,-32 -80.6667,-28.6667 -69.3333,-21.3333 -63.3333,-22 -60.6667,-27.3333 -59.3333,-34 -55.3333,-38 -50,-32.6667 -47.3333,-32.6667 -45.3333,-32 -42,-32.6667 -34.6667,-29.3333 -33.3333,-30.6667 -32.6667,-31.3333 -29.3333,-32 -26.6667,-32 -17.3333,-22.6667 -13.3333,-21.3333 -8.66667,-18 -9.33333,-20 -1.33333,-17.3333 5.33333,-13.3333 9.33333,-12 15.3333,-7.33333 22,-0.666667 22.6667,4 18,0.666667 14,-0.666667 7.33333,-4.66667"/>
  </object>
  <object id="538" x="10849" y="5483">
   <properties>
    <property name="collision" type="bool" value="true"/>
   </properties>
   <polygon points="0,0 14.6667,14.6667 20,17.3333 22,18 24,18.6667 26,19.3333 27.3333,20.6667 29.3333,18.6667 30,18 30.6667,17.3333 30,15.3333 30.6667,14.6667 30,12.6667 30.6667,12 31.3333,11.3333 36,12 36.6667,11.3333 40,13.3333 43.3333,12.6667 47.3333,14 48.6667,12.6667 50.6667,10.6667 59.3333,15.3333 62,18 63.3333,19.3333 74.6667,26.6667 76,25.3333 74.6667,21.3333 74,16.6667 71.3333,11.3333 66,3.33333 63.3333,0.666667 65.3333,-1.33333 72.6667,2 73.3333,1.33333 74.6667,2.66667 79.3333,6 80.6667,7.33333 82.6667,8 83.3333,7.33333 86.6667,9.33333 90.6667,10.6667 92.6667,11.3333 97.3333,14.6667 98.6667,16 100.667,14 101.333,13.3333 99.3333,10 95.3333,6 94,4.66667 94,2 98,-2 95.3333,-7.33333 94,-8.66667 94,-11.3333 96,-13.3333 97.3333,-14.6667 98.6667,-13.3333 102,-14 102.667,-14.6667 102,-16.6667 102.667,-20 103.333,-20.6667 106.667,-18.6667 116.667,-15.3333 120.667,-14 127.333,-12.6667 132.667,-12.6667 130.667,-18.6667 129.333,-22.6667 123.333,-30 120.667,-32.6667 115.333,-35.3333 113.333,-36 109.333,-40 104,-48 105.333,-49.3333 107.333,-51.3333 103.333,-55.3333 102,-54 101.333,-53.3333 100,-54.6667 93.3333,-61.3333 95.3333,-63.3333 96.6667,-64.6667 96,-66.6667 94,-70 94.6667,-70.6667 98,-71.3333 100.667,-71.3333 106,-66 110,-64.6667 112.667,-64.6667 118,-64.6667 116.667,-71.3333 114,-74 112.667,-75.3333 107.333,-80.6667 104.667,-83.3333 103.333,-87.3333 100.667,-92.6667 98.6667,-96 98.6667,-93.3333 96,-90.6667 94,-88.6667 92.6667,-90 90,-92.6667 89.3333,-94.6667 88.6667,-96.6667 88.6667,-99.3333 87.3333,-100.667 82,-106 80,-106.667 76,-108 72.6667,-110 68.6667,-114 66.6667,-117.333 65.3333,-121.333 66,-122 67.3333,-120.667 74.6667,-114.667 76.6667,-114 80.6667,-110 85.3333,-106.667 88,-106.667 90,-106 91.3333,-104.667 94,-104.667 94.6667,-108 93.3333,-112 94,-115.333 93.3333,-122.667 91.3333,-128.667 87.3333,-132.667 86.6667,-134.667 86,-136.667 83.3333,-144.667 82,-148.667 79.3333,-154 80,-154.667 78,-155.333 74,-156.667 72,-157.333 69.3333,-157.333 65.3333,-161.333 62.6667,-161.333 62,-160.667 61.3333,-160 62,-158 61.3333,-157.333 64,-154.667 68.6667,-151.333 71.3333,-148.667 70.6667,-148 69.3333,-146.667 66.6667,-149.333 62.6667,-150.667 62,-150 60.6667,-151.333 58,-156.667 55.3333,-159.333 52.6667,-164.667 50.6667,-170.667 48,-176 44,-182.667 40,-189.333 37.3333,-192 33.3333,-196 32.6667,-195.333 28.6667,-199.333 23.3333,-204.667 16.6667,-211.333 14,-214 12.6667,-215.333 3.33333,-222 -2,-224.667 -6,-226 -7.33333,-227.333 -11.3333,-228.667 -12.6667,-227.333 -16.6667,-228.667 -17.3333,-228 -18,-227.333 -14.6667,-217.333 -14,-215.333 -8.66667,-210 -6,-207.333 0.666667,-203.333 3.33333,-200.667 4.66667,-199.333 7.33333,-196.667 8,-194.667 6,-192.667 6,-190 6,-187.333 4,-188 0.666667,-190 -5.33333,-194.667 -5.33333,-189.333 -2.66667,-186.667 -0.666667,-188.667 2.66667,-186.667 4,-185.333 5.33333,-184 6,-179.333 7.33333,-178 14,-171.333 16.6667,-168.667 24,-162.667 27.3333,-160.667 28,-161.333 32.6667,-158 32,-157.333 31.3333,-154 30,-152.667 32,-149.333 31.3333,-148.667 26.6667,-152 22.6667,-156 20,-158.667 15.3333,-162 10.6667,-162.667 5.33333,-165.333 3.33333,-168.667 0,-173.333 -0.666667,-175.333 -4,-180 -11.3333,-188.667 -14,-191.333 -16,-192 -20,-193.333 -21.3333,-192 -16,-178.667 -20,-180 -24,-184 -22.6667,-188 -19.3333,-180.667 -18,-179.333 -18.6667,-178.667 -22,-178 -26,-179.333 -28,-180 -32,-181.333 -31.3333,-182 -32.6667,-186 -34,-192.667 -34,-198 -33.3333,-198.667 -34,-203.333 -32,-205.333 -28.6667,-206 -28,-209.333 -28.6667,-211.333 -30.6667,-220 -30.6667,-222.667 -32,-226.667 -32,-229.333 -29.3333,-232 -44,-252 -45.3333,-253.333 -49.3333,-249.333 -49.3333,-246.667 -50.6667,-240 -55.3333,-240.667 -58.6667,-237.333 -60,-236 -58,-230 -57.3333,-225.333 -54.6667,-220 -61.3333,-224 -62.6667,-225.333 -63.3333,-224.667 -66.6667,-226.667 -68.6667,-227.333 -69.3333,-226.667 -70,-226 -71.3333,-224.667 -70.6667,-220 -68,-214.667 -68.6667,-214 -67.3333,-210 -64.6667,-204.667 -62.6667,-201.333 -61.3333,-200 -60,-198.667 -59.3333,-196.667 -54.6667,-190.667 -53.3333,-189.333 -50.6667,-186.667 -48,-184 -46.6667,-182.667 -44,-180 -45.3333,-178.667 -44,-174.667 -42,-171.333 -48.6667,-172.667 -52.6667,-174 -50,-171.333 -55.3333,-174 -56,-173.333 -56.6667,-172.667 -51.3333,-167.333 -50,-166 -48,-162.667 -49.3333,-161.333 -48.6667,-156.667 -46,-151.333 -43.3333,-148.667 -43.3333,-146 -42.6667,-141.333 -48,-146.667 -46.6667,-148 -50.6667,-154.667 -55.3333,-160.667 -57.3333,-164 -61.3333,-176 -62.6667,-180 -63.3333,-182 -66,-187.333 -70,-194 -72.6667,-199.333 -81.3333,-209.333 -94.6667,-220 -94.6667,-214.667 -91.3333,-207.333 -86.6667,-201.333 -85.3333,-197.333 -85.3333,-194.667 -81.3333,-188 -86.6667,-193.333 -90.6667,-200 -93.3333,-205.333 -97.3333,-212 -98.6667,-213.333 -108.667,-224.667 -118.667,-236 -126,-242 -132,-244 -133.333,-242.667 -138,-240.667 -142,-242 -142.667,-233.333 -137.333,-225.333 -135.333,-222 -126.667,-212 -122.667,-208 -120,-205.333 -117.333,-202.667 -116,-201.333 -112,-197.333 -107.333,-194 -104.667,-191.333 -102,-191.333 -97.3333,-185.333 -95.3333,-179.333 -95.3333,-176.667 -96.6667,-175.333 -100,-174.667 -106,-176.667 -108.667,-176.667 -109.333,-176 -109.333,-173.333 -106.667,-170.667 -103.333,-168.667 -94,-164.667 -92,-164 -80.6667,-156.667 -74,-152.667 -60.6667,-139.333 -65.3333,-142.667 -56,-136 -56.6667,-135.333 -55.3333,-134 -52.6667,-131.333 -58.6667,-125.333 -60.6667,-126 -59.3333,-135.333 -64.6667,-140.667 -69.3333,-144 -76,-148 -88,-154.667 -92.6667,-152.667 -95.3333,-150 -90.6667,-138.667 -86.6667,-132 -82.6667,-125.333 -75.3333,-119.333 -68.6667,-112.667 -70,-111.333 -70.6667,-110.667 -74.6667,-112 -85.3333,-122.667 -86.6667,-124 -98.6667,-130.667 -103.333,-134 -110,-138 -114,-139.333 -116.667,-136.667 -119.333,-136.667 -120.667,-135.333 -122.667,-133.333 -126,-130 -126.667,-126.667 -126,-124.667 -122.667,-120 -115.333,-111.333 -104,-104 -87.3333,-99.3333 -86,-98 -83.3333,-98 -74.6667,-96 -72,-96 -70.6667,-94.6667 -70,-95.3333 -61.3333,-90.6667 -50.6667,-82.6667 -46,-79.3333 -42.6667,-77.3333 -38.6667,-76 -53.3333,-82.6667 -54,-82 -56.6667,-79.3333 -55.3333,-78 -52.6667,-75.3333 -49.3333,-70.6667 -48.6667,-68.6667 -44,-62.6667 -42.6667,-56 -43.3333,-55.3333 -50.6667,-58.6667 -52,-60 -54.6667,-62.6667 -61.3333,-69.3333 -64,-72 -69.3333,-77.3333 -76,-84 -78.6667,-86.6667 -80,-88 -87.3333,-91.3333 -88.6667,-92.6667 -90.6667,-90.6667 -91.3333,-90 -97.3333,-92 -98,-91.3333 -97.3333,-89.3333 -93.3333,-85.3333 -90.6667,-82.6667 -82,-70 -74.6667,-64 -69.3333,-61.3333 -68,-54.6667 -69.3333,-53.3333 -74.6667,-53.3333 -78.6667,-52 -82.6667,-53.3333 -84,-52 -86.6667,-52 -88.6667,-52.6667 -91.3333,-47.3333 -92.6667,-48.6667 -106.667,-56 -112,-58.6667 -106.667,-53.3333 -101.333,-48 -99.3333,-44.6667 -96,-42.6667 -92,-41.3333 -90.6667,-40 -88,-37.3333 -82.6667,-32 -80.6667,-28.6667 -69.3333,-21.3333 -63.3333,-22 -60.6667,-27.3333 -59.3333,-34 -55.3333,-38 -50,-32.6667 -47.3333,-32.6667 -45.3333,-32 -42,-32.6667 -34.6667,-29.3333 -33.3333,-30.6667 -32.6667,-31.3333 -29.3333,-32 -26.6667,-32 -17.3333,-22.6667 -13.3333,-21.3333 -8.66667,-18 -9.33333,-20 -1.33333,-17.3333 5.33333,-13.3333 9.33333,-12 15.3333,-7.33333 22,-0.666667 22.6667,4 18,0.666667 14,-0.666667 7.33333,-4.66667"/>
  </object>
  <object id="539" x="9570" y="5226">
   <properties>
    <property name="collision" type="bool" value="true"/>
   </properties>
   <polygon points="0,0 14.6667,14.6667 20,17.3333 22,18 24,18.6667 26,19.3333 27.3333,20.6667 29.3333,18.6667 30,18 30.6667,17.3333 30,15.3333 30.6667,14.6667 30,12.6667 30.6667,12 31.3333,11.3333 36,12 36.6667,11.3333 40,13.3333 43.3333,12.6667 47.3333,14 48.6667,12.6667 50.6667,10.6667 59.3333,15.3333 62,18 63.3333,19.3333 74.6667,26.6667 76,25.3333 74.6667,21.3333 74,16.6667 71.3333,11.3333 66,3.33333 63.3333,0.666667 65.3333,-1.33333 72.6667,2 73.3333,1.33333 74.6667,2.66667 79.3333,6 80.6667,7.33333 82.6667,8 83.3333,7.33333 86.6667,9.33333 90.6667,10.6667 92.6667,11.3333 97.3333,14.6667 98.6667,16 100.667,14 101.333,13.3333 99.3333,10 95.3333,6 94,4.66667 94,2 98,-2 95.3333,-7.33333 94,-8.66667 94,-11.3333 96,-13.3333 97.3333,-14.6667 98.6667,-13.3333 102,-14 102.667,-14.6667 102,-16.6667 102.667,-20 103.333,-20.6667 106.667,-18.6667 116.667,-15.3333 120.667,-14 127.333,-12.6667 132.667,-12.6667 130.667,-18.6667 129.333,-22.6667 123.333,-30 120.667,-32.6667 115.333,-35.3333 113.333,-36 109.333,-40 104,-48 105.333,-49.3333 107.333,-51.3333 103.333,-55.3333 102,-54 101.333,-53.3333 100,-54.6667 93.3333,-61.3333 95.3333,-63.3333 96.6667,-64.6667 96,-66.6667 94,-70 94.6667,-70.6667 98,-71.3333 100.667,-71.3333 106,-66 110,-64.6667 112.667,-64.6667 118,-64.6667 116.667,-71.3333 114,-74 112.667,-75.3333 107.333,-80.6667 104.667,-83.3333 103.333,-87.3333 100.667,-92.6667 98.6667,-96 98.6667,-93.3333 96,-90.6667 94,-88.6667 92.6667,-90 90,-92.6667 89.3333,-94.6667 88.6667,-96.6667 88.6667,-99.3333 87.3333,-100.667 82,-106 80,-106.667 76,-108 72.6667,-110 68.6667,-114 66.6667,-117.333 65.3333,-121.333 66,-122 67.3333,-120.667 74.6667,-114.667 76.6667,-114 80.6667,-110 85.3333,-106.667 88,-106.667 90,-106 91.3333,-104.667 94,-104.667 94.6667,-108 93.3333,-112 94,-115.333 93.3333,-122.667 91.3333,-128.667 87.3333,-132.667 86.6667,-134.667 86,-136.667 83.3333,-144.667 82,-148.667 79.3333,-154 80,-154.667 78,-155.333 74,-156.667 72,-157.333 69.3333,-157.333 65.3333,-161.333 62.6667,-161.333 62,-160.667 61.3333,-160 62,-158 61.3333,-157.333 64,-154.667 68.6667,-151.333 71.3333,-148.667 70.6667,-148 69.3333,-146.667 66.6667,-149.333 62.6667,-150.667 62,-150 60.6667,-151.333 58,-156.667 55.3333,-159.333 52.6667,-164.667 50.6667,-170.667 48,-176 44,-182.667 40,-189.333 37.3333,-192 33.3333,-196 32.6667,-195.333 28.6667,-199.333 23.3333,-204.667 16.6667,-211.333 14,-214 12.6667,-215.333 3.33333,-222 -2,-224.667 -6,-226 -7.33333,-227.333 -11.3333,-228.667 -12.6667,-227.333 -16.6667,-228.667 -17.3333,-228 -18,-227.333 -14.6667,-217.333 -14,-215.333 -8.66667,-210 -6,-207.333 0.666667,-203.333 3.33333,-200.667 4.66667,-199.333 7.33333,-196.667 8,-194.667 6,-192.667 6,-190 6,-187.333 4,-188 0.666667,-190 -5.33333,-194.667 -5.33333,-189.333 -2.66667,-186.667 -0.666667,-188.667 2.66667,-186.667 4,-185.333 5.33333,-184 6,-179.333 7.33333,-178 14,-171.333 16.6667,-168.667 24,-162.667 27.3333,-160.667 28,-161.333 32.6667,-158 32,-157.333 31.3333,-154 30,-152.667 32,-149.333 31.3333,-148.667 26.6667,-152 22.6667,-156 20,-158.667 15.3333,-162 10.6667,-162.667 5.33333,-165.333 3.33333,-168.667 0,-173.333 -0.666667,-175.333 -4,-180 -11.3333,-188.667 -14,-191.333 -16,-192 -20,-193.333 -21.3333,-192 -16,-178.667 -20,-180 -24,-184 -22.6667,-188 -19.3333,-180.667 -18,-179.333 -18.6667,-178.667 -22,-178 -26,-179.333 -28,-180 -32,-181.333 -31.3333,-182 -32.6667,-186 -34,-192.667 -34,-198 -33.3333,-198.667 -34,-203.333 -32,-205.333 -28.6667,-206 -28,-209.333 -28.6667,-211.333 -30.6667,-220 -30.6667,-222.667 -32,-226.667 -32,-229.333 -29.3333,-232 -44,-252 -45.3333,-253.333 -49.3333,-249.333 -49.3333,-246.667 -50.6667,-240 -55.3333,-240.667 -58.6667,-237.333 -60,-236 -58,-230 -57.3333,-225.333 -54.6667,-220 -61.3333,-224 -62.6667,-225.333 -63.3333,-224.667 -66.6667,-226.667 -68.6667,-227.333 -69.3333,-226.667 -70,-226 -71.3333,-224.667 -70.6667,-220 -68,-214.667 -68.6667,-214 -67.3333,-210 -64.6667,-204.667 -62.6667,-201.333 -61.3333,-200 -60,-198.667 -59.3333,-196.667 -54.6667,-190.667 -53.3333,-189.333 -50.6667,-186.667 -48,-184 -46.6667,-182.667 -44,-180 -45.3333,-178.667 -44,-174.667 -42,-171.333 -48.6667,-172.667 -52.6667,-174 -50,-171.333 -55.3333,-174 -56,-173.333 -56.6667,-172.667 -51.3333,-167.333 -50,-166 -48,-162.667 -49.3333,-161.333 -48.6667,-156.667 -46,-151.333 -43.3333,-148.667 -43.3333,-146 -42.6667,-141.333 -48,-146.667 -46.6667,-148 -50.6667,-154.667 -55.3333,-160.667 -57.3333,-164 -61.3333,-176 -62.6667,-180 -63.3333,-182 -66,-187.333 -70,-194 -72.6667,-199.333 -81.3333,-209.333 -94.6667,-220 -94.6667,-214.667 -91.3333,-207.333 -86.6667,-201.333 -85.3333,-197.333 -85.3333,-194.667 -81.3333,-188 -86.6667,-193.333 -90.6667,-200 -93.3333,-205.333 -97.3333,-212 -98.6667,-213.333 -108.667,-224.667 -118.667,-236 -126,-242 -132,-244 -133.333,-242.667 -138,-240.667 -142,-242 -142.667,-233.333 -137.333,-225.333 -135.333,-222 -126.667,-212 -122.667,-208 -120,-205.333 -117.333,-202.667 -116,-201.333 -112,-197.333 -107.333,-194 -104.667,-191.333 -102,-191.333 -97.3333,-185.333 -95.3333,-179.333 -95.3333,-176.667 -96.6667,-175.333 -100,-174.667 -106,-176.667 -108.667,-176.667 -109.333,-176 -109.333,-173.333 -106.667,-170.667 -103.333,-168.667 -94,-164.667 -92,-164 -80.6667,-156.667 -74,-152.667 -60.6667,-139.333 -65.3333,-142.667 -56,-136 -56.6667,-135.333 -55.3333,-134 -52.6667,-131.333 -58.6667,-125.333 -60.6667,-126 -59.3333,-135.333 -64.6667,-140.667 -69.3333,-144 -76,-148 -88,-154.667 -92.6667,-152.667 -95.3333,-150 -90.6667,-138.667 -86.6667,-132 -82.6667,-125.333 -75.3333,-119.333 -68.6667,-112.667 -70,-111.333 -70.6667,-110.667 -74.6667,-112 -85.3333,-122.667 -86.6667,-124 -98.6667,-130.667 -103.333,-134 -110,-138 -114,-139.333 -116.667,-136.667 -119.333,-136.667 -120.667,-135.333 -122.667,-133.333 -126,-130 -126.667,-126.667 -126,-124.667 -122.667,-120 -115.333,-111.333 -104,-104 -87.3333,-99.3333 -86,-98 -83.3333,-98 -74.6667,-96 -72,-96 -70.6667,-94.6667 -70,-95.3333 -61.3333,-90.6667 -50.6667,-82.6667 -46,-79.3333 -42.6667,-77.3333 -38.6667,-76 -53.3333,-82.6667 -54,-82 -56.6667,-79.3333 -55.3333,-78 -52.6667,-75.3333 -49.3333,-70.6667 -48.6667,-68.6667 -44,-62.6667 -42.6667,-56 -43.3333,-55.3333 -50.6667,-58.6667 -52,-60 -54.6667,-62.6667 -61.3333,-69.3333 -64,-72 -69.3333,-77.3333 -76,-84 -78.6667,-86.6667 -80,-88 -87.3333,-91.3333 -88.6667,-92.6667 -90.6667,-90.6667 -91.3333,-90 -97.3333,-92 -98,-91.3333 -97.3333,-89.3333 -93.3333,-85.3333 -90.6667,-82.6667 -82,-70 -74.6667,-64 -69.3333,-61.3333 -68,-54.6667 -69.3333,-53.3333 -74.6667,-53.3333 -78.6667,-52 -82.6667,-53.3333 -84,-52 -86.6667,-52 -88.6667,-52.6667 -91.3333,-47.3333 -92.6667,-48.6667 -106.667,-56 -112,-58.6667 -106.667,-53.3333 -101.333,-48 -99.3333,-44.6667 -96,-42.6667 -92,-41.3333 -90.6667,-40 -88,-37.3333 -82.6667,-32 -80.6667,-28.6667 -69.3333,-21.3333 -63.3333,-22 -60.6667,-27.3333 -59.3333,-34 -55.3333,-38 -50,-32.6667 -47.3333,-32.6667 -45.3333,-32 -42,-32.6667 -34.6667,-29.3333 -33.3333,-30.6667 -32.6667,-31.3333 -29.3333,-32 -26.6667,-32 -17.3333,-22.6667 -13.3333,-21.3333 -8.66667,-18 -9.33333,-20 -1.33333,-17.3333 5.33333,-13.3333 9.33333,-12 15.3333,-7.33333 22,-0.666667 22.6667,4 18,0.666667 14,-0.666667 7.33333,-4.66667"/>
  </object>
  <object id="548" x="8418" y="6890">
   <properties>
    <property name="collision" type="bool" value="true"/>
   </properties>
   <polygon points="0,0 14.6667,14.6667 20,17.3333 22,18 24,18.6667 26,19.3333 27.3333,20.6667 29.3333,18.6667 30,18 30.6667,17.3333 30,15.3333 30.6667,14.6667 30,12.6667 30.6667,12 31.3333,11.3333 36,12 36.6667,11.3333 40,13.3333 43.3333,12.6667 47.3333,14 48.6667,12.6667 50.6667,10.6667 59.3333,15.3333 62,18 63.3333,19.3333 74.6667,26.6667 76,25.3333 74.6667,21.3333 74,16.6667 71.3333,11.3333 66,3.33333 63.3333,0.666667 65.3333,-1.33333 72.6667,2 73.3333,1.33333 74.6667,2.66667 79.3333,6 80.6667,7.33333 82.6667,8 83.3333,7.33333 86.6667,9.33333 90.6667,10.6667 92.6667,11.3333 97.3333,14.6667 98.6667,16 100.667,14 101.333,13.3333 99.3333,10 95.3333,6 94,4.66667 94,2 98,-2 95.3333,-7.33333 94,-8.66667 94,-11.3333 96,-13.3333 97.3333,-14.6667 98.6667,-13.3333 102,-14 102.667,-14.6667 102,-16.6667 102.667,-20 103.333,-20.6667 106.667,-18.6667 116.667,-15.3333 120.667,-14 127.333,-12.6667 132.667,-12.6667 130.667,-18.6667 129.333,-22.6667 123.333,-30 120.667,-32.6667 115.333,-35.3333 113.333,-36 109.333,-40 104,-48 105.333,-49.3333 107.333,-51.3333 103.333,-55.3333 102,-54 101.333,-53.3333 100,-54.6667 93.3333,-61.3333 95.3333,-63.3333 96.6667,-64.6667 96,-66.6667 94,-70 94.6667,-70.6667 98,-71.3333 100.667,-71.3333 106,-66 110,-64.6667 112.667,-64.6667 118,-64.6667 116.667,-71.3333 114,-74 112.667,-75.3333 107.333,-80.6667 104.667,-83.3333 103.333,-87.3333 100.667,-92.6667 98.6667,-96 98.6667,-93.3333 96,-90.6667 94,-88.6667 92.6667,-90 90,-92.6667 89.3333,-94.6667 88.6667,-96.6667 88.6667,-99.3333 87.3333,-100.667 82,-106 80,-106.667 76,-108 72.6667,-110 68.6667,-114 66.6667,-117.333 65.3333,-121.333 66,-122 67.3333,-120.667 74.6667,-114.667 76.6667,-114 80.6667,-110 85.3333,-106.667 88,-106.667 90,-106 91.3333,-104.667 94,-104.667 94.6667,-108 93.3333,-112 94,-115.333 93.3333,-122.667 91.3333,-128.667 87.3333,-132.667 86.6667,-134.667 86,-136.667 83.3333,-144.667 82,-148.667 79.3333,-154 80,-154.667 78,-155.333 74,-156.667 72,-157.333 69.3333,-157.333 65.3333,-161.333 62.6667,-161.333 62,-160.667 61.3333,-160 62,-158 61.3333,-157.333 64,-154.667 68.6667,-151.333 71.3333,-148.667 70.6667,-148 69.3333,-146.667 66.6667,-149.333 62.6667,-150.667 62,-150 60.6667,-151.333 58,-156.667 55.3333,-159.333 52.6667,-164.667 50.6667,-170.667 48,-176 44,-182.667 40,-189.333 37.3333,-192 33.3333,-196 32.6667,-195.333 28.6667,-199.333 23.3333,-204.667 16.6667,-211.333 14,-214 12.6667,-215.333 3.33333,-222 -2,-224.667 -6,-226 -7.33333,-227.333 -11.3333,-228.667 -12.6667,-227.333 -16.6667,-228.667 -17.3333,-228 -18,-227.333 -14.6667,-217.333 -14,-215.333 -8.66667,-210 -6,-207.333 0.666667,-203.333 3.33333,-200.667 4.66667,-199.333 7.33333,-196.667 8,-194.667 6,-192.667 6,-190 6,-187.333 4,-188 0.666667,-190 -5.33333,-194.667 -5.33333,-189.333 -2.66667,-186.667 -0.666667,-188.667 2.66667,-186.667 4,-185.333 5.33333,-184 6,-179.333 7.33333,-178 14,-171.333 16.6667,-168.667 24,-162.667 27.3333,-160.667 28,-161.333 32.6667,-158 32,-157.333 31.3333,-154 30,-152.667 32,-149.333 31.3333,-148.667 26.6667,-152 22.6667,-156 20,-158.667 15.3333,-162 10.6667,-162.667 5.33333,-165.333 3.33333,-168.667 0,-173.333 -0.666667,-175.333 -4,-180 -11.3333,-188.667 -14,-191.333 -16,-192 -20,-193.333 -21.3333,-192 -16,-178.667 -20,-180 -24,-184 -22.6667,-188 -19.3333,-180.667 -18,-179.333 -18.6667,-178.667 -22,-178 -26,-179.333 -28,-180 -32,-181.333 -31.3333,-182 -32.6667,-186 -34,-192.667 -34,-198 -33.3333,-198.667 -34,-203.333 -32,-205.333 -28.6667,-206 -28,-209.333 -28.6667,-211.333 -30.6667,-220 -30.6667,-222.667 -32,-226.667 -32,-229.333 -29.3333,-232 -44,-252 -45.3333,-253.333 -49.3333,-249.333 -49.3333,-246.667 -50.6667,-240 -55.3333,-240.667 -58.6667,-237.333 -60,-236 -58,-230 -57.3333,-225.333 -54.6667,-220 -61.3333,-224 -62.6667,-225.333 -63.3333,-224.667 -66.6667,-226.667 -68.6667,-227.333 -69.3333,-226.667 -70,-226 -71.3333,-224.667 -70.6667,-220 -68,-214.667 -68.6667,-214 -67.3333,-210 -64.6667,-204.667 -62.6667,-201.333 -61.3333,-200 -60,-198.667 -59.3333,-196.667 -54.6667,-190.667 -53.3333,-189.333 -50.6667,-186.667 -48,-184 -46.6667,-182.667 -44,-180 -45.3333,-178.667 -44,-174.667 -42,-171.333 -48.6667,-172.667 -52.6667,-174 -50,-171.333 -55.3333,-174 -56,-173.333 -56.6667,-172.667 -51.3333,-167.333 -50,-166 -48,-162.667 -49.3333,-161.333 -48.6667,-156.667 -46,-151.333 -43.3333,-148.667 -43.3333,-146 -42.6667,-141.333 -48,-146.667 -46.6667,-148 -50.6667,-154.667 -55.3333,-160.667 -57.3333,-164 -61.3333,-176 -62.6667,-180 -63.3333,-182 -66,-187.333 -70,-194 -72.6667,-199.333 -81.3333,-209.333 -94.6667,-220 -94.6667,-214.667 -91.3333,-207.333 -86.6667,-201.333 -85.3333,-197.333 -85.3333,-194.667 -81.3333,-188 -86.6667,-193.333 -90.6667,-200 -93.3333,-205.333 -97.3333,-212 -98.6667,-213.333 -108.667,-224.667 -118.667,-236 -126,-242 -132,-244 -133.333,-242.667 -138,-240.667 -142,-242 -142.667,-233.333 -137.333,-225.333 -135.333,-222 -126.667,-212 -122.667,-208 -120,-205.333 -117.333,-202.667 -116,-201.333 -112,-197.333 -107.333,-194 -104.667,-191.333 -102,-191.333 -97.3333,-185.333 -95.3333,-179.333 -95.3333,-176.667 -96.6667,-175.333 -100,-174.667 -106,-176.667 -108.667,-176.667 -109.333,-176 -109.333,-173.333 -106.667,-170.667 -103.333,-168.667 -94,-164.667 -92,-164 -80.6667,-156.667 -74,-152.667 -60.6667,-139.333 -65.3333,-142.667 -56,-136 -56.6667,-135.333 -55.3333,-134 -52.6667,-131.333 -58.6667,-125.333 -60.6667,-126 -59.3333,-135.333 -64.6667,-140.667 -69.3333,-144 -76,-148 -88,-154.667 -92.6667,-152.667 -95.3333,-150 -90.6667,-138.667 -86.6667,-132 -82.6667,-125.333 -75.3333,-119.333 -68.6667,-112.667 -70,-111.333 -70.6667,-110.667 -74.6667,-112 -85.3333,-122.667 -86.6667,-124 -98.6667,-130.667 -103.333,-134 -110,-138 -114,-139.333 -116.667,-136.667 -119.333,-136.667 -120.667,-135.333 -122.667,-133.333 -126,-130 -126.667,-126.667 -126,-124.667 -122.667,-120 -115.333,-111.333 -104,-104 -87.3333,-99.3333 -86,-98 -83.3333,-98 -74.6667,-96 -72,-96 -70.6667,-94.6667 -70,-95.3333 -61.3333,-90.6667 -50.6667,-82.6667 -46,-79.3333 -42.6667,-77.3333 -38.6667,-76 -53.3333,-82.6667 -54,-82 -56.6667,-79.3333 -55.3333,-78 -52.6667,-75.3333 -49.3333,-70.6667 -48.6667,-68.6667 -44,-62.6667 -42.6667,-56 -43.3333,-55.3333 -50.6667,-58.6667 -52,-60 -54.6667,-62.6667 -61.3333,-69.3333 -64,-72 -69.3333,-77.3333 -76,-84 -78.6667,-86.6667 -80,-88 -87.3333,-91.3333 -88.6667,-92.6667 -90.6667,-90.6667 -91.3333,-90 -97.3333,-92 -98,-91.3333 -97.3333,-89.3333 -93.3333,-85.3333 -90.6667,-82.6667 -82,-70 -74.6667,-64 -69.3333,-61.3333 -68,-54.6667 -69.3333,-53.3333 -74.6667,-53.3333 -78.6667,-52 -82.6667,-53.3333 -84,-52 -86.6667,-52 -88.6667,-52.6667 -91.3333,-47.3333 -92.6667,-48.6667 -106.667,-56 -112,-58.6667 -106.667,-53.3333 -101.333,-48 -99.3333,-44.6667 -96,-42.6667 -92,-41.3333 -90.6667,-40 -88,-37.3333 -82.6667,-32 -80.6667,-28.6667 -69.3333,-21.3333 -63.3333,-22 -60.6667,-27.3333 -59.3333,-34 -55.3333,-38 -50,-32.6667 -47.3333,-32.6667 -45.3333,-32 -42,-32.6667 -34.6667,-29.3333 -33.3333,-30.6667 -32.6667,-31.3333 -29.3333,-32 -26.6667,-32 -17.3333,-22.6667 -13.3333,-21.3333 -8.66667,-18 -9.33333,-20 -1.33333,-17.3333 5.33333,-13.3333 9.33333,-12 15.3333,-7.33333 22,-0.666667 22.6667,4 18,0.666667 14,-0.666667 7.33333,-4.66667"/>
  </object>
  <object id="540" x="9317" y="4587">
   <properties>
    <property name="collision" type="bool" value="true"/>
   </properties>
   <polygon points="0,0 14.6667,14.6667 20,17.3333 22,18 24,18.6667 26,19.3333 27.3333,20.6667 29.3333,18.6667 30,18 30.6667,17.3333 30,15.3333 30.6667,14.6667 30,12.6667 30.6667,12 31.3333,11.3333 36,12 36.6667,11.3333 40,13.3333 43.3333,12.6667 47.3333,14 48.6667,12.6667 50.6667,10.6667 59.3333,15.3333 62,18 63.3333,19.3333 74.6667,26.6667 76,25.3333 74.6667,21.3333 74,16.6667 71.3333,11.3333 66,3.33333 63.3333,0.666667 65.3333,-1.33333 72.6667,2 73.3333,1.33333 74.6667,2.66667 79.3333,6 80.6667,7.33333 82.6667,8 83.3333,7.33333 86.6667,9.33333 90.6667,10.6667 92.6667,11.3333 97.3333,14.6667 98.6667,16 100.667,14 101.333,13.3333 99.3333,10 95.3333,6 94,4.66667 94,2 98,-2 95.3333,-7.33333 94,-8.66667 94,-11.3333 96,-13.3333 97.3333,-14.6667 98.6667,-13.3333 102,-14 102.667,-14.6667 102,-16.6667 102.667,-20 103.333,-20.6667 106.667,-18.6667 116.667,-15.3333 120.667,-14 127.333,-12.6667 132.667,-12.6667 130.667,-18.6667 129.333,-22.6667 123.333,-30 120.667,-32.6667 115.333,-35.3333 113.333,-36 109.333,-40 104,-48 105.333,-49.3333 107.333,-51.3333 103.333,-55.3333 102,-54 101.333,-53.3333 100,-54.6667 93.3333,-61.3333 95.3333,-63.3333 96.6667,-64.6667 96,-66.6667 94,-70 94.6667,-70.6667 98,-71.3333 100.667,-71.3333 106,-66 110,-64.6667 112.667,-64.6667 118,-64.6667 116.667,-71.3333 114,-74 112.667,-75.3333 107.333,-80.6667 104.667,-83.3333 103.333,-87.3333 100.667,-92.6667 98.6667,-96 98.6667,-93.3333 96,-90.6667 94,-88.6667 92.6667,-90 90,-92.6667 89.3333,-94.6667 88.6667,-96.6667 88.6667,-99.3333 87.3333,-100.667 82,-106 80,-106.667 76,-108 72.6667,-110 68.6667,-114 66.6667,-117.333 65.3333,-121.333 66,-122 67.3333,-120.667 74.6667,-114.667 76.6667,-114 80.6667,-110 85.3333,-106.667 88,-106.667 90,-106 91.3333,-104.667 94,-104.667 94.6667,-108 93.3333,-112 94,-115.333 93.3333,-122.667 91.3333,-128.667 87.3333,-132.667 86.6667,-134.667 86,-136.667 83.3333,-144.667 82,-148.667 79.3333,-154 80,-154.667 78,-155.333 74,-156.667 72,-157.333 69.3333,-157.333 65.3333,-161.333 62.6667,-161.333 62,-160.667 61.3333,-160 62,-158 61.3333,-157.333 64,-154.667 68.6667,-151.333 71.3333,-148.667 70.6667,-148 69.3333,-146.667 66.6667,-149.333 62.6667,-150.667 62,-150 60.6667,-151.333 58,-156.667 55.3333,-159.333 52.6667,-164.667 50.6667,-170.667 48,-176 44,-182.667 40,-189.333 37.3333,-192 33.3333,-196 32.6667,-195.333 28.6667,-199.333 23.3333,-204.667 16.6667,-211.333 14,-214 12.6667,-215.333 3.33333,-222 -2,-224.667 -6,-226 -7.33333,-227.333 -11.3333,-228.667 -12.6667,-227.333 -16.6667,-228.667 -17.3333,-228 -18,-227.333 -14.6667,-217.333 -14,-215.333 -8.66667,-210 -6,-207.333 0.666667,-203.333 3.33333,-200.667 4.66667,-199.333 7.33333,-196.667 8,-194.667 6,-192.667 6,-190 6,-187.333 4,-188 0.666667,-190 -5.33333,-194.667 -5.33333,-189.333 -2.66667,-186.667 -0.666667,-188.667 2.66667,-186.667 4,-185.333 5.33333,-184 6,-179.333 7.33333,-178 14,-171.333 16.6667,-168.667 24,-162.667 27.3333,-160.667 28,-161.333 32.6667,-158 32,-157.333 31.3333,-154 30,-152.667 32,-149.333 31.3333,-148.667 26.6667,-152 22.6667,-156 20,-158.667 15.3333,-162 10.6667,-162.667 5.33333,-165.333 3.33333,-168.667 0,-173.333 -0.666667,-175.333 -4,-180 -11.3333,-188.667 -14,-191.333 -16,-192 -20,-193.333 -21.3333,-192 -16,-178.667 -20,-180 -24,-184 -22.6667,-188 -19.3333,-180.667 -18,-179.333 -18.6667,-178.667 -22,-178 -26,-179.333 -28,-180 -32,-181.333 -31.3333,-182 -32.6667,-186 -34,-192.667 -34,-198 -33.3333,-198.667 -34,-203.333 -32,-205.333 -28.6667,-206 -28,-209.333 -28.6667,-211.333 -30.6667,-220 -30.6667,-222.667 -32,-226.667 -32,-229.333 -29.3333,-232 -44,-252 -45.3333,-253.333 -49.3333,-249.333 -49.3333,-246.667 -50.6667,-240 -55.3333,-240.667 -58.6667,-237.333 -60,-236 -58,-230 -57.3333,-225.333 -54.6667,-220 -61.3333,-224 -62.6667,-225.333 -63.3333,-224.667 -66.6667,-226.667 -68.6667,-227.333 -69.3333,-226.667 -70,-226 -71.3333,-224.667 -70.6667,-220 -68,-214.667 -68.6667,-214 -67.3333,-210 -64.6667,-204.667 -62.6667,-201.333 -61.3333,-200 -60,-198.667 -59.3333,-196.667 -54.6667,-190.667 -53.3333,-189.333 -50.6667,-186.667 -48,-184 -46.6667,-182.667 -44,-180 -45.3333,-178.667 -44,-174.667 -42,-171.333 -48.6667,-172.667 -52.6667,-174 -50,-171.333 -55.3333,-174 -56,-173.333 -56.6667,-172.667 -51.3333,-167.333 -50,-166 -48,-162.667 -49.3333,-161.333 -48.6667,-156.667 -46,-151.333 -43.3333,-148.667 -43.3333,-146 -42.6667,-141.333 -48,-146.667 -46.6667,-148 -50.6667,-154.667 -55.3333,-160.667 -57.3333,-164 -61.3333,-176 -62.6667,-180 -63.3333,-182 -66,-187.333 -70,-194 -72.6667,-199.333 -81.3333,-209.333 -94.6667,-220 -94.6667,-214.667 -91.3333,-207.333 -86.6667,-201.333 -85.3333,-197.333 -85.3333,-194.667 -81.3333,-188 -86.6667,-193.333 -90.6667,-200 -93.3333,-205.333 -97.3333,-212 -98.6667,-213.333 -108.667,-224.667 -118.667,-236 -126,-242 -132,-244 -133.333,-242.667 -138,-240.667 -142,-242 -142.667,-233.333 -137.333,-225.333 -135.333,-222 -126.667,-212 -122.667,-208 -120,-205.333 -117.333,-202.667 -116,-201.333 -112,-197.333 -107.333,-194 -104.667,-191.333 -102,-191.333 -97.3333,-185.333 -95.3333,-179.333 -95.3333,-176.667 -96.6667,-175.333 -100,-174.667 -106,-176.667 -108.667,-176.667 -109.333,-176 -109.333,-173.333 -106.667,-170.667 -103.333,-168.667 -94,-164.667 -92,-164 -80.6667,-156.667 -74,-152.667 -60.6667,-139.333 -65.3333,-142.667 -56,-136 -56.6667,-135.333 -55.3333,-134 -52.6667,-131.333 -58.6667,-125.333 -60.6667,-126 -59.3333,-135.333 -64.6667,-140.667 -69.3333,-144 -76,-148 -88,-154.667 -92.6667,-152.667 -95.3333,-150 -90.6667,-138.667 -86.6667,-132 -82.6667,-125.333 -75.3333,-119.333 -68.6667,-112.667 -70,-111.333 -70.6667,-110.667 -74.6667,-112 -85.3333,-122.667 -86.6667,-124 -98.6667,-130.667 -103.333,-134 -110,-138 -114,-139.333 -116.667,-136.667 -119.333,-136.667 -120.667,-135.333 -122.667,-133.333 -126,-130 -126.667,-126.667 -126,-124.667 -122.667,-120 -115.333,-111.333 -104,-104 -87.3333,-99.3333 -86,-98 -83.3333,-98 -74.6667,-96 -72,-96 -70.6667,-94.6667 -70,-95.3333 -61.3333,-90.6667 -50.6667,-82.6667 -46,-79.3333 -42.6667,-77.3333 -38.6667,-76 -53.3333,-82.6667 -54,-82 -56.6667,-79.3333 -55.3333,-78 -52.6667,-75.3333 -49.3333,-70.6667 -48.6667,-68.6667 -44,-62.6667 -42.6667,-56 -43.3333,-55.3333 -50.6667,-58.6667 -52,-60 -54.6667,-62.6667 -61.3333,-69.3333 -64,-72 -69.3333,-77.3333 -76,-84 -78.6667,-86.6667 -80,-88 -87.3333,-91.3333 -88.6667,-92.6667 -90.6667,-90.6667 -91.3333,-90 -97.3333,-92 -98,-91.3333 -97.3333,-89.3333 -93.3333,-85.3333 -90.6667,-82.6667 -82,-70 -74.6667,-64 -69.3333,-61.3333 -68,-54.6667 -69.3333,-53.3333 -74.6667,-53.3333 -78.6667,-52 -82.6667,-53.3333 -84,-52 -86.6667,-52 -88.6667,-52.6667 -91.3333,-47.3333 -92.6667,-48.6667 -106.667,-56 -112,-58.6667 -106.667,-53.3333 -101.333,-48 -99.3333,-44.6667 -96,-42.6667 -92,-41.3333 -90.6667,-40 -88,-37.3333 -82.6667,-32 -80.6667,-28.6667 -69.3333,-21.3333 -63.3333,-22 -60.6667,-27.3333 -59.3333,-34 -55.3333,-38 -50,-32.6667 -47.3333,-32.6667 -45.3333,-32 -42,-32.6667 -34.6667,-29.3333 -33.3333,-30.6667 -32.6667,-31.3333 -29.3333,-32 -26.6667,-32 -17.3333,-22.6667 -13.3333,-21.3333 -8.66667,-18 -9.33333,-20 -1.33333,-17.3333 5.33333,-13.3333 9.33333,-12 15.3333,-7.33333 22,-0.666667 22.6667,4 18,0.666667 14,-0.666667 7.33333,-4.66667"/>
  </object>
  <object id="544" x="2681.33" y="4881.33">
   <properties>
    <property name="collision" type="bool" value="true"/>
   </properties>
   <polygon points="0,0 -4,-17.3333 -5.33333,-21.3333 -6.66667,-25.3333 -7.33333,-30 -8.66667,-34 -10,-40.6667 -12,-44 -14,-47.3333 -18,-51.3333 -21.3333,-53.3333 -25.3333,-54.6667 -32,-56 -38.6667,-57.3333 -42,-59.3333 -51.3333,-60.6667 -52.6667,-62 -55.3333,-62 -59.3333,-63.3333 -62.6667,-65.3333 -64,-66.6667 -68.6667,-67.3333 -71.3333,-67.3333 -77.3333,-69.3333 -81.3333,-70.6667 -86.6667,-70.6667 -90,-72.6667 -98,-75.3333 -102.667,-78.6667 -106.667,-80 -111.333,-80.6667 -112,-77.3333 -114,-78 -117.333,-77.3333 -119.333,-78 -123.333,-71.3333 -124.667,-70 -126.667,-68 -128,-66.6667 -130.667,-66.6667 -131.333,-66 -140,-68 -144,-69.3333 -149.333,-72 -152.667,-74 -157.333,-77.3333 -162,-80.6667 -163.333,-82 -168,-88 -169.333,-92 -168.667,-92.6667 -172.667,-102 -172,-102.667 -172.667,-104.667 -173.333,-106.667 -172,-110.667 -172,-113.333 -169.333,-116 -168,-117.333 -166,-119.333 -165.333,-120 -163.333,-122 -160,-122.667 -158,-122 -154,-120.667 -152.667,-122 -152,-122.667 -150.667,-124 -150.667,-126.667 -152,-128 -156,-132 -157.333,-133.333 -160.667,-132.667 -164.667,-136.667 -166,-138 -168,-141.333 -167.333,-142 -168.667,-143.333 -166.667,-145.333 -167.333,-150 -168,-154.667 -172,-158.667 -174.667,-161.333 -174.667,-158.667 -176,-160 -176.667,-159.333 -178.667,-157.333 -179.333,-156.667 -180,-156 -181.333,-157.333 -182.667,-158.667 -186,-160.667 -186.667,-160 -188.667,-158 -189.333,-157.333 -192.667,-159.333 -198,-164.667 -197.333,-168 -198.667,-169.333 -200.667,-172.667 -202,-176.667 -202.667,-181.333 -202.667,-184 -204.667,-190 -207.333,-195.333 -208,-197.333 -205.333,-202.667 -203.333,-204.667 -196,-204 -194.667,-205.333 -188.667,-206 -185.333,-206.667 -184.667,-207.333 -180.667,-208.667 -173.333,-208 -169.333,-206.667 -167.333,-208.667 -167.333,-211.333 -168.667,-212.667 -169.333,-214.667 -171.333,-218 -172,-222.667 -171.333,-223.333 -170,-224.667 -168.667,-226 -166.667,-228 -165.333,-229.333 -164,-230.667 -162,-232.667 -161.333,-233.333 -158,-231.333 -155.333,-228.667 -152,-226.667 -150.667,-228 -149.333,-229.333 -148.667,-230 -148,-233.333 -148.667,-235.333 -150.667,-238.667 -150,-244.667 -149.333,-245.333 -148,-246.667 -144,-250.667 -141.333,-250.667 -140,-252 -137.333,-252 -137.333,-254.667 -133.333,-256 -130.667,-253.333 -131.333,-258 -131.333,-255.333 -135.333,-259.333 -142.667,-268 -143.333,-270 -146,-278 -144.667,-279.333 -143.333,-280.667 -143.333,-286 -144.667,-290 -147.333,-292.667 -148,-294.667 -146.667,-296 -146,-299.333 -144.667,-300.667 -144,-301.333 -138,-307.333 -137.333,-308 -135.333,-307.333 -132.667,-307.333 -130.667,-309.333 -130.667,-306.667 -130,-307.333 -128,-309.333 -128.667,-311.333 -128,-312 -126.667,-313.333 -122.667,-317.333 -120.667,-319.333 -120,-320 -118.667,-321.333 -116,-321.333 -115.333,-322 -112.667,-322 -110.667,-324 -107.333,-327.333 -106,-328.667 -103.333,-326 -100.667,-323.333 -99.3333,-322 -97.3333,-316 -98,-315.333 -94,-308.667 -94,-306 -93.3333,-306.667 -92,-305.333 -88,-304 -86.6667,-302.667 -84,-300 -84,-297.333 -88,-298.667 -86.6667,-297.333 -86,-295.333 -87.3333,-291.333 -86,-290 -84,-289.333 -80.6667,-290 -76.6667,-291.333 -74,-294 -72.6667,-295.333 -70.6667,-297.333 -68,-297.333 -61.3333,-296 -59.3333,-298 -57.3333,-297.333 -49.3333,-292 -48,-290.667 -40.6667,-287.333 -31.3333,-283.333 -32.6667,-276.667 -33.3333,-276 -31.3333,-270 -32,-269.333 -31.3333,-267.333 -29.3333,-264 -28,-260 -29.3333,-258.667 -30,-258 -26,-251.333 -24,-250.667 -22,-252.667 -19.3333,-252.667 -17.3333,-254.667 -20,-260 -19.3333,-260.667 -14.6667,-260 -10.6667,-258.667 -8,-256 -4,-257.333 -1.33333,-260 0.666667,-259.333 3.33333,-259.333 4,-260 4,-262.667 5.33333,-264 7.33333,-263.333 11.3333,-259.333 11.3333,-254 12.6667,-250 14.6667,-246.667 16,-245.333 18.6667,-242.667 19.3333,-235.333 18,-234 16,-232 16,-229.333 20,-222.667 21.3333,-221.333 24,-213.333 28,-206.667 29.3333,-205.333 32.6667,-195.333 33.3333,-193.333 35.3333,-187.333 39.3333,-183.333 40.6667,-182 44,-174.667 45.3333,-170.667 46.6667,-166.667 48,-162.667 48.6667,-160.667 50.6667,-157.333 58,-143.333 63.3333,-135.333 70,-128.667 74,-124.667 75.3333,-123.333 76.6667,-122 78,-115.333 76.6667,-114 76,-108 75.3333,-102 70.6667,-102.667 70,-102 68,-102.667 58,-119.333 54,-126 49.3333,-132 46,-136.667 42,-140.667 39.3333,-143.333 36.6667,-140.667 36,-140 36.6667,-138 39.3333,-132.667 40,-130.667 38.6667,-129.333 38,-128.667 38,-126 40,-122.667 40.6667,-120.667 42.6667,-114.667 43.3333,-112.667 42.6667,-112 48,-96 48.6667,-94 50,-92.6667 50,-90 51.3333,-88.6667 54,-86 58,-82 64,-85.3333 70,-88.6667 72.6667,-88.6667 73.3333,-89.3333 83.3333,-86 84,-86.6667 88,-82.6667 90.6667,-80 94.6667,-76 99.3333,-67.3333 96.6667,-64.6667 92.6667,-55.3333 92,-52 86,-56.6667 80,-61.3333 76.6667,-63.3333 70,-70 66.6667,-74.6667 63.3333,-74 59.3333,-75.3333 58.6667,-74.6667 59.3333,-70 55.3333,-68.6667 54.6667,-65.3333 54.6667,-62.6667 56.6667,-59.3333 55.3333,-58 54.6667,-57.3333 60,-49.3333 61.3333,-48 62.6667,-46.6667 68,-41.3333 69.3333,-40 80,-26.6667 82.6667,-24 80.6667,-22 78.6667,-20 76,-20 74,-18 69.3333,-13.3333 68,-12 65.3333,-14.6667 61.3333,-21.3333 58.6667,-24 58,-26 55.3333,-34 52.6667,-36.6667 50,-42 47.3333,-44.6667 46,-46 44.6667,-47.3333 44.6667,-52.6667 43.3333,-56.6667 38,-64.6667 35.3333,-67.3333 30.6667,-70.6667 25.3333,-73.3333 22.6667,-76 22,-75.3333 16.6667,-80.6667 9.33333,-86.6667 10.6667,-85.3333 16,-77.3333 18.6667,-72 22.6667,-68 20.6667,-66 20,-65.3333 17.3333,-62.6667 16.6667,-62 19.3333,-56.6667 17.3333,-57.3333 15.3333,-58 14.6667,-57.3333 7.33333,-63.3333 4,-70.6667 3.33333,-78 -2,-83.3333 -3.33333,-84.6667 -6,-84.6667 -8,-82.6667 -8.66667,-82 -12.6667,-83.3333 -13.3333,-82.6667 -19.3333,-84.6667 -22.6667,-86.6667 -24.6667,-87.3333 -26,-86 -27.3333,-84.6667 -25.3333,-78.6667 -16.6667,-68.6667 -8,-61.3333 -4,-57.3333 -1.33333,-49.3333 2,-42 7.33333,-34 11.3333,-27.3333 14,-22 15.3333,-20.6667 15.3333,-18 21.3333,-10.6667 22.6667,-9.33333 24,-5.33333 23.3333,-4.66667 20.6667,-2 19.3333,-0.666667 16.6667,2 15.3333,0.666667 12.6667,-2"/>
  </object>
  <object id="545" x="2681.33" y="4881.33">
   <properties>
    <property name="collision" type="bool" value="true"/>
   </properties>
   <polygon points="0,0 -4,-17.3333 -5.33333,-21.3333 -6.66667,-25.3333 -7.33333,-30 -8.66667,-34 -10,-40.6667 -12,-44 -14,-47.3333 -18,-51.3333 -21.3333,-53.3333 -25.3333,-54.6667 -32,-56 -38.6667,-57.3333 -42,-59.3333 -51.3333,-60.6667 -52.6667,-62 -55.3333,-62 -59.3333,-63.3333 -62.6667,-65.3333 -64,-66.6667 -68.6667,-67.3333 -71.3333,-67.3333 -77.3333,-69.3333 -81.3333,-70.6667 -86.6667,-70.6667 -90,-72.6667 -98,-75.3333 -102.667,-78.6667 -106.667,-80 -111.333,-80.6667 -112,-77.3333 -114,-78 -117.333,-77.3333 -119.333,-78 -123.333,-71.3333 -124.667,-70 -126.667,-68 -128,-66.6667 -130.667,-66.6667 -131.333,-66 -140,-68 -144,-69.3333 -149.333,-72 -152.667,-74 -157.333,-77.3333 -162,-80.6667 -163.333,-82 -168,-88 -169.333,-92 -168.667,-92.6667 -172.667,-102 -172,-102.667 -172.667,-104.667 -173.333,-106.667 -172,-110.667 -172,-113.333 -169.333,-116 -168,-117.333 -166,-119.333 -165.333,-120 -163.333,-122 -160,-122.667 -158,-122 -154,-120.667 -152.667,-122 -152,-122.667 -150.667,-124 -150.667,-126.667 -152,-128 -156,-132 -157.333,-133.333 -160.667,-132.667 -164.667,-136.667 -166,-138 -168,-141.333 -167.333,-142 -168.667,-143.333 -166.667,-145.333 -167.333,-150 -168,-154.667 -172,-158.667 -174.667,-161.333 -174.667,-158.667 -176,-160 -176.667,-159.333 -178.667,-157.333 -179.333,-156.667 -180,-156 -181.333,-157.333 -182.667,-158.667 -186,-160.667 -186.667,-160 -188.667,-158 -189.333,-157.333 -192.667,-159.333 -198,-164.667 -197.333,-168 -198.667,-169.333 -200.667,-172.667 -202,-176.667 -202.667,-181.333 -202.667,-184 -204.667,-190 -207.333,-195.333 -208,-197.333 -205.333,-202.667 -203.333,-204.667 -196,-204 -194.667,-205.333 -188.667,-206 -185.333,-206.667 -184.667,-207.333 -180.667,-208.667 -173.333,-208 -169.333,-206.667 -167.333,-208.667 -167.333,-211.333 -168.667,-212.667 -169.333,-214.667 -171.333,-218 -172,-222.667 -171.333,-223.333 -170,-224.667 -168.667,-226 -166.667,-228 -165.333,-229.333 -164,-230.667 -162,-232.667 -161.333,-233.333 -158,-231.333 -155.333,-228.667 -152,-226.667 -150.667,-228 -149.333,-229.333 -148.667,-230 -148,-233.333 -148.667,-235.333 -150.667,-238.667 -150,-244.667 -149.333,-245.333 -148,-246.667 -144,-250.667 -141.333,-250.667 -140,-252 -137.333,-252 -137.333,-254.667 -133.333,-256 -130.667,-253.333 -131.333,-258 -131.333,-255.333 -135.333,-259.333 -142.667,-268 -143.333,-270 -146,-278 -144.667,-279.333 -143.333,-280.667 -143.333,-286 -144.667,-290 -147.333,-292.667 -148,-294.667 -146.667,-296 -146,-299.333 -144.667,-300.667 -144,-301.333 -138,-307.333 -137.333,-308 -135.333,-307.333 -132.667,-307.333 -130.667,-309.333 -130.667,-306.667 -130,-307.333 -128,-309.333 -128.667,-311.333 -128,-312 -126.667,-313.333 -122.667,-317.333 -120.667,-319.333 -120,-320 -118.667,-321.333 -116,-321.333 -115.333,-322 -112.667,-322 -110.667,-324 -107.333,-327.333 -106,-328.667 -103.333,-326 -100.667,-323.333 -99.3333,-322 -97.3333,-316 -98,-315.333 -94,-308.667 -94,-306 -93.3333,-306.667 -92,-305.333 -88,-304 -86.6667,-302.667 -84,-300 -84,-297.333 -88,-298.667 -86.6667,-297.333 -86,-295.333 -87.3333,-291.333 -86,-290 -84,-289.333 -80.6667,-290 -76.6667,-291.333 -74,-294 -72.6667,-295.333 -70.6667,-297.333 -68,-297.333 -61.3333,-296 -59.3333,-298 -57.3333,-297.333 -49.3333,-292 -48,-290.667 -40.6667,-287.333 -31.3333,-283.333 -32.6667,-276.667 -33.3333,-276 -31.3333,-270 -32,-269.333 -31.3333,-267.333 -29.3333,-264 -28,-260 -29.3333,-258.667 -30,-258 -26,-251.333 -24,-250.667 -22,-252.667 -19.3333,-252.667 -17.3333,-254.667 -20,-260 -19.3333,-260.667 -14.6667,-260 -10.6667,-258.667 -8,-256 -4,-257.333 -1.33333,-260 0.666667,-259.333 3.33333,-259.333 4,-260 4,-262.667 5.33333,-264 7.33333,-263.333 11.3333,-259.333 11.3333,-254 12.6667,-250 14.6667,-246.667 16,-245.333 18.6667,-242.667 19.3333,-235.333 18,-234 16,-232 16,-229.333 20,-222.667 21.3333,-221.333 24,-213.333 28,-206.667 29.3333,-205.333 32.6667,-195.333 33.3333,-193.333 35.3333,-187.333 39.3333,-183.333 40.6667,-182 44,-174.667 45.3333,-170.667 46.6667,-166.667 48,-162.667 48.6667,-160.667 50.6667,-157.333 58,-143.333 63.3333,-135.333 70,-128.667 74,-124.667 75.3333,-123.333 76.6667,-122 78,-115.333 76.6667,-114 76,-108 75.3333,-102 70.6667,-102.667 70,-102 68,-102.667 58,-119.333 54,-126 49.3333,-132 46,-136.667 42,-140.667 39.3333,-143.333 36.6667,-140.667 36,-140 36.6667,-138 39.3333,-132.667 40,-130.667 38.6667,-129.333 38,-128.667 38,-126 40,-122.667 40.6667,-120.667 42.6667,-114.667 43.3333,-112.667 42.6667,-112 48,-96 48.6667,-94 50,-92.6667 50,-90 51.3333,-88.6667 54,-86 58,-82 64,-85.3333 70,-88.6667 72.6667,-88.6667 73.3333,-89.3333 83.3333,-86 84,-86.6667 88,-82.6667 90.6667,-80 94.6667,-76 99.3333,-67.3333 96.6667,-64.6667 92.6667,-55.3333 92,-52 86,-56.6667 80,-61.3333 76.6667,-63.3333 70,-70 66.6667,-74.6667 63.3333,-74 59.3333,-75.3333 58.6667,-74.6667 59.3333,-70 55.3333,-68.6667 54.6667,-65.3333 54.6667,-62.6667 56.6667,-59.3333 55.3333,-58 54.6667,-57.3333 60,-49.3333 61.3333,-48 62.6667,-46.6667 68,-41.3333 69.3333,-40 80,-26.6667 82.6667,-24 80.6667,-22 78.6667,-20 76,-20 74,-18 69.3333,-13.3333 68,-12 65.3333,-14.6667 61.3333,-21.3333 58.6667,-24 58,-26 55.3333,-34 52.6667,-36.6667 50,-42 47.3333,-44.6667 46,-46 44.6667,-47.3333 44.6667,-52.6667 43.3333,-56.6667 38,-64.6667 35.3333,-67.3333 30.6667,-70.6667 25.3333,-73.3333 22.6667,-76 22,-75.3333 16.6667,-80.6667 9.33333,-86.6667 10.6667,-85.3333 16,-77.3333 18.6667,-72 22.6667,-68 20.6667,-66 20,-65.3333 17.3333,-62.6667 16.6667,-62 19.3333,-56.6667 17.3333,-57.3333 15.3333,-58 14.6667,-57.3333 7.33333,-63.3333 4,-70.6667 3.33333,-78 -2,-83.3333 -3.33333,-84.6667 -6,-84.6667 -8,-82.6667 -8.66667,-82 -12.6667,-83.3333 -13.3333,-82.6667 -19.3333,-84.6667 -22.6667,-86.6667 -24.6667,-87.3333 -26,-86 -27.3333,-84.6667 -25.3333,-78.6667 -16.6667,-68.6667 -8,-61.3333 -4,-57.3333 -1.33333,-49.3333 2,-42 7.33333,-34 11.3333,-27.3333 14,-22 15.3333,-20.6667 15.3333,-18 21.3333,-10.6667 22.6667,-9.33333 24,-5.33333 23.3333,-4.66667 20.6667,-2 19.3333,-0.666667 16.6667,2 15.3333,0.666667 12.6667,-2"/>
  </object>
  <object id="546" x="4089.33" y="5649.33">
   <properties>
    <property name="collision" type="bool" value="true"/>
   </properties>
   <polygon points="0,0 -4,-17.3333 -5.33333,-21.3333 -6.66667,-25.3333 -7.33333,-30 -8.66667,-34 -10,-40.6667 -12,-44 -14,-47.3333 -18,-51.3333 -21.3333,-53.3333 -25.3333,-54.6667 -32,-56 -38.6667,-57.3333 -42,-59.3333 -51.3333,-60.6667 -52.6667,-62 -55.3333,-62 -59.3333,-63.3333 -62.6667,-65.3333 -64,-66.6667 -68.6667,-67.3333 -71.3333,-67.3333 -77.3333,-69.3333 -81.3333,-70.6667 -86.6667,-70.6667 -90,-72.6667 -98,-75.3333 -102.667,-78.6667 -106.667,-80 -111.333,-80.6667 -112,-77.3333 -114,-78 -117.333,-77.3333 -119.333,-78 -123.333,-71.3333 -124.667,-70 -126.667,-68 -128,-66.6667 -130.667,-66.6667 -131.333,-66 -140,-68 -144,-69.3333 -149.333,-72 -152.667,-74 -157.333,-77.3333 -162,-80.6667 -163.333,-82 -168,-88 -169.333,-92 -168.667,-92.6667 -172.667,-102 -172,-102.667 -172.667,-104.667 -173.333,-106.667 -172,-110.667 -172,-113.333 -169.333,-116 -168,-117.333 -166,-119.333 -165.333,-120 -163.333,-122 -160,-122.667 -158,-122 -154,-120.667 -152.667,-122 -152,-122.667 -150.667,-124 -150.667,-126.667 -152,-128 -156,-132 -157.333,-133.333 -160.667,-132.667 -164.667,-136.667 -166,-138 -168,-141.333 -167.333,-142 -168.667,-143.333 -166.667,-145.333 -167.333,-150 -168,-154.667 -172,-158.667 -174.667,-161.333 -174.667,-158.667 -176,-160 -176.667,-159.333 -178.667,-157.333 -179.333,-156.667 -180,-156 -181.333,-157.333 -182.667,-158.667 -186,-160.667 -186.667,-160 -188.667,-158 -189.333,-157.333 -192.667,-159.333 -198,-164.667 -197.333,-168 -198.667,-169.333 -200.667,-172.667 -202,-176.667 -202.667,-181.333 -202.667,-184 -204.667,-190 -207.333,-195.333 -208,-197.333 -205.333,-202.667 -203.333,-204.667 -196,-204 -194.667,-205.333 -188.667,-206 -185.333,-206.667 -184.667,-207.333 -180.667,-208.667 -173.333,-208 -169.333,-206.667 -167.333,-208.667 -167.333,-211.333 -168.667,-212.667 -169.333,-214.667 -171.333,-218 -172,-222.667 -171.333,-223.333 -170,-224.667 -168.667,-226 -166.667,-228 -165.333,-229.333 -164,-230.667 -162,-232.667 -161.333,-233.333 -158,-231.333 -155.333,-228.667 -152,-226.667 -150.667,-228 -149.333,-229.333 -148.667,-230 -148,-233.333 -148.667,-235.333 -150.667,-238.667 -150,-244.667 -149.333,-245.333 -148,-246.667 -144,-250.667 -141.333,-250.667 -140,-252 -137.333,-252 -137.333,-254.667 -133.333,-256 -130.667,-253.333 -131.333,-258 -131.333,-255.333 -135.333,-259.333 -142.667,-268 -143.333,-270 -146,-278 -144.667,-279.333 -143.333,-280.667 -143.333,-286 -144.667,-290 -147.333,-292.667 -148,-294.667 -146.667,-296 -146,-299.333 -144.667,-300.667 -144,-301.333 -138,-307.333 -137.333,-308 -135.333,-307.333 -132.667,-307.333 -130.667,-309.333 -130.667,-306.667 -130,-307.333 -128,-309.333 -128.667,-311.333 -128,-312 -126.667,-313.333 -122.667,-317.333 -120.667,-319.333 -120,-320 -118.667,-321.333 -116,-321.333 -115.333,-322 -112.667,-322 -110.667,-324 -107.333,-327.333 -106,-328.667 -103.333,-326 -100.667,-323.333 -99.3333,-322 -97.3333,-316 -98,-315.333 -94,-308.667 -94,-306 -93.3333,-306.667 -92,-305.333 -88,-304 -86.6667,-302.667 -84,-300 -84,-297.333 -88,-298.667 -86.6667,-297.333 -86,-295.333 -87.3333,-291.333 -86,-290 -84,-289.333 -80.6667,-290 -76.6667,-291.333 -74,-294 -72.6667,-295.333 -70.6667,-297.333 -68,-297.333 -61.3333,-296 -59.3333,-298 -57.3333,-297.333 -49.3333,-292 -48,-290.667 -40.6667,-287.333 -31.3333,-283.333 -32.6667,-276.667 -33.3333,-276 -31.3333,-270 -32,-269.333 -31.3333,-267.333 -29.3333,-264 -28,-260 -29.3333,-258.667 -30,-258 -26,-251.333 -24,-250.667 -22,-252.667 -19.3333,-252.667 -17.3333,-254.667 -20,-260 -19.3333,-260.667 -14.6667,-260 -10.6667,-258.667 -8,-256 -4,-257.333 -1.33333,-260 0.666667,-259.333 3.33333,-259.333 4,-260 4,-262.667 5.33333,-264 7.33333,-263.333 11.3333,-259.333 11.3333,-254 12.6667,-250 14.6667,-246.667 16,-245.333 18.6667,-242.667 19.3333,-235.333 18,-234 16,-232 16,-229.333 20,-222.667 21.3333,-221.333 24,-213.333 28,-206.667 29.3333,-205.333 32.6667,-195.333 33.3333,-193.333 35.3333,-187.333 39.3333,-183.333 40.6667,-182 44,-174.667 45.3333,-170.667 46.6667,-166.667 48,-162.667 48.6667,-160.667 50.6667,-157.333 58,-143.333 63.3333,-135.333 70,-128.667 74,-124.667 75.3333,-123.333 76.6667,-122 78,-115.333 76.6667,-114 76,-108 75.3333,-102 70.6667,-102.667 70,-102 68,-102.667 58,-119.333 54,-126 49.3333,-132 46,-136.667 42,-140.667 39.3333,-143.333 36.6667,-140.667 36,-140 36.6667,-138 39.3333,-132.667 40,-130.667 38.6667,-129.333 38,-128.667 38,-126 40,-122.667 40.6667,-120.667 42.6667,-114.667 43.3333,-112.667 42.6667,-112 48,-96 48.6667,-94 50,-92.6667 50,-90 51.3333,-88.6667 54,-86 58,-82 64,-85.3333 70,-88.6667 72.6667,-88.6667 73.3333,-89.3333 83.3333,-86 84,-86.6667 88,-82.6667 90.6667,-80 94.6667,-76 99.3333,-67.3333 96.6667,-64.6667 92.6667,-55.3333 92,-52 86,-56.6667 80,-61.3333 76.6667,-63.3333 70,-70 66.6667,-74.6667 63.3333,-74 59.3333,-75.3333 58.6667,-74.6667 59.3333,-70 55.3333,-68.6667 54.6667,-65.3333 54.6667,-62.6667 56.6667,-59.3333 55.3333,-58 54.6667,-57.3333 60,-49.3333 61.3333,-48 62.6667,-46.6667 68,-41.3333 69.3333,-40 80,-26.6667 82.6667,-24 80.6667,-22 78.6667,-20 76,-20 74,-18 69.3333,-13.3333 68,-12 65.3333,-14.6667 61.3333,-21.3333 58.6667,-24 58,-26 55.3333,-34 52.6667,-36.6667 50,-42 47.3333,-44.6667 46,-46 44.6667,-47.3333 44.6667,-52.6667 43.3333,-56.6667 38,-64.6667 35.3333,-67.3333 30.6667,-70.6667 25.3333,-73.3333 22.6667,-76 22,-75.3333 16.6667,-80.6667 9.33333,-86.6667 10.6667,-85.3333 16,-77.3333 18.6667,-72 22.6667,-68 20.6667,-66 20,-65.3333 17.3333,-62.6667 16.6667,-62 19.3333,-56.6667 17.3333,-57.3333 15.3333,-58 14.6667,-57.3333 7.33333,-63.3333 4,-70.6667 3.33333,-78 -2,-83.3333 -3.33333,-84.6667 -6,-84.6667 -8,-82.6667 -8.66667,-82 -12.6667,-83.3333 -13.3333,-82.6667 -19.3333,-84.6667 -22.6667,-86.6667 -24.6667,-87.3333 -26,-86 -27.3333,-84.6667 -25.3333,-78.6667 -16.6667,-68.6667 -8,-61.3333 -4,-57.3333 -1.33333,-49.3333 2,-42 7.33333,-34 11.3333,-27.3333 14,-22 15.3333,-20.6667 15.3333,-18 21.3333,-10.6667 22.6667,-9.33333 24,-5.33333 23.3333,-4.66667 20.6667,-2 19.3333,-0.666667 16.6667,2 15.3333,0.666667 12.6667,-2"/>
  </object>
  <object id="547" x="8830" y="6034">
   <properties>
    <property name="collision" type="bool" value="true"/>
   </properties>
   <polygon points="0,0 -4,-17.3333 -5.33333,-21.3333 -6.66667,-25.3333 -7.33333,-30 -8.66667,-34 -10,-40.6667 -12,-44 -14,-47.3333 -18,-51.3333 -21.3333,-53.3333 -25.3333,-54.6667 -32,-56 -38.6667,-57.3333 -42,-59.3333 -51.3333,-60.6667 -52.6667,-62 -55.3333,-62 -59.3333,-63.3333 -62.6667,-65.3333 -64,-66.6667 -68.6667,-67.3333 -71.3333,-67.3333 -77.3333,-69.3333 -81.3333,-70.6667 -86.6667,-70.6667 -90,-72.6667 -98,-75.3333 -102.667,-78.6667 -106.667,-80 -111.333,-80.6667 -112,-77.3333 -114,-78 -117.333,-77.3333 -119.333,-78 -123.333,-71.3333 -124.667,-70 -126.667,-68 -128,-66.6667 -130.667,-66.6667 -131.333,-66 -140,-68 -144,-69.3333 -149.333,-72 -152.667,-74 -157.333,-77.3333 -162,-80.6667 -163.333,-82 -168,-88 -169.333,-92 -168.667,-92.6667 -172.667,-102 -172,-102.667 -172.667,-104.667 -173.333,-106.667 -172,-110.667 -172,-113.333 -169.333,-116 -168,-117.333 -166,-119.333 -165.333,-120 -163.333,-122 -160,-122.667 -158,-122 -154,-120.667 -152.667,-122 -152,-122.667 -150.667,-124 -150.667,-126.667 -152,-128 -156,-132 -157.333,-133.333 -160.667,-132.667 -164.667,-136.667 -166,-138 -168,-141.333 -167.333,-142 -168.667,-143.333 -166.667,-145.333 -167.333,-150 -168,-154.667 -172,-158.667 -174.667,-161.333 -174.667,-158.667 -176,-160 -176.667,-159.333 -178.667,-157.333 -179.333,-156.667 -180,-156 -181.333,-157.333 -182.667,-158.667 -186,-160.667 -186.667,-160 -188.667,-158 -189.333,-157.333 -192.667,-159.333 -198,-164.667 -197.333,-168 -198.667,-169.333 -200.667,-172.667 -202,-176.667 -202.667,-181.333 -202.667,-184 -204.667,-190 -207.333,-195.333 -208,-197.333 -205.333,-202.667 -203.333,-204.667 -196,-204 -194.667,-205.333 -188.667,-206 -185.333,-206.667 -184.667,-207.333 -180.667,-208.667 -173.333,-208 -169.333,-206.667 -167.333,-208.667 -167.333,-211.333 -168.667,-212.667 -169.333,-214.667 -171.333,-218 -172,-222.667 -171.333,-223.333 -170,-224.667 -168.667,-226 -166.667,-228 -165.333,-229.333 -164,-230.667 -162,-232.667 -161.333,-233.333 -158,-231.333 -155.333,-228.667 -152,-226.667 -150.667,-228 -149.333,-229.333 -148.667,-230 -148,-233.333 -148.667,-235.333 -150.667,-238.667 -150,-244.667 -149.333,-245.333 -148,-246.667 -144,-250.667 -141.333,-250.667 -140,-252 -137.333,-252 -137.333,-254.667 -133.333,-256 -130.667,-253.333 -131.333,-258 -131.333,-255.333 -135.333,-259.333 -142.667,-268 -143.333,-270 -146,-278 -144.667,-279.333 -143.333,-280.667 -143.333,-286 -144.667,-290 -147.333,-292.667 -148,-294.667 -146.667,-296 -146,-299.333 -144.667,-300.667 -144,-301.333 -138,-307.333 -137.333,-308 -135.333,-307.333 -132.667,-307.333 -130.667,-309.333 -130.667,-306.667 -130,-307.333 -128,-309.333 -128.667,-311.333 -128,-312 -126.667,-313.333 -122.667,-317.333 -120.667,-319.333 -120,-320 -118.667,-321.333 -116,-321.333 -115.333,-322 -112.667,-322 -110.667,-324 -107.333,-327.333 -106,-328.667 -103.333,-326 -100.667,-323.333 -99.3333,-322 -97.3333,-316 -98,-315.333 -94,-308.667 -94,-306 -93.3333,-306.667 -92,-305.333 -88,-304 -86.6667,-302.667 -84,-300 -84,-297.333 -88,-298.667 -86.6667,-297.333 -86,-295.333 -87.3333,-291.333 -86,-290 -84,-289.333 -80.6667,-290 -76.6667,-291.333 -74,-294 -72.6667,-295.333 -70.6667,-297.333 -68,-297.333 -61.3333,-296 -59.3333,-298 -57.3333,-297.333 -49.3333,-292 -48,-290.667 -40.6667,-287.333 -31.3333,-283.333 -32.6667,-276.667 -33.3333,-276 -31.3333,-270 -32,-269.333 -31.3333,-267.333 -29.3333,-264 -28,-260 -29.3333,-258.667 -30,-258 -26,-251.333 -24,-250.667 -22,-252.667 -19.3333,-252.667 -17.3333,-254.667 -20,-260 -19.3333,-260.667 -14.6667,-260 -10.6667,-258.667 -8,-256 -4,-257.333 -1.33333,-260 0.666667,-259.333 3.33333,-259.333 4,-260 4,-262.667 5.33333,-264 7.33333,-263.333 11.3333,-259.333 11.3333,-254 12.6667,-250 14.6667,-246.667 16,-245.333 18.6667,-242.667 19.3333,-235.333 18,-234 16,-232 16,-229.333 20,-222.667 21.3333,-221.333 24,-213.333 28,-206.667 29.3333,-205.333 32.6667,-195.333 33.3333,-193.333 35.3333,-187.333 39.3333,-183.333 40.6667,-182 44,-174.667 45.3333,-170.667 46.6667,-166.667 48,-162.667 48.6667,-160.667 50.6667,-157.333 58,-143.333 63.3333,-135.333 70,-128.667 74,-124.667 75.3333,-123.333 76.6667,-122 78,-115.333 76.6667,-114 76,-108 75.3333,-102 70.6667,-102.667 70,-102 68,-102.667 58,-119.333 54,-126 49.3333,-132 46,-136.667 42,-140.667 39.3333,-143.333 36.6667,-140.667 36,-140 36.6667,-138 39.3333,-132.667 40,-130.667 38.6667,-129.333 38,-128.667 38,-126 40,-122.667 40.6667,-120.667 42.6667,-114.667 43.3333,-112.667 42.6667,-112 48,-96 48.6667,-94 50,-92.6667 50,-90 51.3333,-88.6667 54,-86 58,-82 64,-85.3333 70,-88.6667 72.6667,-88.6667 73.3333,-89.3333 83.3333,-86 84,-86.6667 88,-82.6667 90.6667,-80 94.6667,-76 99.3333,-67.3333 96.6667,-64.6667 92.6667,-55.3333 92,-52 86,-56.6667 80,-61.3333 76.6667,-63.3333 70,-70 66.6667,-74.6667 63.3333,-74 59.3333,-75.3333 58.6667,-74.6667 59.3333,-70 55.3333,-68.6667 54.6667,-65.3333 54.6667,-62.6667 56.6667,-59.3333 55.3333,-58 54.6667,-57.3333 60,-49.3333 61.3333,-48 62.6667,-46.6667 68,-41.3333 69.3333,-40 80,-26.6667 82.6667,-24 80.6667,-22 78.6667,-20 76,-20 74,-18 69.3333,-13.3333 68,-12 65.3333,-14.6667 61.3333,-21.3333 58.6667,-24 58,-26 55.3333,-34 52.6667,-36.6667 50,-42 47.3333,-44.6667 46,-46 44.6667,-47.3333 44.6667,-52.6667 43.3333,-56.6667 38,-64.6667 35.3333,-67.3333 30.6667,-70.6667 25.3333,-73.3333 22.6667,-76 22,-75.3333 16.6667,-80.6667 9.33333,-86.6667 10.6667,-85.3333 16,-77.3333 18.6667,-72 22.6667,-68 20.6667,-66 20,-65.3333 17.3333,-62.6667 16.6667,-62 19.3333,-56.6667 17.3333,-57.3333 15.3333,-58 14.6667,-57.3333 7.33333,-63.3333 4,-70.6667 3.33333,-78 -2,-83.3333 -3.33333,-84.6667 -6,-84.6667 -8,-82.6667 -8.66667,-82 -12.6667,-83.3333 -13.3333,-82.6667 -19.3333,-84.6667 -22.6667,-86.6667 -24.6667,-87.3333 -26,-86 -27.3333,-84.6667 -25.3333,-78.6667 -16.6667,-68.6667 -8,-61.3333 -4,-57.3333 -1.33333,-49.3333 2,-42 7.33333,-34 11.3333,-27.3333 14,-22 15.3333,-20.6667 15.3333,-18 21.3333,-10.6667 22.6667,-9.33333 24,-5.33333 23.3333,-4.66667 20.6667,-2 19.3333,-0.666667 16.6667,2 15.3333,0.666667 12.6667,-2"/>
  </object>
  <object id="549" x="10614" y="6158">
   <properties>
    <property name="collision" type="bool" value="true"/>
   </properties>
   <polygon points="0,0 -4,-17.3333 -5.33333,-21.3333 -6.66667,-25.3333 -7.33333,-30 -8.66667,-34 -10,-40.6667 -12,-44 -14,-47.3333 -18,-51.3333 -21.3333,-53.3333 -25.3333,-54.6667 -32,-56 -38.6667,-57.3333 -42,-59.3333 -51.3333,-60.6667 -52.6667,-62 -55.3333,-62 -59.3333,-63.3333 -62.6667,-65.3333 -64,-66.6667 -68.6667,-67.3333 -71.3333,-67.3333 -77.3333,-69.3333 -81.3333,-70.6667 -86.6667,-70.6667 -90,-72.6667 -98,-75.3333 -102.667,-78.6667 -106.667,-80 -111.333,-80.6667 -112,-77.3333 -114,-78 -117.333,-77.3333 -119.333,-78 -123.333,-71.3333 -124.667,-70 -126.667,-68 -128,-66.6667 -130.667,-66.6667 -131.333,-66 -140,-68 -144,-69.3333 -149.333,-72 -152.667,-74 -157.333,-77.3333 -162,-80.6667 -163.333,-82 -168,-88 -169.333,-92 -168.667,-92.6667 -172.667,-102 -172,-102.667 -172.667,-104.667 -173.333,-106.667 -172,-110.667 -172,-113.333 -169.333,-116 -168,-117.333 -166,-119.333 -165.333,-120 -163.333,-122 -160,-122.667 -158,-122 -154,-120.667 -152.667,-122 -152,-122.667 -150.667,-124 -150.667,-126.667 -152,-128 -156,-132 -157.333,-133.333 -160.667,-132.667 -164.667,-136.667 -166,-138 -168,-141.333 -167.333,-142 -168.667,-143.333 -166.667,-145.333 -167.333,-150 -168,-154.667 -172,-158.667 -174.667,-161.333 -174.667,-158.667 -176,-160 -176.667,-159.333 -178.667,-157.333 -179.333,-156.667 -180,-156 -181.333,-157.333 -182.667,-158.667 -186,-160.667 -186.667,-160 -188.667,-158 -189.333,-157.333 -192.667,-159.333 -198,-164.667 -197.333,-168 -198.667,-169.333 -200.667,-172.667 -202,-176.667 -202.667,-181.333 -202.667,-184 -204.667,-190 -207.333,-195.333 -208,-197.333 -205.333,-202.667 -203.333,-204.667 -196,-204 -194.667,-205.333 -188.667,-206 -185.333,-206.667 -184.667,-207.333 -180.667,-208.667 -173.333,-208 -169.333,-206.667 -167.333,-208.667 -167.333,-211.333 -168.667,-212.667 -169.333,-214.667 -171.333,-218 -172,-222.667 -171.333,-223.333 -170,-224.667 -168.667,-226 -166.667,-228 -165.333,-229.333 -164,-230.667 -162,-232.667 -161.333,-233.333 -158,-231.333 -155.333,-228.667 -152,-226.667 -150.667,-228 -149.333,-229.333 -148.667,-230 -148,-233.333 -148.667,-235.333 -150.667,-238.667 -150,-244.667 -149.333,-245.333 -148,-246.667 -144,-250.667 -141.333,-250.667 -140,-252 -137.333,-252 -137.333,-254.667 -133.333,-256 -130.667,-253.333 -131.333,-258 -131.333,-255.333 -135.333,-259.333 -142.667,-268 -143.333,-270 -146,-278 -144.667,-279.333 -143.333,-280.667 -143.333,-286 -144.667,-290 -147.333,-292.667 -148,-294.667 -146.667,-296 -146,-299.333 -144.667,-300.667 -144,-301.333 -138,-307.333 -137.333,-308 -135.333,-307.333 -132.667,-307.333 -130.667,-309.333 -130.667,-306.667 -130,-307.333 -128,-309.333 -128.667,-311.333 -128,-312 -126.667,-313.333 -122.667,-317.333 -120.667,-319.333 -120,-320 -118.667,-321.333 -116,-321.333 -115.333,-322 -112.667,-322 -110.667,-324 -107.333,-327.333 -106,-328.667 -103.333,-326 -100.667,-323.333 -99.3333,-322 -97.3333,-316 -98,-315.333 -94,-308.667 -94,-306 -93.3333,-306.667 -92,-305.333 -88,-304 -86.6667,-302.667 -84,-300 -84,-297.333 -88,-298.667 -86.6667,-297.333 -86,-295.333 -87.3333,-291.333 -86,-290 -84,-289.333 -80.6667,-290 -76.6667,-291.333 -74,-294 -72.6667,-295.333 -70.6667,-297.333 -68,-297.333 -61.3333,-296 -59.3333,-298 -57.3333,-297.333 -49.3333,-292 -48,-290.667 -40.6667,-287.333 -31.3333,-283.333 -32.6667,-276.667 -33.3333,-276 -31.3333,-270 -32,-269.333 -31.3333,-267.333 -29.3333,-264 -28,-260 -29.3333,-258.667 -30,-258 -26,-251.333 -24,-250.667 -22,-252.667 -19.3333,-252.667 -17.3333,-254.667 -20,-260 -19.3333,-260.667 -14.6667,-260 -10.6667,-258.667 -8,-256 -4,-257.333 -1.33333,-260 0.666667,-259.333 3.33333,-259.333 4,-260 4,-262.667 5.33333,-264 7.33333,-263.333 11.3333,-259.333 11.3333,-254 12.6667,-250 14.6667,-246.667 16,-245.333 18.6667,-242.667 19.3333,-235.333 18,-234 16,-232 16,-229.333 20,-222.667 21.3333,-221.333 24,-213.333 28,-206.667 29.3333,-205.333 32.6667,-195.333 33.3333,-193.333 35.3333,-187.333 39.3333,-183.333 40.6667,-182 44,-174.667 45.3333,-170.667 46.6667,-166.667 48,-162.667 48.6667,-160.667 50.6667,-157.333 58,-143.333 63.3333,-135.333 70,-128.667 74,-124.667 75.3333,-123.333 76.6667,-122 78,-115.333 76.6667,-114 76,-108 75.3333,-102 70.6667,-102.667 70,-102 68,-102.667 58,-119.333 54,-126 49.3333,-132 46,-136.667 42,-140.667 39.3333,-143.333 36.6667,-140.667 36,-140 36.6667,-138 39.3333,-132.667 40,-130.667 38.6667,-129.333 38,-128.667 38,-126 40,-122.667 40.6667,-120.667 42.6667,-114.667 43.3333,-112.667 42.6667,-112 48,-96 48.6667,-94 50,-92.6667 50,-90 51.3333,-88.6667 54,-86 58,-82 64,-85.3333 70,-88.6667 72.6667,-88.6667 73.3333,-89.3333 83.3333,-86 84,-86.6667 88,-82.6667 90.6667,-80 94.6667,-76 99.3333,-67.3333 96.6667,-64.6667 92.6667,-55.3333 92,-52 86,-56.6667 80,-61.3333 76.6667,-63.3333 70,-70 66.6667,-74.6667 63.3333,-74 59.3333,-75.3333 58.6667,-74.6667 59.3333,-70 55.3333,-68.6667 54.6667,-65.3333 54.6667,-62.6667 56.6667,-59.3333 55.3333,-58 54.6667,-57.3333 60,-49.3333 61.3333,-48 62.6667,-46.6667 68,-41.3333 69.3333,-40 80,-26.6667 82.6667,-24 80.6667,-22 78.6667,-20 76,-20 74,-18 69.3333,-13.3333 68,-12 65.3333,-14.6667 61.3333,-21.3333 58.6667,-24 58,-26 55.3333,-34 52.6667,-36.6667 50,-42 47.3333,-44.6667 46,-46 44.6667,-47.3333 44.6667,-52.6667 43.3333,-56.6667 38,-64.6667 35.3333,-67.3333 30.6667,-70.6667 25.3333,-73.3333 22.6667,-76 22,-75.3333 16.6667,-80.6667 9.33333,-86.6667 10.6667,-85.3333 16,-77.3333 18.6667,-72 22.6667,-68 20.6667,-66 20,-65.3333 17.3333,-62.6667 16.6667,-62 19.3333,-56.6667 17.3333,-57.3333 15.3333,-58 14.6667,-57.3333 7.33333,-63.3333 4,-70.6667 3.33333,-78 -2,-83.3333 -3.33333,-84.6667 -6,-84.6667 -8,-82.6667 -8.66667,-82 -12.6667,-83.3333 -13.3333,-82.6667 -19.3333,-84.6667 -22.6667,-86.6667 -24.6667,-87.3333 -26,-86 -27.3333,-84.6667 -25.3333,-78.6667 -16.6667,-68.6667 -8,-61.3333 -4,-57.3333 -1.33333,-49.3333 2,-42 7.33333,-34 11.3333,-27.3333 14,-22 15.3333,-20.6667 15.3333,-18 21.3333,-10.6667 22.6667,-9.33333 24,-5.33333 23.3333,-4.66667 20.6667,-2 19.3333,-0.666667 16.6667,2 15.3333,0.666667 12.6667,-2"/>
  </object>
  <object id="550" x="11771" y="5013">
   <properties>
    <property name="collision" type="bool" value="true"/>
   </properties>
   <polygon points="0,0 -4,-17.3333 -5.33333,-21.3333 -6.66667,-25.3333 -7.33333,-30 -8.66667,-34 -10,-40.6667 -12,-44 -14,-47.3333 -18,-51.3333 -21.3333,-53.3333 -25.3333,-54.6667 -32,-56 -38.6667,-57.3333 -42,-59.3333 -51.3333,-60.6667 -52.6667,-62 -55.3333,-62 -59.3333,-63.3333 -62.6667,-65.3333 -64,-66.6667 -68.6667,-67.3333 -71.3333,-67.3333 -77.3333,-69.3333 -81.3333,-70.6667 -86.6667,-70.6667 -90,-72.6667 -98,-75.3333 -102.667,-78.6667 -106.667,-80 -111.333,-80.6667 -112,-77.3333 -114,-78 -117.333,-77.3333 -119.333,-78 -123.333,-71.3333 -124.667,-70 -126.667,-68 -128,-66.6667 -130.667,-66.6667 -131.333,-66 -140,-68 -144,-69.3333 -149.333,-72 -152.667,-74 -157.333,-77.3333 -162,-80.6667 -163.333,-82 -168,-88 -169.333,-92 -168.667,-92.6667 -172.667,-102 -172,-102.667 -172.667,-104.667 -173.333,-106.667 -172,-110.667 -172,-113.333 -169.333,-116 -168,-117.333 -166,-119.333 -165.333,-120 -163.333,-122 -160,-122.667 -158,-122 -154,-120.667 -152.667,-122 -152,-122.667 -150.667,-124 -150.667,-126.667 -152,-128 -156,-132 -157.333,-133.333 -160.667,-132.667 -164.667,-136.667 -166,-138 -168,-141.333 -167.333,-142 -168.667,-143.333 -166.667,-145.333 -167.333,-150 -168,-154.667 -172,-158.667 -174.667,-161.333 -174.667,-158.667 -176,-160 -176.667,-159.333 -178.667,-157.333 -179.333,-156.667 -180,-156 -181.333,-157.333 -182.667,-158.667 -186,-160.667 -186.667,-160 -188.667,-158 -189.333,-157.333 -192.667,-159.333 -198,-164.667 -197.333,-168 -198.667,-169.333 -200.667,-172.667 -202,-176.667 -202.667,-181.333 -202.667,-184 -204.667,-190 -207.333,-195.333 -208,-197.333 -205.333,-202.667 -203.333,-204.667 -196,-204 -194.667,-205.333 -188.667,-206 -185.333,-206.667 -184.667,-207.333 -180.667,-208.667 -173.333,-208 -169.333,-206.667 -167.333,-208.667 -167.333,-211.333 -168.667,-212.667 -169.333,-214.667 -171.333,-218 -172,-222.667 -171.333,-223.333 -170,-224.667 -168.667,-226 -166.667,-228 -165.333,-229.333 -164,-230.667 -162,-232.667 -161.333,-233.333 -158,-231.333 -155.333,-228.667 -152,-226.667 -150.667,-228 -149.333,-229.333 -148.667,-230 -148,-233.333 -148.667,-235.333 -150.667,-238.667 -150,-244.667 -149.333,-245.333 -148,-246.667 -144,-250.667 -141.333,-250.667 -140,-252 -137.333,-252 -137.333,-254.667 -133.333,-256 -130.667,-253.333 -131.333,-258 -131.333,-255.333 -135.333,-259.333 -142.667,-268 -143.333,-270 -146,-278 -144.667,-279.333 -143.333,-280.667 -143.333,-286 -144.667,-290 -147.333,-292.667 -148,-294.667 -146.667,-296 -146,-299.333 -144.667,-300.667 -144,-301.333 -138,-307.333 -137.333,-308 -135.333,-307.333 -132.667,-307.333 -130.667,-309.333 -130.667,-306.667 -130,-307.333 -128,-309.333 -128.667,-311.333 -128,-312 -126.667,-313.333 -122.667,-317.333 -120.667,-319.333 -120,-320 -118.667,-321.333 -116,-321.333 -115.333,-322 -112.667,-322 -110.667,-324 -107.333,-327.333 -106,-328.667 -103.333,-326 -100.667,-323.333 -99.3333,-322 -97.3333,-316 -98,-315.333 -94,-308.667 -94,-306 -93.3333,-306.667 -92,-305.333 -88,-304 -86.6667,-302.667 -84,-300 -84,-297.333 -88,-298.667 -86.6667,-297.333 -86,-295.333 -87.3333,-291.333 -86,-290 -84,-289.333 -80.6667,-290 -76.6667,-291.333 -74,-294 -72.6667,-295.333 -70.6667,-297.333 -68,-297.333 -61.3333,-296 -59.3333,-298 -57.3333,-297.333 -49.3333,-292 -48,-290.667 -40.6667,-287.333 -31.3333,-283.333 -32.6667,-276.667 -33.3333,-276 -31.3333,-270 -32,-269.333 -31.3333,-267.333 -29.3333,-264 -28,-260 -29.3333,-258.667 -30,-258 -26,-251.333 -24,-250.667 -22,-252.667 -19.3333,-252.667 -17.3333,-254.667 -20,-260 -19.3333,-260.667 -14.6667,-260 -10.6667,-258.667 -8,-256 -4,-257.333 -1.33333,-260 0.666667,-259.333 3.33333,-259.333 4,-260 4,-262.667 5.33333,-264 7.33333,-263.333 11.3333,-259.333 11.3333,-254 12.6667,-250 14.6667,-246.667 16,-245.333 18.6667,-242.667 19.3333,-235.333 18,-234 16,-232 16,-229.333 20,-222.667 21.3333,-221.333 24,-213.333 28,-206.667 29.3333,-205.333 32.6667,-195.333 33.3333,-193.333 35.3333,-187.333 39.3333,-183.333 40.6667,-182 44,-174.667 45.3333,-170.667 46.6667,-166.667 48,-162.667 48.6667,-160.667 50.6667,-157.333 58,-143.333 63.3333,-135.333 70,-128.667 74,-124.667 75.3333,-123.333 76.6667,-122 78,-115.333 76.6667,-114 76,-108 75.3333,-102 70.6667,-102.667 70,-102 68,-102.667 58,-119.333 54,-126 49.3333,-132 46,-136.667 42,-140.667 39.3333,-143.333 36.6667,-140.667 36,-140 36.6667,-138 39.3333,-132.667 40,-130.667 38.6667,-129.333 38,-128.667 38,-126 40,-122.667 40.6667,-120.667 42.6667,-114.667 43.3333,-112.667 42.6667,-112 48,-96 48.6667,-94 50,-92.6667 50,-90 51.3333,-88.6667 54,-86 58,-82 64,-85.3333 70,-88.6667 72.6667,-88.6667 73.3333,-89.3333 83.3333,-86 84,-86.6667 88,-82.6667 90.6667,-80 94.6667,-76 99.3333,-67.3333 96.6667,-64.6667 92.6667,-55.3333 92,-52 86,-56.6667 80,-61.3333 76.6667,-63.3333 70,-70 66.6667,-74.6667 63.3333,-74 59.3333,-75.3333 58.6667,-74.6667 59.3333,-70 55.3333,-68.6667 54.6667,-65.3333 54.6667,-62.6667 56.6667,-59.3333 55.3333,-58 54.6667,-57.3333 60,-49.3333 61.3333,-48 62.6667,-46.6667 68,-41.3333 69.3333,-40 80,-26.6667 82.6667,-24 80.6667,-22 78.6667,-20 76,-20 74,-18 69.3333,-13.3333 68,-12 65.3333,-14.6667 61.3333,-21.3333 58.6667,-24 58,-26 55.3333,-34 52.6667,-36.6667 50,-42 47.3333,-44.6667 46,-46 44.6667,-47.3333 44.6667,-52.6667 43.3333,-56.6667 38,-64.6667 35.3333,-67.3333 30.6667,-70.6667 25.3333,-73.3333 22.6667,-76 22,-75.3333 16.6667,-80.6667 9.33333,-86.6667 10.6667,-85.3333 16,-77.3333 18.6667,-72 22.6667,-68 20.6667,-66 20,-65.3333 17.3333,-62.6667 16.6667,-62 19.3333,-56.6667 17.3333,-57.3333 15.3333,-58 14.6667,-57.3333 7.33333,-63.3333 4,-70.6667 3.33333,-78 -2,-83.3333 -3.33333,-84.6667 -6,-84.6667 -8,-82.6667 -8.66667,-82 -12.6667,-83.3333 -13.3333,-82.6667 -19.3333,-84.6667 -22.6667,-86.6667 -24.6667,-87.3333 -26,-86 -27.3333,-84.6667 -25.3333,-78.6667 -16.6667,-68.6667 -8,-61.3333 -4,-57.3333 -1.33333,-49.3333 2,-42 7.33333,-34 11.3333,-27.3333 14,-22 15.3333,-20.6667 15.3333,-18 21.3333,-10.6667 22.6667,-9.33333 24,-5.33333 23.3333,-4.66667 20.6667,-2 19.3333,-0.666667 16.6667,2 15.3333,0.666667 12.6667,-2"/>
  </object>
  <object id="551" x="10003" y="1609">
   <properties>
    <property name="collision" type="bool" value="true"/>
   </properties>
   <polygon points="0,0 -4,-17.3333 -5.33333,-21.3333 -6.66667,-25.3333 -7.33333,-30 -8.66667,-34 -10,-40.6667 -12,-44 -14,-47.3333 -18,-51.3333 -21.3333,-53.3333 -25.3333,-54.6667 -32,-56 -38.6667,-57.3333 -42,-59.3333 -51.3333,-60.6667 -52.6667,-62 -55.3333,-62 -59.3333,-63.3333 -62.6667,-65.3333 -64,-66.6667 -68.6667,-67.3333 -71.3333,-67.3333 -77.3333,-69.3333 -81.3333,-70.6667 -86.6667,-70.6667 -90,-72.6667 -98,-75.3333 -102.667,-78.6667 -106.667,-80 -111.333,-80.6667 -112,-77.3333 -114,-78 -117.333,-77.3333 -119.333,-78 -123.333,-71.3333 -124.667,-70 -126.667,-68 -128,-66.6667 -130.667,-66.6667 -131.333,-66 -140,-68 -144,-69.3333 -149.333,-72 -152.667,-74 -157.333,-77.3333 -162,-80.6667 -163.333,-82 -168,-88 -169.333,-92 -168.667,-92.6667 -172.667,-102 -172,-102.667 -172.667,-104.667 -173.333,-106.667 -172,-110.667 -172,-113.333 -169.333,-116 -168,-117.333 -166,-119.333 -165.333,-120 -163.333,-122 -160,-122.667 -158,-122 -154,-120.667 -152.667,-122 -152,-122.667 -150.667,-124 -150.667,-126.667 -152,-128 -156,-132 -157.333,-133.333 -160.667,-132.667 -164.667,-136.667 -166,-138 -168,-141.333 -167.333,-142 -168.667,-143.333 -166.667,-145.333 -167.333,-150 -168,-154.667 -172,-158.667 -174.667,-161.333 -174.667,-158.667 -176,-160 -176.667,-159.333 -178.667,-157.333 -179.333,-156.667 -180,-156 -181.333,-157.333 -182.667,-158.667 -186,-160.667 -186.667,-160 -188.667,-158 -189.333,-157.333 -192.667,-159.333 -198,-164.667 -197.333,-168 -198.667,-169.333 -200.667,-172.667 -202,-176.667 -202.667,-181.333 -202.667,-184 -204.667,-190 -207.333,-195.333 -208,-197.333 -205.333,-202.667 -203.333,-204.667 -196,-204 -194.667,-205.333 -188.667,-206 -185.333,-206.667 -184.667,-207.333 -180.667,-208.667 -173.333,-208 -169.333,-206.667 -167.333,-208.667 -167.333,-211.333 -168.667,-212.667 -169.333,-214.667 -171.333,-218 -172,-222.667 -171.333,-223.333 -170,-224.667 -168.667,-226 -166.667,-228 -165.333,-229.333 -164,-230.667 -162,-232.667 -161.333,-233.333 -158,-231.333 -155.333,-228.667 -152,-226.667 -150.667,-228 -149.333,-229.333 -148.667,-230 -148,-233.333 -148.667,-235.333 -150.667,-238.667 -150,-244.667 -149.333,-245.333 -148,-246.667 -144,-250.667 -141.333,-250.667 -140,-252 -137.333,-252 -137.333,-254.667 -133.333,-256 -130.667,-253.333 -131.333,-258 -131.333,-255.333 -135.333,-259.333 -142.667,-268 -143.333,-270 -146,-278 -144.667,-279.333 -143.333,-280.667 -143.333,-286 -144.667,-290 -147.333,-292.667 -148,-294.667 -146.667,-296 -146,-299.333 -144.667,-300.667 -144,-301.333 -138,-307.333 -137.333,-308 -135.333,-307.333 -132.667,-307.333 -130.667,-309.333 -130.667,-306.667 -130,-307.333 -128,-309.333 -128.667,-311.333 -128,-312 -126.667,-313.333 -122.667,-317.333 -120.667,-319.333 -120,-320 -118.667,-321.333 -116,-321.333 -115.333,-322 -112.667,-322 -110.667,-324 -107.333,-327.333 -106,-328.667 -103.333,-326 -100.667,-323.333 -99.3333,-322 -97.3333,-316 -98,-315.333 -94,-308.667 -94,-306 -93.3333,-306.667 -92,-305.333 -88,-304 -86.6667,-302.667 -84,-300 -84,-297.333 -88,-298.667 -86.6667,-297.333 -86,-295.333 -87.3333,-291.333 -86,-290 -84,-289.333 -80.6667,-290 -76.6667,-291.333 -74,-294 -72.6667,-295.333 -70.6667,-297.333 -68,-297.333 -61.3333,-296 -59.3333,-298 -57.3333,-297.333 -49.3333,-292 -48,-290.667 -40.6667,-287.333 -31.3333,-283.333 -32.6667,-276.667 -33.3333,-276 -31.3333,-270 -32,-269.333 -31.3333,-267.333 -29.3333,-264 -28,-260 -29.3333,-258.667 -30,-258 -26,-251.333 -24,-250.667 -22,-252.667 -19.3333,-252.667 -17.3333,-254.667 -20,-260 -19.3333,-260.667 -14.6667,-260 -10.6667,-258.667 -8,-256 -4,-257.333 -1.33333,-260 0.666667,-259.333 3.33333,-259.333 4,-260 4,-262.667 5.33333,-264 7.33333,-263.333 11.3333,-259.333 11.3333,-254 12.6667,-250 14.6667,-246.667 16,-245.333 18.6667,-242.667 19.3333,-235.333 18,-234 16,-232 16,-229.333 20,-222.667 21.3333,-221.333 24,-213.333 28,-206.667 29.3333,-205.333 32.6667,-195.333 33.3333,-193.333 35.3333,-187.333 39.3333,-183.333 40.6667,-182 44,-174.667 45.3333,-170.667 46.6667,-166.667 48,-162.667 48.6667,-160.667 50.6667,-157.333 58,-143.333 63.3333,-135.333 70,-128.667 74,-124.667 75.3333,-123.333 76.6667,-122 78,-115.333 76.6667,-114 76,-108 75.3333,-102 70.6667,-102.667 70,-102 68,-102.667 58,-119.333 54,-126 49.3333,-132 46,-136.667 42,-140.667 39.3333,-143.333 36.6667,-140.667 36,-140 36.6667,-138 39.3333,-132.667 40,-130.667 38.6667,-129.333 38,-128.667 38,-126 40,-122.667 40.6667,-120.667 42.6667,-114.667 43.3333,-112.667 42.6667,-112 48,-96 48.6667,-94 50,-92.6667 50,-90 51.3333,-88.6667 54,-86 58,-82 64,-85.3333 70,-88.6667 72.6667,-88.6667 73.3333,-89.3333 83.3333,-86 84,-86.6667 88,-82.6667 90.6667,-80 94.6667,-76 99.3333,-67.3333 96.6667,-64.6667 92.6667,-55.3333 92,-52 86,-56.6667 80,-61.3333 76.6667,-63.3333 70,-70 66.6667,-74.6667 63.3333,-74 59.3333,-75.3333 58.6667,-74.6667 59.3333,-70 55.3333,-68.6667 54.6667,-65.3333 54.6667,-62.6667 56.6667,-59.3333 55.3333,-58 54.6667,-57.3333 60,-49.3333 61.3333,-48 62.6667,-46.6667 68,-41.3333 69.3333,-40 80,-26.6667 82.6667,-24 80.6667,-22 78.6667,-20 76,-20 74,-18 69.3333,-13.3333 68,-12 65.3333,-14.6667 61.3333,-21.3333 58.6667,-24 58,-26 55.3333,-34 52.6667,-36.6667 50,-42 47.3333,-44.6667 46,-46 44.6667,-47.3333 44.6667,-52.6667 43.3333,-56.6667 38,-64.6667 35.3333,-67.3333 30.6667,-70.6667 25.3333,-73.3333 22.6667,-76 22,-75.3333 16.6667,-80.6667 9.33333,-86.6667 10.6667,-85.3333 16,-77.3333 18.6667,-72 22.6667,-68 20.6667,-66 20,-65.3333 17.3333,-62.6667 16.6667,-62 19.3333,-56.6667 17.3333,-57.3333 15.3333,-58 14.6667,-57.3333 7.33333,-63.3333 4,-70.6667 3.33333,-78 -2,-83.3333 -3.33333,-84.6667 -6,-84.6667 -8,-82.6667 -8.66667,-82 -12.6667,-83.3333 -13.3333,-82.6667 -19.3333,-84.6667 -22.6667,-86.6667 -24.6667,-87.3333 -26,-86 -27.3333,-84.6667 -25.3333,-78.6667 -16.6667,-68.6667 -8,-61.3333 -4,-57.3333 -1.33333,-49.3333 2,-42 7.33333,-34 11.3333,-27.3333 14,-22 15.3333,-20.6667 15.3333,-18 21.3333,-10.6667 22.6667,-9.33333 24,-5.33333 23.3333,-4.66667 20.6667,-2 19.3333,-0.666667 16.6667,2 15.3333,0.666667 12.6667,-2"/>
  </object>
  <object id="552" x="7417" y="2195">
   <properties>
    <property name="collision" type="bool" value="true"/>
   </properties>
   <polygon points="0,0 -4,-17.3333 -5.33333,-21.3333 -6.66667,-25.3333 -7.33333,-30 -8.66667,-34 -10,-40.6667 -12,-44 -14,-47.3333 -18,-51.3333 -21.3333,-53.3333 -25.3333,-54.6667 -32,-56 -38.6667,-57.3333 -42,-59.3333 -51.3333,-60.6667 -52.6667,-62 -55.3333,-62 -59.3333,-63.3333 -62.6667,-65.3333 -64,-66.6667 -68.6667,-67.3333 -71.3333,-67.3333 -77.3333,-69.3333 -81.3333,-70.6667 -86.6667,-70.6667 -90,-72.6667 -98,-75.3333 -102.667,-78.6667 -106.667,-80 -111.333,-80.6667 -112,-77.3333 -114,-78 -117.333,-77.3333 -119.333,-78 -123.333,-71.3333 -124.667,-70 -126.667,-68 -128,-66.6667 -130.667,-66.6667 -131.333,-66 -140,-68 -144,-69.3333 -149.333,-72 -152.667,-74 -157.333,-77.3333 -162,-80.6667 -163.333,-82 -168,-88 -169.333,-92 -168.667,-92.6667 -172.667,-102 -172,-102.667 -172.667,-104.667 -173.333,-106.667 -172,-110.667 -172,-113.333 -169.333,-116 -168,-117.333 -166,-119.333 -165.333,-120 -163.333,-122 -160,-122.667 -158,-122 -154,-120.667 -152.667,-122 -152,-122.667 -150.667,-124 -150.667,-126.667 -152,-128 -156,-132 -157.333,-133.333 -160.667,-132.667 -164.667,-136.667 -166,-138 -168,-141.333 -167.333,-142 -168.667,-143.333 -166.667,-145.333 -167.333,-150 -168,-154.667 -172,-158.667 -174.667,-161.333 -174.667,-158.667 -176,-160 -176.667,-159.333 -178.667,-157.333 -179.333,-156.667 -180,-156 -181.333,-157.333 -182.667,-158.667 -186,-160.667 -186.667,-160 -188.667,-158 -189.333,-157.333 -192.667,-159.333 -198,-164.667 -197.333,-168 -198.667,-169.333 -200.667,-172.667 -202,-176.667 -202.667,-181.333 -202.667,-184 -204.667,-190 -207.333,-195.333 -208,-197.333 -205.333,-202.667 -203.333,-204.667 -196,-204 -194.667,-205.333 -188.667,-206 -185.333,-206.667 -184.667,-207.333 -180.667,-208.667 -173.333,-208 -169.333,-206.667 -167.333,-208.667 -167.333,-211.333 -168.667,-212.667 -169.333,-214.667 -171.333,-218 -172,-222.667 -171.333,-223.333 -170,-224.667 -168.667,-226 -166.667,-228 -165.333,-229.333 -164,-230.667 -162,-232.667 -161.333,-233.333 -158,-231.333 -155.333,-228.667 -152,-226.667 -150.667,-228 -149.333,-229.333 -148.667,-230 -148,-233.333 -148.667,-235.333 -150.667,-238.667 -150,-244.667 -149.333,-245.333 -148,-246.667 -144,-250.667 -141.333,-250.667 -140,-252 -137.333,-252 -137.333,-254.667 -133.333,-256 -130.667,-253.333 -131.333,-258 -131.333,-255.333 -135.333,-259.333 -142.667,-268 -143.333,-270 -146,-278 -144.667,-279.333 -143.333,-280.667 -143.333,-286 -144.667,-290 -147.333,-292.667 -148,-294.667 -146.667,-296 -146,-299.333 -144.667,-300.667 -144,-301.333 -138,-307.333 -137.333,-308 -135.333,-307.333 -132.667,-307.333 -130.667,-309.333 -130.667,-306.667 -130,-307.333 -128,-309.333 -128.667,-311.333 -128,-312 -126.667,-313.333 -122.667,-317.333 -120.667,-319.333 -120,-320 -118.667,-321.333 -116,-321.333 -115.333,-322 -112.667,-322 -110.667,-324 -107.333,-327.333 -106,-328.667 -103.333,-326 -100.667,-323.333 -99.3333,-322 -97.3333,-316 -98,-315.333 -94,-308.667 -94,-306 -93.3333,-306.667 -92,-305.333 -88,-304 -86.6667,-302.667 -84,-300 -84,-297.333 -88,-298.667 -86.6667,-297.333 -86,-295.333 -87.3333,-291.333 -86,-290 -84,-289.333 -80.6667,-290 -76.6667,-291.333 -74,-294 -72.6667,-295.333 -70.6667,-297.333 -68,-297.333 -61.3333,-296 -59.3333,-298 -57.3333,-297.333 -49.3333,-292 -48,-290.667 -40.6667,-287.333 -31.3333,-283.333 -32.6667,-276.667 -33.3333,-276 -31.3333,-270 -32,-269.333 -31.3333,-267.333 -29.3333,-264 -28,-260 -29.3333,-258.667 -30,-258 -26,-251.333 -24,-250.667 -22,-252.667 -19.3333,-252.667 -17.3333,-254.667 -20,-260 -19.3333,-260.667 -14.6667,-260 -10.6667,-258.667 -8,-256 -4,-257.333 -1.33333,-260 0.666667,-259.333 3.33333,-259.333 4,-260 4,-262.667 5.33333,-264 7.33333,-263.333 11.3333,-259.333 11.3333,-254 12.6667,-250 14.6667,-246.667 16,-245.333 18.6667,-242.667 19.3333,-235.333 18,-234 16,-232 16,-229.333 20,-222.667 21.3333,-221.333 24,-213.333 28,-206.667 29.3333,-205.333 32.6667,-195.333 33.3333,-193.333 35.3333,-187.333 39.3333,-183.333 40.6667,-182 44,-174.667 45.3333,-170.667 46.6667,-166.667 48,-162.667 48.6667,-160.667 50.6667,-157.333 58,-143.333 63.3333,-135.333 70,-128.667 74,-124.667 75.3333,-123.333 76.6667,-122 78,-115.333 76.6667,-114 76,-108 75.3333,-102 70.6667,-102.667 70,-102 68,-102.667 58,-119.333 54,-126 49.3333,-132 46,-136.667 42,-140.667 39.3333,-143.333 36.6667,-140.667 36,-140 36.6667,-138 39.3333,-132.667 40,-130.667 38.6667,-129.333 38,-128.667 38,-126 40,-122.667 40.6667,-120.667 42.6667,-114.667 43.3333,-112.667 42.6667,-112 48,-96 48.6667,-94 50,-92.6667 50,-90 51.3333,-88.6667 54,-86 58,-82 64,-85.3333 70,-88.6667 72.6667,-88.6667 73.3333,-89.3333 83.3333,-86 84,-86.6667 88,-82.6667 90.6667,-80 94.6667,-76 99.3333,-67.3333 96.6667,-64.6667 92.6667,-55.3333 92,-52 86,-56.6667 80,-61.3333 76.6667,-63.3333 70,-70 66.6667,-74.6667 63.3333,-74 59.3333,-75.3333 58.6667,-74.6667 59.3333,-70 55.3333,-68.6667 54.6667,-65.3333 54.6667,-62.6667 56.6667,-59.3333 55.3333,-58 54.6667,-57.3333 60,-49.3333 61.3333,-48 62.6667,-46.6667 68,-41.3333 69.3333,-40 80,-26.6667 82.6667,-24 80.6667,-22 78.6667,-20 76,-20 74,-18 69.3333,-13.3333 68,-12 65.3333,-14.6667 61.3333,-21.3333 58.6667,-24 58,-26 55.3333,-34 52.6667,-36.6667 50,-42 47.3333,-44.6667 46,-46 44.6667,-47.3333 44.6667,-52.6667 43.3333,-56.6667 38,-64.6667 35.3333,-67.3333 30.6667,-70.6667 25.3333,-73.3333 22.6667,-76 22,-75.3333 16.6667,-80.6667 9.33333,-86.6667 10.6667,-85.3333 16,-77.3333 18.6667,-72 22.6667,-68 20.6667,-66 20,-65.3333 17.3333,-62.6667 16.6667,-62 19.3333,-56.6667 17.3333,-57.3333 15.3333,-58 14.6667,-57.3333 7.33333,-63.3333 4,-70.6667 3.33333,-78 -2,-83.3333 -3.33333,-84.6667 -6,-84.6667 -8,-82.6667 -8.66667,-82 -12.6667,-83.3333 -13.3333,-82.6667 -19.3333,-84.6667 -22.6667,-86.6667 -24.6667,-87.3333 -26,-86 -27.3333,-84.6667 -25.3333,-78.6667 -16.6667,-68.6667 -8,-61.3333 -4,-57.3333 -1.33333,-49.3333 2,-42 7.33333,-34 11.3333,-27.3333 14,-22 15.3333,-20.6667 15.3333,-18 21.3333,-10.6667 22.6667,-9.33333 24,-5.33333 23.3333,-4.66667 20.6667,-2 19.3333,-0.666667 16.6667,2 15.3333,0.666667 12.6667,-2"/>
  </object>
  <object id="553" x="5498" y="2062">
   <properties>
    <property name="collision" type="bool" value="true"/>
   </properties>
   <polygon points="0,0 -4,-17.3333 -5.33333,-21.3333 -6.66667,-25.3333 -7.33333,-30 -8.66667,-34 -10,-40.6667 -12,-44 -14,-47.3333 -18,-51.3333 -21.3333,-53.3333 -25.3333,-54.6667 -32,-56 -38.6667,-57.3333 -42,-59.3333 -51.3333,-60.6667 -52.6667,-62 -55.3333,-62 -59.3333,-63.3333 -62.6667,-65.3333 -64,-66.6667 -68.6667,-67.3333 -71.3333,-67.3333 -77.3333,-69.3333 -81.3333,-70.6667 -86.6667,-70.6667 -90,-72.6667 -98,-75.3333 -102.667,-78.6667 -106.667,-80 -111.333,-80.6667 -112,-77.3333 -114,-78 -117.333,-77.3333 -119.333,-78 -123.333,-71.3333 -124.667,-70 -126.667,-68 -128,-66.6667 -130.667,-66.6667 -131.333,-66 -140,-68 -144,-69.3333 -149.333,-72 -152.667,-74 -157.333,-77.3333 -162,-80.6667 -163.333,-82 -168,-88 -169.333,-92 -168.667,-92.6667 -172.667,-102 -172,-102.667 -172.667,-104.667 -173.333,-106.667 -172,-110.667 -172,-113.333 -169.333,-116 -168,-117.333 -166,-119.333 -165.333,-120 -163.333,-122 -160,-122.667 -158,-122 -154,-120.667 -152.667,-122 -152,-122.667 -150.667,-124 -150.667,-126.667 -152,-128 -156,-132 -157.333,-133.333 -160.667,-132.667 -164.667,-136.667 -166,-138 -168,-141.333 -167.333,-142 -168.667,-143.333 -166.667,-145.333 -167.333,-150 -168,-154.667 -172,-158.667 -174.667,-161.333 -174.667,-158.667 -176,-160 -176.667,-159.333 -178.667,-157.333 -179.333,-156.667 -180,-156 -181.333,-157.333 -182.667,-158.667 -186,-160.667 -186.667,-160 -188.667,-158 -189.333,-157.333 -192.667,-159.333 -198,-164.667 -197.333,-168 -198.667,-169.333 -200.667,-172.667 -202,-176.667 -202.667,-181.333 -202.667,-184 -204.667,-190 -207.333,-195.333 -208,-197.333 -205.333,-202.667 -203.333,-204.667 -196,-204 -194.667,-205.333 -188.667,-206 -185.333,-206.667 -184.667,-207.333 -180.667,-208.667 -173.333,-208 -169.333,-206.667 -167.333,-208.667 -167.333,-211.333 -168.667,-212.667 -169.333,-214.667 -171.333,-218 -172,-222.667 -171.333,-223.333 -170,-224.667 -168.667,-226 -166.667,-228 -165.333,-229.333 -164,-230.667 -162,-232.667 -161.333,-233.333 -158,-231.333 -155.333,-228.667 -152,-226.667 -150.667,-228 -149.333,-229.333 -148.667,-230 -148,-233.333 -148.667,-235.333 -150.667,-238.667 -150,-244.667 -149.333,-245.333 -148,-246.667 -144,-250.667 -141.333,-250.667 -140,-252 -137.333,-252 -137.333,-254.667 -133.333,-256 -130.667,-253.333 -131.333,-258 -131.333,-255.333 -135.333,-259.333 -142.667,-268 -143.333,-270 -146,-278 -144.667,-279.333 -143.333,-280.667 -143.333,-286 -144.667,-290 -147.333,-292.667 -148,-294.667 -146.667,-296 -146,-299.333 -144.667,-300.667 -144,-301.333 -138,-307.333 -137.333,-308 -135.333,-307.333 -132.667,-307.333 -130.667,-309.333 -130.667,-306.667 -130,-307.333 -128,-309.333 -128.667,-311.333 -128,-312 -126.667,-313.333 -122.667,-317.333 -120.667,-319.333 -120,-320 -118.667,-321.333 -116,-321.333 -115.333,-322 -112.667,-322 -110.667,-324 -107.333,-327.333 -106,-328.667 -103.333,-326 -100.667,-323.333 -99.3333,-322 -97.3333,-316 -98,-315.333 -94,-308.667 -94,-306 -93.3333,-306.667 -92,-305.333 -88,-304 -86.6667,-302.667 -84,-300 -84,-297.333 -88,-298.667 -86.6667,-297.333 -86,-295.333 -87.3333,-291.333 -86,-290 -84,-289.333 -80.6667,-290 -76.6667,-291.333 -74,-294 -72.6667,-295.333 -70.6667,-297.333 -68,-297.333 -61.3333,-296 -59.3333,-298 -57.3333,-297.333 -49.3333,-292 -48,-290.667 -40.6667,-287.333 -31.3333,-283.333 -32.6667,-276.667 -33.3333,-276 -31.3333,-270 -32,-269.333 -31.3333,-267.333 -29.3333,-264 -28,-260 -29.3333,-258.667 -30,-258 -26,-251.333 -24,-250.667 -22,-252.667 -19.3333,-252.667 -17.3333,-254.667 -20,-260 -19.3333,-260.667 -14.6667,-260 -10.6667,-258.667 -8,-256 -4,-257.333 -1.33333,-260 0.666667,-259.333 3.33333,-259.333 4,-260 4,-262.667 5.33333,-264 7.33333,-263.333 11.3333,-259.333 11.3333,-254 12.6667,-250 14.6667,-246.667 16,-245.333 18.6667,-242.667 19.3333,-235.333 18,-234 16,-232 16,-229.333 20,-222.667 21.3333,-221.333 24,-213.333 28,-206.667 29.3333,-205.333 32.6667,-195.333 33.3333,-193.333 35.3333,-187.333 39.3333,-183.333 40.6667,-182 44,-174.667 45.3333,-170.667 46.6667,-166.667 48,-162.667 48.6667,-160.667 50.6667,-157.333 58,-143.333 63.3333,-135.333 70,-128.667 74,-124.667 75.3333,-123.333 76.6667,-122 78,-115.333 76.6667,-114 76,-108 75.3333,-102 70.6667,-102.667 70,-102 68,-102.667 58,-119.333 54,-126 49.3333,-132 46,-136.667 42,-140.667 39.3333,-143.333 36.6667,-140.667 36,-140 36.6667,-138 39.3333,-132.667 40,-130.667 38.6667,-129.333 38,-128.667 38,-126 40,-122.667 40.6667,-120.667 42.6667,-114.667 43.3333,-112.667 42.6667,-112 48,-96 48.6667,-94 50,-92.6667 50,-90 51.3333,-88.6667 54,-86 58,-82 64,-85.3333 70,-88.6667 72.6667,-88.6667 73.3333,-89.3333 83.3333,-86 84,-86.6667 88,-82.6667 90.6667,-80 94.6667,-76 99.3333,-67.3333 96.6667,-64.6667 92.6667,-55.3333 92,-52 86,-56.6667 80,-61.3333 76.6667,-63.3333 70,-70 66.6667,-74.6667 63.3333,-74 59.3333,-75.3333 58.6667,-74.6667 59.3333,-70 55.3333,-68.6667 54.6667,-65.3333 54.6667,-62.6667 56.6667,-59.3333 55.3333,-58 54.6667,-57.3333 60,-49.3333 61.3333,-48 62.6667,-46.6667 68,-41.3333 69.3333,-40 80,-26.6667 82.6667,-24 80.6667,-22 78.6667,-20 76,-20 74,-18 69.3333,-13.3333 68,-12 65.3333,-14.6667 61.3333,-21.3333 58.6667,-24 58,-26 55.3333,-34 52.6667,-36.6667 50,-42 47.3333,-44.6667 46,-46 44.6667,-47.3333 44.6667,-52.6667 43.3333,-56.6667 38,-64.6667 35.3333,-67.3333 30.6667,-70.6667 25.3333,-73.3333 22.6667,-76 22,-75.3333 16.6667,-80.6667 9.33333,-86.6667 10.6667,-85.3333 16,-77.3333 18.6667,-72 22.6667,-68 20.6667,-66 20,-65.3333 17.3333,-62.6667 16.6667,-62 19.3333,-56.6667 17.3333,-57.3333 15.3333,-58 14.6667,-57.3333 7.33333,-63.3333 4,-70.6667 3.33333,-78 -2,-83.3333 -3.33333,-84.6667 -6,-84.6667 -8,-82.6667 -8.66667,-82 -12.6667,-83.3333 -13.3333,-82.6667 -19.3333,-84.6667 -22.6667,-86.6667 -24.6667,-87.3333 -26,-86 -27.3333,-84.6667 -25.3333,-78.6667 -16.6667,-68.6667 -8,-61.3333 -4,-57.3333 -1.33333,-49.3333 2,-42 7.33333,-34 11.3333,-27.3333 14,-22 15.3333,-20.6667 15.3333,-18 21.3333,-10.6667 22.6667,-9.33333 24,-5.33333 23.3333,-4.66667 20.6667,-2 19.3333,-0.666667 16.6667,2 15.3333,0.666667 12.6667,-2"/>
  </object>
  <object id="554" x="3324" y="2320">
   <properties>
    <property name="collision" type="bool" value="true"/>
   </properties>
   <polygon points="0,0 -4,-17.3333 -5.33333,-21.3333 -6.66667,-25.3333 -7.33333,-30 -8.66667,-34 -10,-40.6667 -12,-44 -14,-47.3333 -18,-51.3333 -21.3333,-53.3333 -25.3333,-54.6667 -32,-56 -38.6667,-57.3333 -42,-59.3333 -51.3333,-60.6667 -52.6667,-62 -55.3333,-62 -59.3333,-63.3333 -62.6667,-65.3333 -64,-66.6667 -68.6667,-67.3333 -71.3333,-67.3333 -77.3333,-69.3333 -81.3333,-70.6667 -86.6667,-70.6667 -90,-72.6667 -98,-75.3333 -102.667,-78.6667 -106.667,-80 -111.333,-80.6667 -112,-77.3333 -114,-78 -117.333,-77.3333 -119.333,-78 -123.333,-71.3333 -124.667,-70 -126.667,-68 -128,-66.6667 -130.667,-66.6667 -131.333,-66 -140,-68 -144,-69.3333 -149.333,-72 -152.667,-74 -157.333,-77.3333 -162,-80.6667 -163.333,-82 -168,-88 -169.333,-92 -168.667,-92.6667 -172.667,-102 -172,-102.667 -172.667,-104.667 -173.333,-106.667 -172,-110.667 -172,-113.333 -169.333,-116 -168,-117.333 -166,-119.333 -165.333,-120 -163.333,-122 -160,-122.667 -158,-122 -154,-120.667 -152.667,-122 -152,-122.667 -150.667,-124 -150.667,-126.667 -152,-128 -156,-132 -157.333,-133.333 -160.667,-132.667 -164.667,-136.667 -166,-138 -168,-141.333 -167.333,-142 -168.667,-143.333 -166.667,-145.333 -167.333,-150 -168,-154.667 -172,-158.667 -174.667,-161.333 -174.667,-158.667 -176,-160 -176.667,-159.333 -178.667,-157.333 -179.333,-156.667 -180,-156 -181.333,-157.333 -182.667,-158.667 -186,-160.667 -186.667,-160 -188.667,-158 -189.333,-157.333 -192.667,-159.333 -198,-164.667 -197.333,-168 -198.667,-169.333 -200.667,-172.667 -202,-176.667 -202.667,-181.333 -202.667,-184 -204.667,-190 -207.333,-195.333 -208,-197.333 -205.333,-202.667 -203.333,-204.667 -196,-204 -194.667,-205.333 -188.667,-206 -185.333,-206.667 -184.667,-207.333 -180.667,-208.667 -173.333,-208 -169.333,-206.667 -167.333,-208.667 -167.333,-211.333 -168.667,-212.667 -169.333,-214.667 -171.333,-218 -172,-222.667 -171.333,-223.333 -170,-224.667 -168.667,-226 -166.667,-228 -165.333,-229.333 -164,-230.667 -162,-232.667 -161.333,-233.333 -158,-231.333 -155.333,-228.667 -152,-226.667 -150.667,-228 -149.333,-229.333 -148.667,-230 -148,-233.333 -148.667,-235.333 -150.667,-238.667 -150,-244.667 -149.333,-245.333 -148,-246.667 -144,-250.667 -141.333,-250.667 -140,-252 -137.333,-252 -137.333,-254.667 -133.333,-256 -130.667,-253.333 -131.333,-258 -131.333,-255.333 -135.333,-259.333 -142.667,-268 -143.333,-270 -146,-278 -144.667,-279.333 -143.333,-280.667 -143.333,-286 -144.667,-290 -147.333,-292.667 -148,-294.667 -146.667,-296 -146,-299.333 -144.667,-300.667 -144,-301.333 -138,-307.333 -137.333,-308 -135.333,-307.333 -132.667,-307.333 -130.667,-309.333 -130.667,-306.667 -130,-307.333 -128,-309.333 -128.667,-311.333 -128,-312 -126.667,-313.333 -122.667,-317.333 -120.667,-319.333 -120,-320 -118.667,-321.333 -116,-321.333 -115.333,-322 -112.667,-322 -110.667,-324 -107.333,-327.333 -106,-328.667 -103.333,-326 -100.667,-323.333 -99.3333,-322 -97.3333,-316 -98,-315.333 -94,-308.667 -94,-306 -93.3333,-306.667 -92,-305.333 -88,-304 -86.6667,-302.667 -84,-300 -84,-297.333 -88,-298.667 -86.6667,-297.333 -86,-295.333 -87.3333,-291.333 -86,-290 -84,-289.333 -80.6667,-290 -76.6667,-291.333 -74,-294 -72.6667,-295.333 -70.6667,-297.333 -68,-297.333 -61.3333,-296 -59.3333,-298 -57.3333,-297.333 -49.3333,-292 -48,-290.667 -40.6667,-287.333 -31.3333,-283.333 -32.6667,-276.667 -33.3333,-276 -31.3333,-270 -32,-269.333 -31.3333,-267.333 -29.3333,-264 -28,-260 -29.3333,-258.667 -30,-258 -26,-251.333 -24,-250.667 -22,-252.667 -19.3333,-252.667 -17.3333,-254.667 -20,-260 -19.3333,-260.667 -14.6667,-260 -10.6667,-258.667 -8,-256 -4,-257.333 -1.33333,-260 0.666667,-259.333 3.33333,-259.333 4,-260 4,-262.667 5.33333,-264 7.33333,-263.333 11.3333,-259.333 11.3333,-254 12.6667,-250 14.6667,-246.667 16,-245.333 18.6667,-242.667 19.3333,-235.333 18,-234 16,-232 16,-229.333 20,-222.667 21.3333,-221.333 24,-213.333 28,-206.667 29.3333,-205.333 32.6667,-195.333 33.3333,-193.333 35.3333,-187.333 39.3333,-183.333 40.6667,-182 44,-174.667 45.3333,-170.667 46.6667,-166.667 48,-162.667 48.6667,-160.667 50.6667,-157.333 58,-143.333 63.3333,-135.333 70,-128.667 74,-124.667 75.3333,-123.333 76.6667,-122 78,-115.333 76.6667,-114 76,-108 75.3333,-102 70.6667,-102.667 70,-102 68,-102.667 58,-119.333 54,-126 49.3333,-132 46,-136.667 42,-140.667 39.3333,-143.333 36.6667,-140.667 36,-140 36.6667,-138 39.3333,-132.667 40,-130.667 38.6667,-129.333 38,-128.667 38,-126 40,-122.667 40.6667,-120.667 42.6667,-114.667 43.3333,-112.667 42.6667,-112 48,-96 48.6667,-94 50,-92.6667 50,-90 51.3333,-88.6667 54,-86 58,-82 64,-85.3333 70,-88.6667 72.6667,-88.6667 73.3333,-89.3333 83.3333,-86 84,-86.6667 88,-82.6667 90.6667,-80 94.6667,-76 99.3333,-67.3333 96.6667,-64.6667 92.6667,-55.3333 92,-52 86,-56.6667 80,-61.3333 76.6667,-63.3333 70,-70 66.6667,-74.6667 63.3333,-74 59.3333,-75.3333 58.6667,-74.6667 59.3333,-70 55.3333,-68.6667 54.6667,-65.3333 54.6667,-62.6667 56.6667,-59.3333 55.3333,-58 54.6667,-57.3333 60,-49.3333 61.3333,-48 62.6667,-46.6667 68,-41.3333 69.3333,-40 80,-26.6667 82.6667,-24 80.6667,-22 78.6667,-20 76,-20 74,-18 69.3333,-13.3333 68,-12 65.3333,-14.6667 61.3333,-21.3333 58.6667,-24 58,-26 55.3333,-34 52.6667,-36.6667 50,-42 47.3333,-44.6667 46,-46 44.6667,-47.3333 44.6667,-52.6667 43.3333,-56.6667 38,-64.6667 35.3333,-67.3333 30.6667,-70.6667 25.3333,-73.3333 22.6667,-76 22,-75.3333 16.6667,-80.6667 9.33333,-86.6667 10.6667,-85.3333 16,-77.3333 18.6667,-72 22.6667,-68 20.6667,-66 20,-65.3333 17.3333,-62.6667 16.6667,-62 19.3333,-56.6667 17.3333,-57.3333 15.3333,-58 14.6667,-57.3333 7.33333,-63.3333 4,-70.6667 3.33333,-78 -2,-83.3333 -3.33333,-84.6667 -6,-84.6667 -8,-82.6667 -8.66667,-82 -12.6667,-83.3333 -13.3333,-82.6667 -19.3333,-84.6667 -22.6667,-86.6667 -24.6667,-87.3333 -26,-86 -27.3333,-84.6667 -25.3333,-78.6667 -16.6667,-68.6667 -8,-61.3333 -4,-57.3333 -1.33333,-49.3333 2,-42 7.33333,-34 11.3333,-27.3333 14,-22 15.3333,-20.6667 15.3333,-18 21.3333,-10.6667 22.6667,-9.33333 24,-5.33333 23.3333,-4.66667 20.6667,-2 19.3333,-0.666667 16.6667,2 15.3333,0.666667 12.6667,-2"/>
  </object>
  <object id="555" x="2734" y="2526">
   <properties>
    <property name="collision" type="bool" value="true"/>
   </properties>
   <polygon points="0,0 -8,-32 -33,-91 -40,-108 -39,-113 -42,-130 -56,-148 -66,-146 -85,-191 -95,-201 -106.667,-206.667 -120,-193.333 -114,-175.333 -126,-184.667 -144.667,-174 -126,-131.333 -112.667,-118 -112.667,-115.333 -110.667,-109.333 -108,-106.667 -109.333,-105.333 -110,-104.667 -70,-6 -66.6667,-4 -65.3333,-2.66667"/>
  </object>
  <object id="556" x="6992.55" y="1447.7">
   <properties>
    <property name="collision" type="bool" value="true"/>
   </properties>
   <polygon points="0,0 -8,-32 -33,-91 -40,-108 -39,-113 -42,-130 -56,-148 -66,-146 -85,-191 -95,-201 -106.667,-206.667 -120,-193.333 -114,-175.333 -126,-184.667 -144.667,-174 -126,-131.333 -112.667,-118 -112.667,-115.333 -110.667,-109.333 -108,-106.667 -109.333,-105.333 -110,-104.667 -70,-6 -66.6667,-4 -65.3333,-2.66667"/>
  </object>
  <object id="557" x="11819.8" y="2652.39">
   <properties>
    <property name="collision" type="bool" value="true"/>
   </properties>
   <polygon points="0,0 -8,-32 -33,-91 -40,-108 -39,-113 -42,-130 -56,-148 -66,-146 -85,-191 -95,-201 -106.667,-206.667 -120,-193.333 -114,-175.333 -126,-184.667 -144.667,-174 -126,-131.333 -112.667,-118 -112.667,-115.333 -110.667,-109.333 -108,-106.667 -109.333,-105.333 -110,-104.667 -70,-6 -66.6667,-4 -65.3333,-2.66667"/>
  </object>
  <object id="558" x="8237.52" y="6111.45">
   <properties>
    <property name="collision" type="bool" value="true"/>
   </properties>
   <polygon points="0,0 -8,-32 -33,-91 -40,-108 -39,-113 -42,-130 -56,-148 -66,-146 -85,-191 -95,-201 -106.667,-206.667 -120,-193.333 -114,-175.333 -126,-184.667 -144.667,-174 -126,-131.333 -112.667,-118 -112.667,-115.333 -110.667,-109.333 -108,-106.667 -109.333,-105.333 -110,-104.667 -70,-6 -66.6667,-4 -65.3333,-2.66667"/>
  </object>
  <object id="559" x="6447.64" y="5343.88">
   <properties>
    <property name="collision" type="bool" value="true"/>
   </properties>
   <polygon points="0,0 -8,-32 -33,-91 -40,-108 -39,-113 -42,-130 -56,-148 -66,-146 -85,-191 -95,-201 -106.667,-206.667 -120,-193.333 -114,-175.333 -126,-184.667 -144.667,-174 -126,-131.333 -112.667,-118 -112.667,-115.333 -110.667,-109.333 -108,-106.667 -109.333,-105.333 -110,-104.667 -70,-6 -66.6667,-4 -65.3333,-2.66667"/>
  </object>
  <object id="560" x="2990.36" y="4959.94">
   <properties>
    <property name="collision" type="bool" value="true"/>
   </properties>
   <polygon points="0,0 -8,-32 -33,-91 -40,-108 -39,-113 -42,-130 -56,-148 -66,-146 -85,-191 -95,-201 -106.667,-206.667 -120,-193.333 -114,-175.333 -126,-184.667 -144.667,-174 -126,-131.333 -112.667,-118 -112.667,-115.333 -110.667,-109.333 -108,-106.667 -109.333,-105.333 -110,-104.667 -70,-6 -66.6667,-4 -65.3333,-2.66667"/>
  </object>
  <object id="573" x="2949.33" y="5520">
   <properties>
    <property name="collision" type="bool" value="true"/>
   </properties>
   <polygon points="0,0 6,2 7.33333,3.33333 16.6667,12.6667 18,16.6667 22,20.6667 24.6667,23.3333 28.6667,27.3333 34,32.6667 41.3333,38.6667 45.3333,42.6667 52.6667,48.6667 66,59.3333 79.3333,72.6667 92,81.3333 94.6667,84 97.3333,86.6667 101.333,90.6667 102.667,92 107.333,95.3333 112.667,98 119.333,102 127.333,107.333 130.667,112 134.667,116 136,117.333 138.667,114.667 138.667,112 144,114.667 141.333,106.667 142,106 144,98.6667 147.333,100.667 148,100 148.667,96.6667 150,95.3333 154.667,98.6667 160,101.333 162,102 176,112 179.333,111.333 183.333,112.667 184.667,111.333 187.333,108.667 187.333,103.333 185.333,97.3333 180,89.3333 174.667,81.3333 172,76 168.667,71.3333 166,66 163.333,63.3333 165.333,61.3333 166.667,62.6667 170,64.6667 171.333,66 175.333,70 180,73.3333 181.333,74.6667 186,78 192,80 194,80.6667 197.333,82.6667 199.333,83.3333 203.333,84.6667 204,81.3333 202.667,80 202,78 200,74.6667 199.333,72.6667 196.667,70 192.667,66 192,64 194,62 194,59.3333 197.333,58.6667 198.667,57.3333 199.333,54 201.333,52 202.667,50.6667 206,47.3333 204.667,40.6667 200.667,34 203.333,34 207.333,35.3333 214,36.6667 216,37.3333 217.333,38.6667 222.667,41.3333 225.333,38.6667 224,34.6667 224.667,34 228,33.3333 227.333,28.6667 221.333,21.3333 219.333,18 210.667,5.33333 206,-0.666667 211.333,-3.33333 214,-6 214,-11.3333 214.667,-12 215.333,-12.6667 215.333,-15.3333 214,-19.3333 210.667,-24 208,-26.6667 205.333,-29.3333 204,-30.6667 203.333,-32.6667 201.333,-36 197.333,-42.6667 190.667,-49.3333 188,-52 180,-57.3333 174.667,-57.3333 173.333,-53.3333 176.667,-46 178,-44.6667 179.333,-40.6667 178,-39.3333 178,-36.6667 176,-37.3333 172.667,-42 170.667,-50.6667 170,-55.3333 166,-59.3333 160.667,-64.6667 158,-67.3333 155.333,-64.6667 156.667,-60.6667 160,-50.6667 163.333,-43.3333 162.667,-42.6667 164.667,-39.3333 163.333,-40.6667 160,-48 158,-56.6667 154,-60.6667 152,-64 150.667,-68 151.333,-71.3333 149.333,-77.3333 148,-84 145.333,-89.3333 141.333,-96 138.667,-98.6667 133.333,-104 125.333,-112 119.333,-119.333 111.333,-127.333 107.333,-131.333 102,-136.667 95.3333,-143.333 87.3333,-148.667 84,-148 82.6667,-146.667 88.6667,-134 94,-128.667 96.6667,-123.333 100.667,-119.333 105.333,-113.333 114,-103.333 115.333,-102 119.333,-98 121.333,-94.6667 120.667,-94 121.333,-86.6667 120.667,-86 114.667,-90.6667 109.333,-96 106.667,-98.6667 104.667,-102 101.333,-106.667 98.6667,-109.333 97.3333,-110.667 95.3333,-111.333 94.6667,-110.667 89.3333,-116 88,-117.333 81.3333,-124 78.6667,-126.667 68,-140 65.3333,-142.667 56,-152 51.3333,-158 44.6667,-164.667 43.3333,-166 40,-170.667 34.6667,-176 30.6667,-180 29.3333,-181.333 22.6667,-182.667 20,-182.667 18.6667,-181.333 18,-180.667 16.6667,-179.333 15.3333,-178 16,-173.333 20.6667,-167.333 22,-163.333 24,-160 28.6667,-154 38,-144.667 40.6667,-142 42,-140.667 50,-132.667 51.3333,-131.333 56.6667,-126 60,-124 63.3333,-122 64.6667,-120.667 67.3333,-118 66.6667,-114.667 67.3333,-112.667 68,-108 81.3333,-94.6667 96.6667,-80.6667 98.6667,-80 104.667,-75.3333 106,-74 102,-75.3333 99.3333,-75.3333 96,-72 94,-72.6667 92,-70.6667 94,-67.3333 103.333,-58 110,-51.3333 111.333,-47.3333 109.333,-45.3333 109.333,-42.6667 100,-52 97.3333,-54.6667 90,-63.3333 88,-69.3333 84.6667,-74 81.3333,-78.6667 79.3333,-82 72.6667,-91.3333 70.6667,-94.6667 67.3333,-99.3333 63.3333,-108.667 58,-114 55.3333,-116.667 54,-118 44,-129.333 42.6667,-130.667 38.6667,-134.667 34,-138 31.3333,-138 29.3333,-138.667 26.6667,-138.667 24.6667,-136.667 24,-130.667 30,-123.333 29.3333,-122.667 42.6667,-109.333 40,-106.667 38,-107.333 30,-115.333 27.3333,-118 23.3333,-122 19.3333,-126 8,-133.333 7.33333,-132.667 6,-131.333 8.66667,-126 13.3333,-117.333 14.6667,-116 17.3333,-105.333 18.6667,-104 25.3333,-100 25.3333,-97.3333 30.6667,-92 33.3333,-86.6667 34,-82 33.3333,-81.3333 32.6667,-80.6667 34,-79.3333 38.6667,-76 39.3333,-76.6667 43.3333,-75.3333 47.3333,-74 54,-70 60.6667,-66 62,-64.6667 68,-60 75.3333,-56.6667 76.6667,-55.3333 99.3333,-35.3333 98.6667,-34.6667 90.6667,-37.3333 81.3333,-44 72,-53.3333 69.3333,-56 60.6667,-60.6667 52.6667,-63.3333 48.6667,-64.6667 48,-64 46.6667,-62.6667 46.6667,-60 50,-55.3333 54.6667,-46.6667 56,-45.3333 56.6667,-38 54,-40.6667 50,-44.6667 44.6667,-55.3333 42.6667,-58.6667 33.3333,-65.3333 30,-67.3333 24,-74.6667 19.3333,-80.6667 15.3333,-87.3333 14,-88.6667 0.666667,-104.667 -5.33333,-112 -12,-118.667 -14,-119.333 -17.3333,-116 -17.3333,-113.333 -17.3333,-110.667 -16,-101.333 -12,-97.3333 -9.33333,-94.6667 -2.66667,-88 1.33333,-84 2.66667,-82.6667 10,-76.6667 18,-68.6667 19.3333,-67.3333 22,-64.6667 23.3333,-60.6667 24.6667,-54 22.6667,-54.6667 20,-57.3333 16.6667,-62 11.3333,-67.3333 2,-76.6667 0.666667,-75.3333 0.666667,-72.6667 0.666667,-70 -2.66667,-72 -6.66667,-76 -8,-77.3333 -17.3333,-86.6667 -24,-93.3333 -27.3333,-92.6667 -36,-102.667 -41.3333,-108 -46,-103.333 -44,-100 -46,-92.6667 -45.3333,-90.6667 -40,-82.6667 -38.6667,-86.6667 -39.3333,-86 -35.3333,-82 -32,-80 -28,-76 -25.3333,-73.3333 -14,-63.3333 -12.6667,-62 -11.3333,-60.6667 -6.66667,-57.3333 -6,-58 4.66667,-50 4,-49.3333 6,-46 9.33333,-46.6667 10.6667,-45.3333 13.3333,-42.6667 18.6667,-37.3333 24,-32 29.3333,-26.6667 38.6667,-20 42.6667,-18.6667 48.6667,-14 52,-12 54.6667,-9.33333 58,-2 57.3333,1.33333 54,2 50.6667,0 44.6667,-2 40.6667,-6 38,-8.66667 34,-10 29.3333,-13.3333 26,-15.3333 20.6667,-20.6667 16.6667,-27.3333 14,-32.6667 3.33333,-46 -2,-48.6667 -5.33333,-48 -12,-52 -14.6667,-49.3333 -15.3333,-48.6667 -20,-41.3333 -20.6667,-40.6667 -27.3333,-42 -39.3333,-51.3333 -39.3333,-46 -39.3333,-43.3333 -35.3333,-39.3333 -32.6667,-36.6667 -28.6667,-32.6667 -26,-30 -24.6667,-28.6667 -22,-26 -18.6667,-21.3333 -17.3333,-20 -16.6667,-18 -16,-16 -14.6667,-14.6667"/>
  </object>
  <object id="574" x="3334.67" y="5649.33">
   <properties>
    <property name="collision" type="bool" value="true"/>
   </properties>
   <polygon points="0,0 6,2 7.33333,3.33333 16.6667,12.6667 18,16.6667 22,20.6667 24.6667,23.3333 28.6667,27.3333 34,32.6667 41.3333,38.6667 45.3333,42.6667 52.6667,48.6667 66,59.3333 79.3333,72.6667 92,81.3333 94.6667,84 97.3333,86.6667 101.333,90.6667 102.667,92 107.333,95.3333 112.667,98 119.333,102 127.333,107.333 130.667,112 134.667,116 136,117.333 138.667,114.667 138.667,112 144,114.667 141.333,106.667 142,106 144,98.6667 147.333,100.667 148,100 148.667,96.6667 150,95.3333 154.667,98.6667 160,101.333 162,102 176,112 179.333,111.333 183.333,112.667 184.667,111.333 187.333,108.667 187.333,103.333 185.333,97.3333 180,89.3333 174.667,81.3333 172,76 168.667,71.3333 166,66 163.333,63.3333 165.333,61.3333 166.667,62.6667 170,64.6667 171.333,66 175.333,70 180,73.3333 181.333,74.6667 186,78 192,80 194,80.6667 197.333,82.6667 199.333,83.3333 203.333,84.6667 204,81.3333 202.667,80 202,78 200,74.6667 199.333,72.6667 196.667,70 192.667,66 192,64 194,62 194,59.3333 197.333,58.6667 198.667,57.3333 199.333,54 201.333,52 202.667,50.6667 206,47.3333 204.667,40.6667 200.667,34 203.333,34 207.333,35.3333 214,36.6667 216,37.3333 217.333,38.6667 222.667,41.3333 225.333,38.6667 224,34.6667 224.667,34 228,33.3333 227.333,28.6667 221.333,21.3333 219.333,18 210.667,5.33333 206,-0.666667 211.333,-3.33333 214,-6 214,-11.3333 214.667,-12 215.333,-12.6667 215.333,-15.3333 214,-19.3333 210.667,-24 208,-26.6667 205.333,-29.3333 204,-30.6667 203.333,-32.6667 201.333,-36 197.333,-42.6667 190.667,-49.3333 188,-52 180,-57.3333 174.667,-57.3333 173.333,-53.3333 176.667,-46 178,-44.6667 179.333,-40.6667 178,-39.3333 178,-36.6667 176,-37.3333 172.667,-42 170.667,-50.6667 170,-55.3333 166,-59.3333 160.667,-64.6667 158,-67.3333 155.333,-64.6667 156.667,-60.6667 160,-50.6667 163.333,-43.3333 162.667,-42.6667 164.667,-39.3333 163.333,-40.6667 160,-48 158,-56.6667 154,-60.6667 152,-64 150.667,-68 151.333,-71.3333 149.333,-77.3333 148,-84 145.333,-89.3333 141.333,-96 138.667,-98.6667 133.333,-104 125.333,-112 119.333,-119.333 111.333,-127.333 107.333,-131.333 102,-136.667 95.3333,-143.333 87.3333,-148.667 84,-148 82.6667,-146.667 88.6667,-134 94,-128.667 96.6667,-123.333 100.667,-119.333 105.333,-113.333 114,-103.333 115.333,-102 119.333,-98 121.333,-94.6667 120.667,-94 121.333,-86.6667 120.667,-86 114.667,-90.6667 109.333,-96 106.667,-98.6667 104.667,-102 101.333,-106.667 98.6667,-109.333 97.3333,-110.667 95.3333,-111.333 94.6667,-110.667 89.3333,-116 88,-117.333 81.3333,-124 78.6667,-126.667 68,-140 65.3333,-142.667 56,-152 51.3333,-158 44.6667,-164.667 43.3333,-166 40,-170.667 34.6667,-176 30.6667,-180 29.3333,-181.333 22.6667,-182.667 20,-182.667 18.6667,-181.333 18,-180.667 16.6667,-179.333 15.3333,-178 16,-173.333 20.6667,-167.333 22,-163.333 24,-160 28.6667,-154 38,-144.667 40.6667,-142 42,-140.667 50,-132.667 51.3333,-131.333 56.6667,-126 60,-124 63.3333,-122 64.6667,-120.667 67.3333,-118 66.6667,-114.667 67.3333,-112.667 68,-108 81.3333,-94.6667 96.6667,-80.6667 98.6667,-80 104.667,-75.3333 106,-74 102,-75.3333 99.3333,-75.3333 96,-72 94,-72.6667 92,-70.6667 94,-67.3333 103.333,-58 110,-51.3333 111.333,-47.3333 109.333,-45.3333 109.333,-42.6667 100,-52 97.3333,-54.6667 90,-63.3333 88,-69.3333 84.6667,-74 81.3333,-78.6667 79.3333,-82 72.6667,-91.3333 70.6667,-94.6667 67.3333,-99.3333 63.3333,-108.667 58,-114 55.3333,-116.667 54,-118 44,-129.333 42.6667,-130.667 38.6667,-134.667 34,-138 31.3333,-138 29.3333,-138.667 26.6667,-138.667 24.6667,-136.667 24,-130.667 30,-123.333 29.3333,-122.667 42.6667,-109.333 40,-106.667 38,-107.333 30,-115.333 27.3333,-118 23.3333,-122 19.3333,-126 8,-133.333 7.33333,-132.667 6,-131.333 8.66667,-126 13.3333,-117.333 14.6667,-116 17.3333,-105.333 18.6667,-104 25.3333,-100 25.3333,-97.3333 30.6667,-92 33.3333,-86.6667 34,-82 33.3333,-81.3333 32.6667,-80.6667 34,-79.3333 38.6667,-76 39.3333,-76.6667 43.3333,-75.3333 47.3333,-74 54,-70 60.6667,-66 62,-64.6667 68,-60 75.3333,-56.6667 76.6667,-55.3333 99.3333,-35.3333 98.6667,-34.6667 90.6667,-37.3333 81.3333,-44 72,-53.3333 69.3333,-56 60.6667,-60.6667 52.6667,-63.3333 48.6667,-64.6667 48,-64 46.6667,-62.6667 46.6667,-60 50,-55.3333 54.6667,-46.6667 56,-45.3333 56.6667,-38 54,-40.6667 50,-44.6667 44.6667,-55.3333 42.6667,-58.6667 33.3333,-65.3333 30,-67.3333 24,-74.6667 19.3333,-80.6667 15.3333,-87.3333 14,-88.6667 0.666667,-104.667 -5.33333,-112 -12,-118.667 -14,-119.333 -17.3333,-116 -17.3333,-113.333 -17.3333,-110.667 -16,-101.333 -12,-97.3333 -9.33333,-94.6667 -2.66667,-88 1.33333,-84 2.66667,-82.6667 10,-76.6667 18,-68.6667 19.3333,-67.3333 22,-64.6667 23.3333,-60.6667 24.6667,-54 22.6667,-54.6667 20,-57.3333 16.6667,-62 11.3333,-67.3333 2,-76.6667 0.666667,-75.3333 0.666667,-72.6667 0.666667,-70 -2.66667,-72 -6.66667,-76 -8,-77.3333 -17.3333,-86.6667 -24,-93.3333 -27.3333,-92.6667 -36,-102.667 -41.3333,-108 -46,-103.333 -44,-100 -46,-92.6667 -45.3333,-90.6667 -40,-82.6667 -38.6667,-86.6667 -39.3333,-86 -35.3333,-82 -32,-80 -28,-76 -25.3333,-73.3333 -14,-63.3333 -12.6667,-62 -11.3333,-60.6667 -6.66667,-57.3333 -6,-58 4.66667,-50 4,-49.3333 6,-46 9.33333,-46.6667 10.6667,-45.3333 13.3333,-42.6667 18.6667,-37.3333 24,-32 29.3333,-26.6667 38.6667,-20 42.6667,-18.6667 48.6667,-14 52,-12 54.6667,-9.33333 58,-2 57.3333,1.33333 54,2 50.6667,0 44.6667,-2 40.6667,-6 38,-8.66667 34,-10 29.3333,-13.3333 26,-15.3333 20.6667,-20.6667 16.6667,-27.3333 14,-32.6667 3.33333,-46 -2,-48.6667 -5.33333,-48 -12,-52 -14.6667,-49.3333 -15.3333,-48.6667 -20,-41.3333 -20.6667,-40.6667 -27.3333,-42 -39.3333,-51.3333 -39.3333,-46 -39.3333,-43.3333 -35.3333,-39.3333 -32.6667,-36.6667 -28.6667,-32.6667 -26,-30 -24.6667,-28.6667 -22,-26 -18.6667,-21.3333 -17.3333,-20 -16.6667,-18 -16,-16 -14.6667,-14.6667"/>
  </object>
  <object id="575" x="5508.67" y="6159.33">
   <properties>
    <property name="collision" type="bool" value="true"/>
   </properties>
   <polygon points="0,0 6,2 7.33333,3.33333 16.6667,12.6667 18,16.6667 22,20.6667 24.6667,23.3333 28.6667,27.3333 34,32.6667 41.3333,38.6667 45.3333,42.6667 52.6667,48.6667 66,59.3333 79.3333,72.6667 92,81.3333 94.6667,84 97.3333,86.6667 101.333,90.6667 102.667,92 107.333,95.3333 112.667,98 119.333,102 127.333,107.333 130.667,112 134.667,116 136,117.333 138.667,114.667 138.667,112 144,114.667 141.333,106.667 142,106 144,98.6667 147.333,100.667 148,100 148.667,96.6667 150,95.3333 154.667,98.6667 160,101.333 162,102 176,112 179.333,111.333 183.333,112.667 184.667,111.333 187.333,108.667 187.333,103.333 185.333,97.3333 180,89.3333 174.667,81.3333 172,76 168.667,71.3333 166,66 163.333,63.3333 165.333,61.3333 166.667,62.6667 170,64.6667 171.333,66 175.333,70 180,73.3333 181.333,74.6667 186,78 192,80 194,80.6667 197.333,82.6667 199.333,83.3333 203.333,84.6667 204,81.3333 202.667,80 202,78 200,74.6667 199.333,72.6667 196.667,70 192.667,66 192,64 194,62 194,59.3333 197.333,58.6667 198.667,57.3333 199.333,54 201.333,52 202.667,50.6667 206,47.3333 204.667,40.6667 200.667,34 203.333,34 207.333,35.3333 214,36.6667 216,37.3333 217.333,38.6667 222.667,41.3333 225.333,38.6667 224,34.6667 224.667,34 228,33.3333 227.333,28.6667 221.333,21.3333 219.333,18 210.667,5.33333 206,-0.666667 211.333,-3.33333 214,-6 214,-11.3333 214.667,-12 215.333,-12.6667 215.333,-15.3333 214,-19.3333 210.667,-24 208,-26.6667 205.333,-29.3333 204,-30.6667 203.333,-32.6667 201.333,-36 197.333,-42.6667 190.667,-49.3333 188,-52 180,-57.3333 174.667,-57.3333 173.333,-53.3333 176.667,-46 178,-44.6667 179.333,-40.6667 178,-39.3333 178,-36.6667 176,-37.3333 172.667,-42 170.667,-50.6667 170,-55.3333 166,-59.3333 160.667,-64.6667 158,-67.3333 155.333,-64.6667 156.667,-60.6667 160,-50.6667 163.333,-43.3333 162.667,-42.6667 164.667,-39.3333 163.333,-40.6667 160,-48 158,-56.6667 154,-60.6667 152,-64 150.667,-68 151.333,-71.3333 149.333,-77.3333 148,-84 145.333,-89.3333 141.333,-96 138.667,-98.6667 133.333,-104 125.333,-112 119.333,-119.333 111.333,-127.333 107.333,-131.333 102,-136.667 95.3333,-143.333 87.3333,-148.667 84,-148 82.6667,-146.667 88.6667,-134 94,-128.667 96.6667,-123.333 100.667,-119.333 105.333,-113.333 114,-103.333 115.333,-102 119.333,-98 121.333,-94.6667 120.667,-94 121.333,-86.6667 120.667,-86 114.667,-90.6667 109.333,-96 106.667,-98.6667 104.667,-102 101.333,-106.667 98.6667,-109.333 97.3333,-110.667 95.3333,-111.333 94.6667,-110.667 89.3333,-116 88,-117.333 81.3333,-124 78.6667,-126.667 68,-140 65.3333,-142.667 56,-152 51.3333,-158 44.6667,-164.667 43.3333,-166 40,-170.667 34.6667,-176 30.6667,-180 29.3333,-181.333 22.6667,-182.667 20,-182.667 18.6667,-181.333 18,-180.667 16.6667,-179.333 15.3333,-178 16,-173.333 20.6667,-167.333 22,-163.333 24,-160 28.6667,-154 38,-144.667 40.6667,-142 42,-140.667 50,-132.667 51.3333,-131.333 56.6667,-126 60,-124 63.3333,-122 64.6667,-120.667 67.3333,-118 66.6667,-114.667 67.3333,-112.667 68,-108 81.3333,-94.6667 96.6667,-80.6667 98.6667,-80 104.667,-75.3333 106,-74 102,-75.3333 99.3333,-75.3333 96,-72 94,-72.6667 92,-70.6667 94,-67.3333 103.333,-58 110,-51.3333 111.333,-47.3333 109.333,-45.3333 109.333,-42.6667 100,-52 97.3333,-54.6667 90,-63.3333 88,-69.3333 84.6667,-74 81.3333,-78.6667 79.3333,-82 72.6667,-91.3333 70.6667,-94.6667 67.3333,-99.3333 63.3333,-108.667 58,-114 55.3333,-116.667 54,-118 44,-129.333 42.6667,-130.667 38.6667,-134.667 34,-138 31.3333,-138 29.3333,-138.667 26.6667,-138.667 24.6667,-136.667 24,-130.667 30,-123.333 29.3333,-122.667 42.6667,-109.333 40,-106.667 38,-107.333 30,-115.333 27.3333,-118 23.3333,-122 19.3333,-126 8,-133.333 7.33333,-132.667 6,-131.333 8.66667,-126 13.3333,-117.333 14.6667,-116 17.3333,-105.333 18.6667,-104 25.3333,-100 25.3333,-97.3333 30.6667,-92 33.3333,-86.6667 34,-82 33.3333,-81.3333 32.6667,-80.6667 34,-79.3333 38.6667,-76 39.3333,-76.6667 43.3333,-75.3333 47.3333,-74 54,-70 60.6667,-66 62,-64.6667 68,-60 75.3333,-56.6667 76.6667,-55.3333 99.3333,-35.3333 98.6667,-34.6667 90.6667,-37.3333 81.3333,-44 72,-53.3333 69.3333,-56 60.6667,-60.6667 52.6667,-63.3333 48.6667,-64.6667 48,-64 46.6667,-62.6667 46.6667,-60 50,-55.3333 54.6667,-46.6667 56,-45.3333 56.6667,-38 54,-40.6667 50,-44.6667 44.6667,-55.3333 42.6667,-58.6667 33.3333,-65.3333 30,-67.3333 24,-74.6667 19.3333,-80.6667 15.3333,-87.3333 14,-88.6667 0.666667,-104.667 -5.33333,-112 -12,-118.667 -14,-119.333 -17.3333,-116 -17.3333,-113.333 -17.3333,-110.667 -16,-101.333 -12,-97.3333 -9.33333,-94.6667 -2.66667,-88 1.33333,-84 2.66667,-82.6667 10,-76.6667 18,-68.6667 19.3333,-67.3333 22,-64.6667 23.3333,-60.6667 24.6667,-54 22.6667,-54.6667 20,-57.3333 16.6667,-62 11.3333,-67.3333 2,-76.6667 0.666667,-75.3333 0.666667,-72.6667 0.666667,-70 -2.66667,-72 -6.66667,-76 -8,-77.3333 -17.3333,-86.6667 -24,-93.3333 -27.3333,-92.6667 -36,-102.667 -41.3333,-108 -46,-103.333 -44,-100 -46,-92.6667 -45.3333,-90.6667 -40,-82.6667 -38.6667,-86.6667 -39.3333,-86 -35.3333,-82 -32,-80 -28,-76 -25.3333,-73.3333 -14,-63.3333 -12.6667,-62 -11.3333,-60.6667 -6.66667,-57.3333 -6,-58 4.66667,-50 4,-49.3333 6,-46 9.33333,-46.6667 10.6667,-45.3333 13.3333,-42.6667 18.6667,-37.3333 24,-32 29.3333,-26.6667 38.6667,-20 42.6667,-18.6667 48.6667,-14 52,-12 54.6667,-9.33333 58,-2 57.3333,1.33333 54,2 50.6667,0 44.6667,-2 40.6667,-6 38,-8.66667 34,-10 29.3333,-13.3333 26,-15.3333 20.6667,-20.6667 16.6667,-27.3333 14,-32.6667 3.33333,-46 -2,-48.6667 -5.33333,-48 -12,-52 -14.6667,-49.3333 -15.3333,-48.6667 -20,-41.3333 -20.6667,-40.6667 -27.3333,-42 -39.3333,-51.3333 -39.3333,-46 -39.3333,-43.3333 -35.3333,-39.3333 -32.6667,-36.6667 -28.6667,-32.6667 -26,-30 -24.6667,-28.6667 -22,-26 -18.6667,-21.3333 -17.3333,-20 -16.6667,-18 -16,-16 -14.6667,-14.6667"/>
  </object>
  <object id="576" x="6789.67" y="6674.33">
   <properties>
    <property name="collision" type="bool" value="true"/>
   </properties>
   <polygon points="0,0 6,2 7.33333,3.33333 16.6667,12.6667 18,16.6667 22,20.6667 24.6667,23.3333 28.6667,27.3333 34,32.6667 41.3333,38.6667 45.3333,42.6667 52.6667,48.6667 66,59.3333 79.3333,72.6667 92,81.3333 94.6667,84 97.3333,86.6667 101.333,90.6667 102.667,92 107.333,95.3333 112.667,98 119.333,102 127.333,107.333 130.667,112 134.667,116 136,117.333 138.667,114.667 138.667,112 144,114.667 141.333,106.667 142,106 144,98.6667 147.333,100.667 148,100 148.667,96.6667 150,95.3333 154.667,98.6667 160,101.333 162,102 176,112 179.333,111.333 183.333,112.667 184.667,111.333 187.333,108.667 187.333,103.333 185.333,97.3333 180,89.3333 174.667,81.3333 172,76 168.667,71.3333 166,66 163.333,63.3333 165.333,61.3333 166.667,62.6667 170,64.6667 171.333,66 175.333,70 180,73.3333 181.333,74.6667 186,78 192,80 194,80.6667 197.333,82.6667 199.333,83.3333 203.333,84.6667 204,81.3333 202.667,80 202,78 200,74.6667 199.333,72.6667 196.667,70 192.667,66 192,64 194,62 194,59.3333 197.333,58.6667 198.667,57.3333 199.333,54 201.333,52 202.667,50.6667 206,47.3333 204.667,40.6667 200.667,34 203.333,34 207.333,35.3333 214,36.6667 216,37.3333 217.333,38.6667 222.667,41.3333 225.333,38.6667 224,34.6667 224.667,34 228,33.3333 227.333,28.6667 221.333,21.3333 219.333,18 210.667,5.33333 206,-0.666667 211.333,-3.33333 214,-6 214,-11.3333 214.667,-12 215.333,-12.6667 215.333,-15.3333 214,-19.3333 210.667,-24 208,-26.6667 205.333,-29.3333 204,-30.6667 203.333,-32.6667 201.333,-36 197.333,-42.6667 190.667,-49.3333 188,-52 180,-57.3333 174.667,-57.3333 173.333,-53.3333 176.667,-46 178,-44.6667 179.333,-40.6667 178,-39.3333 178,-36.6667 176,-37.3333 172.667,-42 170.667,-50.6667 170,-55.3333 166,-59.3333 160.667,-64.6667 158,-67.3333 155.333,-64.6667 156.667,-60.6667 160,-50.6667 163.333,-43.3333 162.667,-42.6667 164.667,-39.3333 163.333,-40.6667 160,-48 158,-56.6667 154,-60.6667 152,-64 150.667,-68 151.333,-71.3333 149.333,-77.3333 148,-84 145.333,-89.3333 141.333,-96 138.667,-98.6667 133.333,-104 125.333,-112 119.333,-119.333 111.333,-127.333 107.333,-131.333 102,-136.667 95.3333,-143.333 87.3333,-148.667 84,-148 82.6667,-146.667 88.6667,-134 94,-128.667 96.6667,-123.333 100.667,-119.333 105.333,-113.333 114,-103.333 115.333,-102 119.333,-98 121.333,-94.6667 120.667,-94 121.333,-86.6667 120.667,-86 114.667,-90.6667 109.333,-96 106.667,-98.6667 104.667,-102 101.333,-106.667 98.6667,-109.333 97.3333,-110.667 95.3333,-111.333 94.6667,-110.667 89.3333,-116 88,-117.333 81.3333,-124 78.6667,-126.667 68,-140 65.3333,-142.667 56,-152 51.3333,-158 44.6667,-164.667 43.3333,-166 40,-170.667 34.6667,-176 30.6667,-180 29.3333,-181.333 22.6667,-182.667 20,-182.667 18.6667,-181.333 18,-180.667 16.6667,-179.333 15.3333,-178 16,-173.333 20.6667,-167.333 22,-163.333 24,-160 28.6667,-154 38,-144.667 40.6667,-142 42,-140.667 50,-132.667 51.3333,-131.333 56.6667,-126 60,-124 63.3333,-122 64.6667,-120.667 67.3333,-118 66.6667,-114.667 67.3333,-112.667 68,-108 81.3333,-94.6667 96.6667,-80.6667 98.6667,-80 104.667,-75.3333 106,-74 102,-75.3333 99.3333,-75.3333 96,-72 94,-72.6667 92,-70.6667 94,-67.3333 103.333,-58 110,-51.3333 111.333,-47.3333 109.333,-45.3333 109.333,-42.6667 100,-52 97.3333,-54.6667 90,-63.3333 88,-69.3333 84.6667,-74 81.3333,-78.6667 79.3333,-82 72.6667,-91.3333 70.6667,-94.6667 67.3333,-99.3333 63.3333,-108.667 58,-114 55.3333,-116.667 54,-118 44,-129.333 42.6667,-130.667 38.6667,-134.667 34,-138 31.3333,-138 29.3333,-138.667 26.6667,-138.667 24.6667,-136.667 24,-130.667 30,-123.333 29.3333,-122.667 42.6667,-109.333 40,-106.667 38,-107.333 30,-115.333 27.3333,-118 23.3333,-122 19.3333,-126 8,-133.333 7.33333,-132.667 6,-131.333 8.66667,-126 13.3333,-117.333 14.6667,-116 17.3333,-105.333 18.6667,-104 25.3333,-100 25.3333,-97.3333 30.6667,-92 33.3333,-86.6667 34,-82 33.3333,-81.3333 32.6667,-80.6667 34,-79.3333 38.6667,-76 39.3333,-76.6667 43.3333,-75.3333 47.3333,-74 54,-70 60.6667,-66 62,-64.6667 68,-60 75.3333,-56.6667 76.6667,-55.3333 99.3333,-35.3333 98.6667,-34.6667 90.6667,-37.3333 81.3333,-44 72,-53.3333 69.3333,-56 60.6667,-60.6667 52.6667,-63.3333 48.6667,-64.6667 48,-64 46.6667,-62.6667 46.6667,-60 50,-55.3333 54.6667,-46.6667 56,-45.3333 56.6667,-38 54,-40.6667 50,-44.6667 44.6667,-55.3333 42.6667,-58.6667 33.3333,-65.3333 30,-67.3333 24,-74.6667 19.3333,-80.6667 15.3333,-87.3333 14,-88.6667 0.666667,-104.667 -5.33333,-112 -12,-118.667 -14,-119.333 -17.3333,-116 -17.3333,-113.333 -17.3333,-110.667 -16,-101.333 -12,-97.3333 -9.33333,-94.6667 -2.66667,-88 1.33333,-84 2.66667,-82.6667 10,-76.6667 18,-68.6667 19.3333,-67.3333 22,-64.6667 23.3333,-60.6667 24.6667,-54 22.6667,-54.6667 20,-57.3333 16.6667,-62 11.3333,-67.3333 2,-76.6667 0.666667,-75.3333 0.666667,-72.6667 0.666667,-70 -2.66667,-72 -6.66667,-76 -8,-77.3333 -17.3333,-86.6667 -24,-93.3333 -27.3333,-92.6667 -36,-102.667 -41.3333,-108 -46,-103.333 -44,-100 -46,-92.6667 -45.3333,-90.6667 -40,-82.6667 -38.6667,-86.6667 -39.3333,-86 -35.3333,-82 -32,-80 -28,-76 -25.3333,-73.3333 -14,-63.3333 -12.6667,-62 -11.3333,-60.6667 -6.66667,-57.3333 -6,-58 4.66667,-50 4,-49.3333 6,-46 9.33333,-46.6667 10.6667,-45.3333 13.3333,-42.6667 18.6667,-37.3333 24,-32 29.3333,-26.6667 38.6667,-20 42.6667,-18.6667 48.6667,-14 52,-12 54.6667,-9.33333 58,-2 57.3333,1.33333 54,2 50.6667,0 44.6667,-2 40.6667,-6 38,-8.66667 34,-10 29.3333,-13.3333 26,-15.3333 20.6667,-20.6667 16.6667,-27.3333 14,-32.6667 3.33333,-46 -2,-48.6667 -5.33333,-48 -12,-52 -14.6667,-49.3333 -15.3333,-48.6667 -20,-41.3333 -20.6667,-40.6667 -27.3333,-42 -39.3333,-51.3333 -39.3333,-46 -39.3333,-43.3333 -35.3333,-39.3333 -32.6667,-36.6667 -28.6667,-32.6667 -26,-30 -24.6667,-28.6667 -22,-26 -18.6667,-21.3333 -17.3333,-20 -16.6667,-18 -16,-16 -14.6667,-14.6667"/>
  </object>
  <object id="577" x="5896.67" y="5395.33">
   <properties>
    <property name="collision" type="bool" value="true"/>
   </properties>
   <polygon points="0,0 6,2 7.33333,3.33333 16.6667,12.6667 18,16.6667 22,20.6667 24.6667,23.3333 28.6667,27.3333 34,32.6667 41.3333,38.6667 45.3333,42.6667 52.6667,48.6667 66,59.3333 79.3333,72.6667 92,81.3333 94.6667,84 97.3333,86.6667 101.333,90.6667 102.667,92 107.333,95.3333 112.667,98 119.333,102 127.333,107.333 130.667,112 134.667,116 136,117.333 138.667,114.667 138.667,112 144,114.667 141.333,106.667 142,106 144,98.6667 147.333,100.667 148,100 148.667,96.6667 150,95.3333 154.667,98.6667 160,101.333 162,102 176,112 179.333,111.333 183.333,112.667 184.667,111.333 187.333,108.667 187.333,103.333 185.333,97.3333 180,89.3333 174.667,81.3333 172,76 168.667,71.3333 166,66 163.333,63.3333 165.333,61.3333 166.667,62.6667 170,64.6667 171.333,66 175.333,70 180,73.3333 181.333,74.6667 186,78 192,80 194,80.6667 197.333,82.6667 199.333,83.3333 203.333,84.6667 204,81.3333 202.667,80 202,78 200,74.6667 199.333,72.6667 196.667,70 192.667,66 192,64 194,62 194,59.3333 197.333,58.6667 198.667,57.3333 199.333,54 201.333,52 202.667,50.6667 206,47.3333 204.667,40.6667 200.667,34 203.333,34 207.333,35.3333 214,36.6667 216,37.3333 217.333,38.6667 222.667,41.3333 225.333,38.6667 224,34.6667 224.667,34 228,33.3333 227.333,28.6667 221.333,21.3333 219.333,18 210.667,5.33333 206,-0.666667 211.333,-3.33333 214,-6 214,-11.3333 214.667,-12 215.333,-12.6667 215.333,-15.3333 214,-19.3333 210.667,-24 208,-26.6667 205.333,-29.3333 204,-30.6667 203.333,-32.6667 201.333,-36 197.333,-42.6667 190.667,-49.3333 188,-52 180,-57.3333 174.667,-57.3333 173.333,-53.3333 176.667,-46 178,-44.6667 179.333,-40.6667 178,-39.3333 178,-36.6667 176,-37.3333 172.667,-42 170.667,-50.6667 170,-55.3333 166,-59.3333 160.667,-64.6667 158,-67.3333 155.333,-64.6667 156.667,-60.6667 160,-50.6667 163.333,-43.3333 162.667,-42.6667 164.667,-39.3333 163.333,-40.6667 160,-48 158,-56.6667 154,-60.6667 152,-64 150.667,-68 151.333,-71.3333 149.333,-77.3333 148,-84 145.333,-89.3333 141.333,-96 138.667,-98.6667 133.333,-104 125.333,-112 119.333,-119.333 111.333,-127.333 107.333,-131.333 102,-136.667 95.3333,-143.333 87.3333,-148.667 84,-148 82.6667,-146.667 88.6667,-134 94,-128.667 96.6667,-123.333 100.667,-119.333 105.333,-113.333 114,-103.333 115.333,-102 119.333,-98 121.333,-94.6667 120.667,-94 121.333,-86.6667 120.667,-86 114.667,-90.6667 109.333,-96 106.667,-98.6667 104.667,-102 101.333,-106.667 98.6667,-109.333 97.3333,-110.667 95.3333,-111.333 94.6667,-110.667 89.3333,-116 88,-117.333 81.3333,-124 78.6667,-126.667 68,-140 65.3333,-142.667 56,-152 51.3333,-158 44.6667,-164.667 43.3333,-166 40,-170.667 34.6667,-176 30.6667,-180 29.3333,-181.333 22.6667,-182.667 20,-182.667 18.6667,-181.333 18,-180.667 16.6667,-179.333 15.3333,-178 16,-173.333 20.6667,-167.333 22,-163.333 24,-160 28.6667,-154 38,-144.667 40.6667,-142 42,-140.667 50,-132.667 51.3333,-131.333 56.6667,-126 60,-124 63.3333,-122 64.6667,-120.667 67.3333,-118 66.6667,-114.667 67.3333,-112.667 68,-108 81.3333,-94.6667 96.6667,-80.6667 98.6667,-80 104.667,-75.3333 106,-74 102,-75.3333 99.3333,-75.3333 96,-72 94,-72.6667 92,-70.6667 94,-67.3333 103.333,-58 110,-51.3333 111.333,-47.3333 109.333,-45.3333 109.333,-42.6667 100,-52 97.3333,-54.6667 90,-63.3333 88,-69.3333 84.6667,-74 81.3333,-78.6667 79.3333,-82 72.6667,-91.3333 70.6667,-94.6667 67.3333,-99.3333 63.3333,-108.667 58,-114 55.3333,-116.667 54,-118 44,-129.333 42.6667,-130.667 38.6667,-134.667 34,-138 31.3333,-138 29.3333,-138.667 26.6667,-138.667 24.6667,-136.667 24,-130.667 30,-123.333 29.3333,-122.667 42.6667,-109.333 40,-106.667 38,-107.333 30,-115.333 27.3333,-118 23.3333,-122 19.3333,-126 8,-133.333 7.33333,-132.667 6,-131.333 8.66667,-126 13.3333,-117.333 14.6667,-116 17.3333,-105.333 18.6667,-104 25.3333,-100 25.3333,-97.3333 30.6667,-92 33.3333,-86.6667 34,-82 33.3333,-81.3333 32.6667,-80.6667 34,-79.3333 38.6667,-76 39.3333,-76.6667 43.3333,-75.3333 47.3333,-74 54,-70 60.6667,-66 62,-64.6667 68,-60 75.3333,-56.6667 76.6667,-55.3333 99.3333,-35.3333 98.6667,-34.6667 90.6667,-37.3333 81.3333,-44 72,-53.3333 69.3333,-56 60.6667,-60.6667 52.6667,-63.3333 48.6667,-64.6667 48,-64 46.6667,-62.6667 46.6667,-60 50,-55.3333 54.6667,-46.6667 56,-45.3333 56.6667,-38 54,-40.6667 50,-44.6667 44.6667,-55.3333 42.6667,-58.6667 33.3333,-65.3333 30,-67.3333 24,-74.6667 19.3333,-80.6667 15.3333,-87.3333 14,-88.6667 0.666667,-104.667 -5.33333,-112 -12,-118.667 -14,-119.333 -17.3333,-116 -17.3333,-113.333 -17.3333,-110.667 -16,-101.333 -12,-97.3333 -9.33333,-94.6667 -2.66667,-88 1.33333,-84 2.66667,-82.6667 10,-76.6667 18,-68.6667 19.3333,-67.3333 22,-64.6667 23.3333,-60.6667 24.6667,-54 22.6667,-54.6667 20,-57.3333 16.6667,-62 11.3333,-67.3333 2,-76.6667 0.666667,-75.3333 0.666667,-72.6667 0.666667,-70 -2.66667,-72 -6.66667,-76 -8,-77.3333 -17.3333,-86.6667 -24,-93.3333 -27.3333,-92.6667 -36,-102.667 -41.3333,-108 -46,-103.333 -44,-100 -46,-92.6667 -45.3333,-90.6667 -40,-82.6667 -38.6667,-86.6667 -39.3333,-86 -35.3333,-82 -32,-80 -28,-76 -25.3333,-73.3333 -14,-63.3333 -12.6667,-62 -11.3333,-60.6667 -6.66667,-57.3333 -6,-58 4.66667,-50 4,-49.3333 6,-46 9.33333,-46.6667 10.6667,-45.3333 13.3333,-42.6667 18.6667,-37.3333 24,-32 29.3333,-26.6667 38.6667,-20 42.6667,-18.6667 48.6667,-14 52,-12 54.6667,-9.33333 58,-2 57.3333,1.33333 54,2 50.6667,0 44.6667,-2 40.6667,-6 38,-8.66667 34,-10 29.3333,-13.3333 26,-15.3333 20.6667,-20.6667 16.6667,-27.3333 14,-32.6667 3.33333,-46 -2,-48.6667 -5.33333,-48 -12,-52 -14.6667,-49.3333 -15.3333,-48.6667 -20,-41.3333 -20.6667,-40.6667 -27.3333,-42 -39.3333,-51.3333 -39.3333,-46 -39.3333,-43.3333 -35.3333,-39.3333 -32.6667,-36.6667 -28.6667,-32.6667 -26,-30 -24.6667,-28.6667 -22,-26 -18.6667,-21.3333 -17.3333,-20 -16.6667,-18 -16,-16 -14.6667,-14.6667"/>
  </object>
  <object id="578" x="6020.67" y="4623.33">
   <properties>
    <property name="collision" type="bool" value="true"/>
   </properties>
   <polygon points="0,0 6,2 7.33333,3.33333 16.6667,12.6667 18,16.6667 22,20.6667 24.6667,23.3333 28.6667,27.3333 34,32.6667 41.3333,38.6667 45.3333,42.6667 52.6667,48.6667 66,59.3333 79.3333,72.6667 92,81.3333 94.6667,84 97.3333,86.6667 101.333,90.6667 102.667,92 107.333,95.3333 112.667,98 119.333,102 127.333,107.333 130.667,112 134.667,116 136,117.333 138.667,114.667 138.667,112 144,114.667 141.333,106.667 142,106 144,98.6667 147.333,100.667 148,100 148.667,96.6667 150,95.3333 154.667,98.6667 160,101.333 162,102 176,112 179.333,111.333 183.333,112.667 184.667,111.333 187.333,108.667 187.333,103.333 185.333,97.3333 180,89.3333 174.667,81.3333 172,76 168.667,71.3333 166,66 163.333,63.3333 165.333,61.3333 166.667,62.6667 170,64.6667 171.333,66 175.333,70 180,73.3333 181.333,74.6667 186,78 192,80 194,80.6667 197.333,82.6667 199.333,83.3333 203.333,84.6667 204,81.3333 202.667,80 202,78 200,74.6667 199.333,72.6667 196.667,70 192.667,66 192,64 194,62 194,59.3333 197.333,58.6667 198.667,57.3333 199.333,54 201.333,52 202.667,50.6667 206,47.3333 204.667,40.6667 200.667,34 203.333,34 207.333,35.3333 214,36.6667 216,37.3333 217.333,38.6667 222.667,41.3333 225.333,38.6667 224,34.6667 224.667,34 228,33.3333 227.333,28.6667 221.333,21.3333 219.333,18 210.667,5.33333 206,-0.666667 211.333,-3.33333 214,-6 214,-11.3333 214.667,-12 215.333,-12.6667 215.333,-15.3333 214,-19.3333 210.667,-24 208,-26.6667 205.333,-29.3333 204,-30.6667 203.333,-32.6667 201.333,-36 197.333,-42.6667 190.667,-49.3333 188,-52 180,-57.3333 174.667,-57.3333 173.333,-53.3333 176.667,-46 178,-44.6667 179.333,-40.6667 178,-39.3333 178,-36.6667 176,-37.3333 172.667,-42 170.667,-50.6667 170,-55.3333 166,-59.3333 160.667,-64.6667 158,-67.3333 155.333,-64.6667 156.667,-60.6667 160,-50.6667 163.333,-43.3333 162.667,-42.6667 164.667,-39.3333 163.333,-40.6667 160,-48 158,-56.6667 154,-60.6667 152,-64 150.667,-68 151.333,-71.3333 149.333,-77.3333 148,-84 145.333,-89.3333 141.333,-96 138.667,-98.6667 133.333,-104 125.333,-112 119.333,-119.333 111.333,-127.333 107.333,-131.333 102,-136.667 95.3333,-143.333 87.3333,-148.667 84,-148 82.6667,-146.667 88.6667,-134 94,-128.667 96.6667,-123.333 100.667,-119.333 105.333,-113.333 114,-103.333 115.333,-102 119.333,-98 121.333,-94.6667 120.667,-94 121.333,-86.6667 120.667,-86 114.667,-90.6667 109.333,-96 106.667,-98.6667 104.667,-102 101.333,-106.667 98.6667,-109.333 97.3333,-110.667 95.3333,-111.333 94.6667,-110.667 89.3333,-116 88,-117.333 81.3333,-124 78.6667,-126.667 68,-140 65.3333,-142.667 56,-152 51.3333,-158 44.6667,-164.667 43.3333,-166 40,-170.667 34.6667,-176 30.6667,-180 29.3333,-181.333 22.6667,-182.667 20,-182.667 18.6667,-181.333 18,-180.667 16.6667,-179.333 15.3333,-178 16,-173.333 20.6667,-167.333 22,-163.333 24,-160 28.6667,-154 38,-144.667 40.6667,-142 42,-140.667 50,-132.667 51.3333,-131.333 56.6667,-126 60,-124 63.3333,-122 64.6667,-120.667 67.3333,-118 66.6667,-114.667 67.3333,-112.667 68,-108 81.3333,-94.6667 96.6667,-80.6667 98.6667,-80 104.667,-75.3333 106,-74 102,-75.3333 99.3333,-75.3333 96,-72 94,-72.6667 92,-70.6667 94,-67.3333 103.333,-58 110,-51.3333 111.333,-47.3333 109.333,-45.3333 109.333,-42.6667 100,-52 97.3333,-54.6667 90,-63.3333 88,-69.3333 84.6667,-74 81.3333,-78.6667 79.3333,-82 72.6667,-91.3333 70.6667,-94.6667 67.3333,-99.3333 63.3333,-108.667 58,-114 55.3333,-116.667 54,-118 44,-129.333 42.6667,-130.667 38.6667,-134.667 34,-138 31.3333,-138 29.3333,-138.667 26.6667,-138.667 24.6667,-136.667 24,-130.667 30,-123.333 29.3333,-122.667 42.6667,-109.333 40,-106.667 38,-107.333 30,-115.333 27.3333,-118 23.3333,-122 19.3333,-126 8,-133.333 7.33333,-132.667 6,-131.333 8.66667,-126 13.3333,-117.333 14.6667,-116 17.3333,-105.333 18.6667,-104 25.3333,-100 25.3333,-97.3333 30.6667,-92 33.3333,-86.6667 34,-82 33.3333,-81.3333 32.6667,-80.6667 34,-79.3333 38.6667,-76 39.3333,-76.6667 43.3333,-75.3333 47.3333,-74 54,-70 60.6667,-66 62,-64.6667 68,-60 75.3333,-56.6667 76.6667,-55.3333 99.3333,-35.3333 98.6667,-34.6667 90.6667,-37.3333 81.3333,-44 72,-53.3333 69.3333,-56 60.6667,-60.6667 52.6667,-63.3333 48.6667,-64.6667 48,-64 46.6667,-62.6667 46.6667,-60 50,-55.3333 54.6667,-46.6667 56,-45.3333 56.6667,-38 54,-40.6667 50,-44.6667 44.6667,-55.3333 42.6667,-58.6667 33.3333,-65.3333 30,-67.3333 24,-74.6667 19.3333,-80.6667 15.3333,-87.3333 14,-88.6667 0.666667,-104.667 -5.33333,-112 -12,-118.667 -14,-119.333 -17.3333,-116 -17.3333,-113.333 -17.3333,-110.667 -16,-101.333 -12,-97.3333 -9.33333,-94.6667 -2.66667,-88 1.33333,-84 2.66667,-82.6667 10,-76.6667 18,-68.6667 19.3333,-67.3333 22,-64.6667 23.3333,-60.6667 24.6667,-54 22.6667,-54.6667 20,-57.3333 16.6667,-62 11.3333,-67.3333 2,-76.6667 0.666667,-75.3333 0.666667,-72.6667 0.666667,-70 -2.66667,-72 -6.66667,-76 -8,-77.3333 -17.3333,-86.6667 -24,-93.3333 -27.3333,-92.6667 -36,-102.667 -41.3333,-108 -46,-103.333 -44,-100 -46,-92.6667 -45.3333,-90.6667 -40,-82.6667 -38.6667,-86.6667 -39.3333,-86 -35.3333,-82 -32,-80 -28,-76 -25.3333,-73.3333 -14,-63.3333 -12.6667,-62 -11.3333,-60.6667 -6.66667,-57.3333 -6,-58 4.66667,-50 4,-49.3333 6,-46 9.33333,-46.6667 10.6667,-45.3333 13.3333,-42.6667 18.6667,-37.3333 24,-32 29.3333,-26.6667 38.6667,-20 42.6667,-18.6667 48.6667,-14 52,-12 54.6667,-9.33333 58,-2 57.3333,1.33333 54,2 50.6667,0 44.6667,-2 40.6667,-6 38,-8.66667 34,-10 29.3333,-13.3333 26,-15.3333 20.6667,-20.6667 16.6667,-27.3333 14,-32.6667 3.33333,-46 -2,-48.6667 -5.33333,-48 -12,-52 -14.6667,-49.3333 -15.3333,-48.6667 -20,-41.3333 -20.6667,-40.6667 -27.3333,-42 -39.3333,-51.3333 -39.3333,-46 -39.3333,-43.3333 -35.3333,-39.3333 -32.6667,-36.6667 -28.6667,-32.6667 -26,-30 -24.6667,-28.6667 -22,-26 -18.6667,-21.3333 -17.3333,-20 -16.6667,-18 -16,-16 -14.6667,-14.6667"/>
  </object>
  <object id="579" x="6789.67" y="4622.33">
   <properties>
    <property name="collision" type="bool" value="true"/>
   </properties>
   <polygon points="0,0 6,2 7.33333,3.33333 16.6667,12.6667 18,16.6667 22,20.6667 24.6667,23.3333 28.6667,27.3333 34,32.6667 41.3333,38.6667 45.3333,42.6667 52.6667,48.6667 66,59.3333 79.3333,72.6667 92,81.3333 94.6667,84 97.3333,86.6667 101.333,90.6667 102.667,92 107.333,95.3333 112.667,98 119.333,102 127.333,107.333 130.667,112 134.667,116 136,117.333 138.667,114.667 138.667,112 144,114.667 141.333,106.667 142,106 144,98.6667 147.333,100.667 148,100 148.667,96.6667 150,95.3333 154.667,98.6667 160,101.333 162,102 176,112 179.333,111.333 183.333,112.667 184.667,111.333 187.333,108.667 187.333,103.333 185.333,97.3333 180,89.3333 174.667,81.3333 172,76 168.667,71.3333 166,66 163.333,63.3333 165.333,61.3333 166.667,62.6667 170,64.6667 171.333,66 175.333,70 180,73.3333 181.333,74.6667 186,78 192,80 194,80.6667 197.333,82.6667 199.333,83.3333 203.333,84.6667 204,81.3333 202.667,80 202,78 200,74.6667 199.333,72.6667 196.667,70 192.667,66 192,64 194,62 194,59.3333 197.333,58.6667 198.667,57.3333 199.333,54 201.333,52 202.667,50.6667 206,47.3333 204.667,40.6667 200.667,34 203.333,34 207.333,35.3333 214,36.6667 216,37.3333 217.333,38.6667 222.667,41.3333 225.333,38.6667 224,34.6667 224.667,34 228,33.3333 227.333,28.6667 221.333,21.3333 219.333,18 210.667,5.33333 206,-0.666667 211.333,-3.33333 214,-6 214,-11.3333 214.667,-12 215.333,-12.6667 215.333,-15.3333 214,-19.3333 210.667,-24 208,-26.6667 205.333,-29.3333 204,-30.6667 203.333,-32.6667 201.333,-36 197.333,-42.6667 190.667,-49.3333 188,-52 180,-57.3333 174.667,-57.3333 173.333,-53.3333 176.667,-46 178,-44.6667 179.333,-40.6667 178,-39.3333 178,-36.6667 176,-37.3333 172.667,-42 170.667,-50.6667 170,-55.3333 166,-59.3333 160.667,-64.6667 158,-67.3333 155.333,-64.6667 156.667,-60.6667 160,-50.6667 163.333,-43.3333 162.667,-42.6667 164.667,-39.3333 163.333,-40.6667 160,-48 158,-56.6667 154,-60.6667 152,-64 150.667,-68 151.333,-71.3333 149.333,-77.3333 148,-84 145.333,-89.3333 141.333,-96 138.667,-98.6667 133.333,-104 125.333,-112 119.333,-119.333 111.333,-127.333 107.333,-131.333 102,-136.667 95.3333,-143.333 87.3333,-148.667 84,-148 82.6667,-146.667 88.6667,-134 94,-128.667 96.6667,-123.333 100.667,-119.333 105.333,-113.333 114,-103.333 115.333,-102 119.333,-98 121.333,-94.6667 120.667,-94 121.333,-86.6667 120.667,-86 114.667,-90.6667 109.333,-96 106.667,-98.6667 104.667,-102 101.333,-106.667 98.6667,-109.333 97.3333,-110.667 95.3333,-111.333 94.6667,-110.667 89.3333,-116 88,-117.333 81.3333,-124 78.6667,-126.667 68,-140 65.3333,-142.667 56,-152 51.3333,-158 44.6667,-164.667 43.3333,-166 40,-170.667 34.6667,-176 30.6667,-180 29.3333,-181.333 22.6667,-182.667 20,-182.667 18.6667,-181.333 18,-180.667 16.6667,-179.333 15.3333,-178 16,-173.333 20.6667,-167.333 22,-163.333 24,-160 28.6667,-154 38,-144.667 40.6667,-142 42,-140.667 50,-132.667 51.3333,-131.333 56.6667,-126 60,-124 63.3333,-122 64.6667,-120.667 67.3333,-118 66.6667,-114.667 67.3333,-112.667 68,-108 81.3333,-94.6667 96.6667,-80.6667 98.6667,-80 104.667,-75.3333 106,-74 102,-75.3333 99.3333,-75.3333 96,-72 94,-72.6667 92,-70.6667 94,-67.3333 103.333,-58 110,-51.3333 111.333,-47.3333 109.333,-45.3333 109.333,-42.6667 100,-52 97.3333,-54.6667 90,-63.3333 88,-69.3333 84.6667,-74 81.3333,-78.6667 79.3333,-82 72.6667,-91.3333 70.6667,-94.6667 67.3333,-99.3333 63.3333,-108.667 58,-114 55.3333,-116.667 54,-118 44,-129.333 42.6667,-130.667 38.6667,-134.667 34,-138 31.3333,-138 29.3333,-138.667 26.6667,-138.667 24.6667,-136.667 24,-130.667 30,-123.333 29.3333,-122.667 42.6667,-109.333 40,-106.667 38,-107.333 30,-115.333 27.3333,-118 23.3333,-122 19.3333,-126 8,-133.333 7.33333,-132.667 6,-131.333 8.66667,-126 13.3333,-117.333 14.6667,-116 17.3333,-105.333 18.6667,-104 25.3333,-100 25.3333,-97.3333 30.6667,-92 33.3333,-86.6667 34,-82 33.3333,-81.3333 32.6667,-80.6667 34,-79.3333 38.6667,-76 39.3333,-76.6667 43.3333,-75.3333 47.3333,-74 54,-70 60.6667,-66 62,-64.6667 68,-60 75.3333,-56.6667 76.6667,-55.3333 99.3333,-35.3333 98.6667,-34.6667 90.6667,-37.3333 81.3333,-44 72,-53.3333 69.3333,-56 60.6667,-60.6667 52.6667,-63.3333 48.6667,-64.6667 48,-64 46.6667,-62.6667 46.6667,-60 50,-55.3333 54.6667,-46.6667 56,-45.3333 56.6667,-38 54,-40.6667 50,-44.6667 44.6667,-55.3333 42.6667,-58.6667 33.3333,-65.3333 30,-67.3333 24,-74.6667 19.3333,-80.6667 15.3333,-87.3333 14,-88.6667 0.666667,-104.667 -5.33333,-112 -12,-118.667 -14,-119.333 -17.3333,-116 -17.3333,-113.333 -17.3333,-110.667 -16,-101.333 -12,-97.3333 -9.33333,-94.6667 -2.66667,-88 1.33333,-84 2.66667,-82.6667 10,-76.6667 18,-68.6667 19.3333,-67.3333 22,-64.6667 23.3333,-60.6667 24.6667,-54 22.6667,-54.6667 20,-57.3333 16.6667,-62 11.3333,-67.3333 2,-76.6667 0.666667,-75.3333 0.666667,-72.6667 0.666667,-70 -2.66667,-72 -6.66667,-76 -8,-77.3333 -17.3333,-86.6667 -24,-93.3333 -27.3333,-92.6667 -36,-102.667 -41.3333,-108 -46,-103.333 -44,-100 -46,-92.6667 -45.3333,-90.6667 -40,-82.6667 -38.6667,-86.6667 -39.3333,-86 -35.3333,-82 -32,-80 -28,-76 -25.3333,-73.3333 -14,-63.3333 -12.6667,-62 -11.3333,-60.6667 -6.66667,-57.3333 -6,-58 4.66667,-50 4,-49.3333 6,-46 9.33333,-46.6667 10.6667,-45.3333 13.3333,-42.6667 18.6667,-37.3333 24,-32 29.3333,-26.6667 38.6667,-20 42.6667,-18.6667 48.6667,-14 52,-12 54.6667,-9.33333 58,-2 57.3333,1.33333 54,2 50.6667,0 44.6667,-2 40.6667,-6 38,-8.66667 34,-10 29.3333,-13.3333 26,-15.3333 20.6667,-20.6667 16.6667,-27.3333 14,-32.6667 3.33333,-46 -2,-48.6667 -5.33333,-48 -12,-52 -14.6667,-49.3333 -15.3333,-48.6667 -20,-41.3333 -20.6667,-40.6667 -27.3333,-42 -39.3333,-51.3333 -39.3333,-46 -39.3333,-43.3333 -35.3333,-39.3333 -32.6667,-36.6667 -28.6667,-32.6667 -26,-30 -24.6667,-28.6667 -22,-26 -18.6667,-21.3333 -17.3333,-20 -16.6667,-18 -16,-16 -14.6667,-14.6667"/>
  </object>
  <object id="580" x="8452.67" y="6287.33">
   <properties>
    <property name="collision" type="bool" value="true"/>
   </properties>
   <polygon points="0,0 6,2 7.33333,3.33333 16.6667,12.6667 18,16.6667 22,20.6667 24.6667,23.3333 28.6667,27.3333 34,32.6667 41.3333,38.6667 45.3333,42.6667 52.6667,48.6667 66,59.3333 79.3333,72.6667 92,81.3333 94.6667,84 97.3333,86.6667 101.333,90.6667 102.667,92 107.333,95.3333 112.667,98 119.333,102 127.333,107.333 130.667,112 134.667,116 136,117.333 138.667,114.667 138.667,112 144,114.667 141.333,106.667 142,106 144,98.6667 147.333,100.667 148,100 148.667,96.6667 150,95.3333 154.667,98.6667 160,101.333 162,102 176,112 179.333,111.333 183.333,112.667 184.667,111.333 187.333,108.667 187.333,103.333 185.333,97.3333 180,89.3333 174.667,81.3333 172,76 168.667,71.3333 166,66 163.333,63.3333 165.333,61.3333 166.667,62.6667 170,64.6667 171.333,66 175.333,70 180,73.3333 181.333,74.6667 186,78 192,80 194,80.6667 197.333,82.6667 199.333,83.3333 203.333,84.6667 204,81.3333 202.667,80 202,78 200,74.6667 199.333,72.6667 196.667,70 192.667,66 192,64 194,62 194,59.3333 197.333,58.6667 198.667,57.3333 199.333,54 201.333,52 202.667,50.6667 206,47.3333 204.667,40.6667 200.667,34 203.333,34 207.333,35.3333 214,36.6667 216,37.3333 217.333,38.6667 222.667,41.3333 225.333,38.6667 224,34.6667 224.667,34 228,33.3333 227.333,28.6667 221.333,21.3333 219.333,18 210.667,5.33333 206,-0.666667 211.333,-3.33333 214,-6 214,-11.3333 214.667,-12 215.333,-12.6667 215.333,-15.3333 214,-19.3333 210.667,-24 208,-26.6667 205.333,-29.3333 204,-30.6667 203.333,-32.6667 201.333,-36 197.333,-42.6667 190.667,-49.3333 188,-52 180,-57.3333 174.667,-57.3333 173.333,-53.3333 176.667,-46 178,-44.6667 179.333,-40.6667 178,-39.3333 178,-36.6667 176,-37.3333 172.667,-42 170.667,-50.6667 170,-55.3333 166,-59.3333 160.667,-64.6667 158,-67.3333 155.333,-64.6667 156.667,-60.6667 160,-50.6667 163.333,-43.3333 162.667,-42.6667 164.667,-39.3333 163.333,-40.6667 160,-48 158,-56.6667 154,-60.6667 152,-64 150.667,-68 151.333,-71.3333 149.333,-77.3333 148,-84 145.333,-89.3333 141.333,-96 138.667,-98.6667 133.333,-104 125.333,-112 119.333,-119.333 111.333,-127.333 107.333,-131.333 102,-136.667 95.3333,-143.333 87.3333,-148.667 84,-148 82.6667,-146.667 88.6667,-134 94,-128.667 96.6667,-123.333 100.667,-119.333 105.333,-113.333 114,-103.333 115.333,-102 119.333,-98 121.333,-94.6667 120.667,-94 121.333,-86.6667 120.667,-86 114.667,-90.6667 109.333,-96 106.667,-98.6667 104.667,-102 101.333,-106.667 98.6667,-109.333 97.3333,-110.667 95.3333,-111.333 94.6667,-110.667 89.3333,-116 88,-117.333 81.3333,-124 78.6667,-126.667 68,-140 65.3333,-142.667 56,-152 51.3333,-158 44.6667,-164.667 43.3333,-166 40,-170.667 34.6667,-176 30.6667,-180 29.3333,-181.333 22.6667,-182.667 20,-182.667 18.6667,-181.333 18,-180.667 16.6667,-179.333 15.3333,-178 16,-173.333 20.6667,-167.333 22,-163.333 24,-160 28.6667,-154 38,-144.667 40.6667,-142 42,-140.667 50,-132.667 51.3333,-131.333 56.6667,-126 60,-124 63.3333,-122 64.6667,-120.667 67.3333,-118 66.6667,-114.667 67.3333,-112.667 68,-108 81.3333,-94.6667 96.6667,-80.6667 98.6667,-80 104.667,-75.3333 106,-74 102,-75.3333 99.3333,-75.3333 96,-72 94,-72.6667 92,-70.6667 94,-67.3333 103.333,-58 110,-51.3333 111.333,-47.3333 109.333,-45.3333 109.333,-42.6667 100,-52 97.3333,-54.6667 90,-63.3333 88,-69.3333 84.6667,-74 81.3333,-78.6667 79.3333,-82 72.6667,-91.3333 70.6667,-94.6667 67.3333,-99.3333 63.3333,-108.667 58,-114 55.3333,-116.667 54,-118 44,-129.333 42.6667,-130.667 38.6667,-134.667 34,-138 31.3333,-138 29.3333,-138.667 26.6667,-138.667 24.6667,-136.667 24,-130.667 30,-123.333 29.3333,-122.667 42.6667,-109.333 40,-106.667 38,-107.333 30,-115.333 27.3333,-118 23.3333,-122 19.3333,-126 8,-133.333 7.33333,-132.667 6,-131.333 8.66667,-126 13.3333,-117.333 14.6667,-116 17.3333,-105.333 18.6667,-104 25.3333,-100 25.3333,-97.3333 30.6667,-92 33.3333,-86.6667 34,-82 33.3333,-81.3333 32.6667,-80.6667 34,-79.3333 38.6667,-76 39.3333,-76.6667 43.3333,-75.3333 47.3333,-74 54,-70 60.6667,-66 62,-64.6667 68,-60 75.3333,-56.6667 76.6667,-55.3333 99.3333,-35.3333 98.6667,-34.6667 90.6667,-37.3333 81.3333,-44 72,-53.3333 69.3333,-56 60.6667,-60.6667 52.6667,-63.3333 48.6667,-64.6667 48,-64 46.6667,-62.6667 46.6667,-60 50,-55.3333 54.6667,-46.6667 56,-45.3333 56.6667,-38 54,-40.6667 50,-44.6667 44.6667,-55.3333 42.6667,-58.6667 33.3333,-65.3333 30,-67.3333 24,-74.6667 19.3333,-80.6667 15.3333,-87.3333 14,-88.6667 0.666667,-104.667 -5.33333,-112 -12,-118.667 -14,-119.333 -17.3333,-116 -17.3333,-113.333 -17.3333,-110.667 -16,-101.333 -12,-97.3333 -9.33333,-94.6667 -2.66667,-88 1.33333,-84 2.66667,-82.6667 10,-76.6667 18,-68.6667 19.3333,-67.3333 22,-64.6667 23.3333,-60.6667 24.6667,-54 22.6667,-54.6667 20,-57.3333 16.6667,-62 11.3333,-67.3333 2,-76.6667 0.666667,-75.3333 0.666667,-72.6667 0.666667,-70 -2.66667,-72 -6.66667,-76 -8,-77.3333 -17.3333,-86.6667 -24,-93.3333 -27.3333,-92.6667 -36,-102.667 -41.3333,-108 -46,-103.333 -44,-100 -46,-92.6667 -45.3333,-90.6667 -40,-82.6667 -38.6667,-86.6667 -39.3333,-86 -35.3333,-82 -32,-80 -28,-76 -25.3333,-73.3333 -14,-63.3333 -12.6667,-62 -11.3333,-60.6667 -6.66667,-57.3333 -6,-58 4.66667,-50 4,-49.3333 6,-46 9.33333,-46.6667 10.6667,-45.3333 13.3333,-42.6667 18.6667,-37.3333 24,-32 29.3333,-26.6667 38.6667,-20 42.6667,-18.6667 48.6667,-14 52,-12 54.6667,-9.33333 58,-2 57.3333,1.33333 54,2 50.6667,0 44.6667,-2 40.6667,-6 38,-8.66667 34,-10 29.3333,-13.3333 26,-15.3333 20.6667,-20.6667 16.6667,-27.3333 14,-32.6667 3.33333,-46 -2,-48.6667 -5.33333,-48 -12,-52 -14.6667,-49.3333 -15.3333,-48.6667 -20,-41.3333 -20.6667,-40.6667 -27.3333,-42 -39.3333,-51.3333 -39.3333,-46 -39.3333,-43.3333 -35.3333,-39.3333 -32.6667,-36.6667 -28.6667,-32.6667 -26,-30 -24.6667,-28.6667 -22,-26 -18.6667,-21.3333 -17.3333,-20 -16.6667,-18 -16,-16 -14.6667,-14.6667"/>
  </object>
  <object id="581" x="9732.67" y="5775.33">
   <properties>
    <property name="collision" type="bool" value="true"/>
   </properties>
   <polygon points="0,0 6,2 7.33333,3.33333 16.6667,12.6667 18,16.6667 22,20.6667 24.6667,23.3333 28.6667,27.3333 34,32.6667 41.3333,38.6667 45.3333,42.6667 52.6667,48.6667 66,59.3333 79.3333,72.6667 92,81.3333 94.6667,84 97.3333,86.6667 101.333,90.6667 102.667,92 107.333,95.3333 112.667,98 119.333,102 127.333,107.333 130.667,112 134.667,116 136,117.333 138.667,114.667 138.667,112 144,114.667 141.333,106.667 142,106 144,98.6667 147.333,100.667 148,100 148.667,96.6667 150,95.3333 154.667,98.6667 160,101.333 162,102 176,112 179.333,111.333 183.333,112.667 184.667,111.333 187.333,108.667 187.333,103.333 185.333,97.3333 180,89.3333 174.667,81.3333 172,76 168.667,71.3333 166,66 163.333,63.3333 165.333,61.3333 166.667,62.6667 170,64.6667 171.333,66 175.333,70 180,73.3333 181.333,74.6667 186,78 192,80 194,80.6667 197.333,82.6667 199.333,83.3333 203.333,84.6667 204,81.3333 202.667,80 202,78 200,74.6667 199.333,72.6667 196.667,70 192.667,66 192,64 194,62 194,59.3333 197.333,58.6667 198.667,57.3333 199.333,54 201.333,52 202.667,50.6667 206,47.3333 204.667,40.6667 200.667,34 203.333,34 207.333,35.3333 214,36.6667 216,37.3333 217.333,38.6667 222.667,41.3333 225.333,38.6667 224,34.6667 224.667,34 228,33.3333 227.333,28.6667 221.333,21.3333 219.333,18 210.667,5.33333 206,-0.666667 211.333,-3.33333 214,-6 214,-11.3333 214.667,-12 215.333,-12.6667 215.333,-15.3333 214,-19.3333 210.667,-24 208,-26.6667 205.333,-29.3333 204,-30.6667 203.333,-32.6667 201.333,-36 197.333,-42.6667 190.667,-49.3333 188,-52 180,-57.3333 174.667,-57.3333 173.333,-53.3333 176.667,-46 178,-44.6667 179.333,-40.6667 178,-39.3333 178,-36.6667 176,-37.3333 172.667,-42 170.667,-50.6667 170,-55.3333 166,-59.3333 160.667,-64.6667 158,-67.3333 155.333,-64.6667 156.667,-60.6667 160,-50.6667 163.333,-43.3333 162.667,-42.6667 164.667,-39.3333 163.333,-40.6667 160,-48 158,-56.6667 154,-60.6667 152,-64 150.667,-68 151.333,-71.3333 149.333,-77.3333 148,-84 145.333,-89.3333 141.333,-96 138.667,-98.6667 133.333,-104 125.333,-112 119.333,-119.333 111.333,-127.333 107.333,-131.333 102,-136.667 95.3333,-143.333 87.3333,-148.667 84,-148 82.6667,-146.667 88.6667,-134 94,-128.667 96.6667,-123.333 100.667,-119.333 105.333,-113.333 114,-103.333 115.333,-102 119.333,-98 121.333,-94.6667 120.667,-94 121.333,-86.6667 120.667,-86 114.667,-90.6667 109.333,-96 106.667,-98.6667 104.667,-102 101.333,-106.667 98.6667,-109.333 97.3333,-110.667 95.3333,-111.333 94.6667,-110.667 89.3333,-116 88,-117.333 81.3333,-124 78.6667,-126.667 68,-140 65.3333,-142.667 56,-152 51.3333,-158 44.6667,-164.667 43.3333,-166 40,-170.667 34.6667,-176 30.6667,-180 29.3333,-181.333 22.6667,-182.667 20,-182.667 18.6667,-181.333 18,-180.667 16.6667,-179.333 15.3333,-178 16,-173.333 20.6667,-167.333 22,-163.333 24,-160 28.6667,-154 38,-144.667 40.6667,-142 42,-140.667 50,-132.667 51.3333,-131.333 56.6667,-126 60,-124 63.3333,-122 64.6667,-120.667 67.3333,-118 66.6667,-114.667 67.3333,-112.667 68,-108 81.3333,-94.6667 96.6667,-80.6667 98.6667,-80 104.667,-75.3333 106,-74 102,-75.3333 99.3333,-75.3333 96,-72 94,-72.6667 92,-70.6667 94,-67.3333 103.333,-58 110,-51.3333 111.333,-47.3333 109.333,-45.3333 109.333,-42.6667 100,-52 97.3333,-54.6667 90,-63.3333 88,-69.3333 84.6667,-74 81.3333,-78.6667 79.3333,-82 72.6667,-91.3333 70.6667,-94.6667 67.3333,-99.3333 63.3333,-108.667 58,-114 55.3333,-116.667 54,-118 44,-129.333 42.6667,-130.667 38.6667,-134.667 34,-138 31.3333,-138 29.3333,-138.667 26.6667,-138.667 24.6667,-136.667 24,-130.667 30,-123.333 29.3333,-122.667 42.6667,-109.333 40,-106.667 38,-107.333 30,-115.333 27.3333,-118 23.3333,-122 19.3333,-126 8,-133.333 7.33333,-132.667 6,-131.333 8.66667,-126 13.3333,-117.333 14.6667,-116 17.3333,-105.333 18.6667,-104 25.3333,-100 25.3333,-97.3333 30.6667,-92 33.3333,-86.6667 34,-82 33.3333,-81.3333 32.6667,-80.6667 34,-79.3333 38.6667,-76 39.3333,-76.6667 43.3333,-75.3333 47.3333,-74 54,-70 60.6667,-66 62,-64.6667 68,-60 75.3333,-56.6667 76.6667,-55.3333 99.3333,-35.3333 98.6667,-34.6667 90.6667,-37.3333 81.3333,-44 72,-53.3333 69.3333,-56 60.6667,-60.6667 52.6667,-63.3333 48.6667,-64.6667 48,-64 46.6667,-62.6667 46.6667,-60 50,-55.3333 54.6667,-46.6667 56,-45.3333 56.6667,-38 54,-40.6667 50,-44.6667 44.6667,-55.3333 42.6667,-58.6667 33.3333,-65.3333 30,-67.3333 24,-74.6667 19.3333,-80.6667 15.3333,-87.3333 14,-88.6667 0.666667,-104.667 -5.33333,-112 -12,-118.667 -14,-119.333 -17.3333,-116 -17.3333,-113.333 -17.3333,-110.667 -16,-101.333 -12,-97.3333 -9.33333,-94.6667 -2.66667,-88 1.33333,-84 2.66667,-82.6667 10,-76.6667 18,-68.6667 19.3333,-67.3333 22,-64.6667 23.3333,-60.6667 24.6667,-54 22.6667,-54.6667 20,-57.3333 16.6667,-62 11.3333,-67.3333 2,-76.6667 0.666667,-75.3333 0.666667,-72.6667 0.666667,-70 -2.66667,-72 -6.66667,-76 -8,-77.3333 -17.3333,-86.6667 -24,-93.3333 -27.3333,-92.6667 -36,-102.667 -41.3333,-108 -46,-103.333 -44,-100 -46,-92.6667 -45.3333,-90.6667 -40,-82.6667 -38.6667,-86.6667 -39.3333,-86 -35.3333,-82 -32,-80 -28,-76 -25.3333,-73.3333 -14,-63.3333 -12.6667,-62 -11.3333,-60.6667 -6.66667,-57.3333 -6,-58 4.66667,-50 4,-49.3333 6,-46 9.33333,-46.6667 10.6667,-45.3333 13.3333,-42.6667 18.6667,-37.3333 24,-32 29.3333,-26.6667 38.6667,-20 42.6667,-18.6667 48.6667,-14 52,-12 54.6667,-9.33333 58,-2 57.3333,1.33333 54,2 50.6667,0 44.6667,-2 40.6667,-6 38,-8.66667 34,-10 29.3333,-13.3333 26,-15.3333 20.6667,-20.6667 16.6667,-27.3333 14,-32.6667 3.33333,-46 -2,-48.6667 -5.33333,-48 -12,-52 -14.6667,-49.3333 -15.3333,-48.6667 -20,-41.3333 -20.6667,-40.6667 -27.3333,-42 -39.3333,-51.3333 -39.3333,-46 -39.3333,-43.3333 -35.3333,-39.3333 -32.6667,-36.6667 -28.6667,-32.6667 -26,-30 -24.6667,-28.6667 -22,-26 -18.6667,-21.3333 -17.3333,-20 -16.6667,-18 -16,-16 -14.6667,-14.6667"/>
  </object>
  <object id="582" x="10631.7" y="6548.33">
   <properties>
    <property name="collision" type="bool" value="true"/>
   </properties>
   <polygon points="0,0 6,2 7.33333,3.33333 16.6667,12.6667 18,16.6667 22,20.6667 24.6667,23.3333 28.6667,27.3333 34,32.6667 41.3333,38.6667 45.3333,42.6667 52.6667,48.6667 66,59.3333 79.3333,72.6667 92,81.3333 94.6667,84 97.3333,86.6667 101.333,90.6667 102.667,92 107.333,95.3333 112.667,98 119.333,102 127.333,107.333 130.667,112 134.667,116 136,117.333 138.667,114.667 138.667,112 144,114.667 141.333,106.667 142,106 144,98.6667 147.333,100.667 148,100 148.667,96.6667 150,95.3333 154.667,98.6667 160,101.333 162,102 176,112 179.333,111.333 183.333,112.667 184.667,111.333 187.333,108.667 187.333,103.333 185.333,97.3333 180,89.3333 174.667,81.3333 172,76 168.667,71.3333 166,66 163.333,63.3333 165.333,61.3333 166.667,62.6667 170,64.6667 171.333,66 175.333,70 180,73.3333 181.333,74.6667 186,78 192,80 194,80.6667 197.333,82.6667 199.333,83.3333 203.333,84.6667 204,81.3333 202.667,80 202,78 200,74.6667 199.333,72.6667 196.667,70 192.667,66 192,64 194,62 194,59.3333 197.333,58.6667 198.667,57.3333 199.333,54 201.333,52 202.667,50.6667 206,47.3333 204.667,40.6667 200.667,34 203.333,34 207.333,35.3333 214,36.6667 216,37.3333 217.333,38.6667 222.667,41.3333 225.333,38.6667 224,34.6667 224.667,34 228,33.3333 227.333,28.6667 221.333,21.3333 219.333,18 210.667,5.33333 206,-0.666667 211.333,-3.33333 214,-6 214,-11.3333 214.667,-12 215.333,-12.6667 215.333,-15.3333 214,-19.3333 210.667,-24 208,-26.6667 205.333,-29.3333 204,-30.6667 203.333,-32.6667 201.333,-36 197.333,-42.6667 190.667,-49.3333 188,-52 180,-57.3333 174.667,-57.3333 173.333,-53.3333 176.667,-46 178,-44.6667 179.333,-40.6667 178,-39.3333 178,-36.6667 176,-37.3333 172.667,-42 170.667,-50.6667 170,-55.3333 166,-59.3333 160.667,-64.6667 158,-67.3333 155.333,-64.6667 156.667,-60.6667 160,-50.6667 163.333,-43.3333 162.667,-42.6667 164.667,-39.3333 163.333,-40.6667 160,-48 158,-56.6667 154,-60.6667 152,-64 150.667,-68 151.333,-71.3333 149.333,-77.3333 148,-84 145.333,-89.3333 141.333,-96 138.667,-98.6667 133.333,-104 125.333,-112 119.333,-119.333 111.333,-127.333 107.333,-131.333 102,-136.667 95.3333,-143.333 87.3333,-148.667 84,-148 82.6667,-146.667 88.6667,-134 94,-128.667 96.6667,-123.333 100.667,-119.333 105.333,-113.333 114,-103.333 115.333,-102 119.333,-98 121.333,-94.6667 120.667,-94 121.333,-86.6667 120.667,-86 114.667,-90.6667 109.333,-96 106.667,-98.6667 104.667,-102 101.333,-106.667 98.6667,-109.333 97.3333,-110.667 95.3333,-111.333 94.6667,-110.667 89.3333,-116 88,-117.333 81.3333,-124 78.6667,-126.667 68,-140 65.3333,-142.667 56,-152 51.3333,-158 44.6667,-164.667 43.3333,-166 40,-170.667 34.6667,-176 30.6667,-180 29.3333,-181.333 22.6667,-182.667 20,-182.667 18.6667,-181.333 18,-180.667 16.6667,-179.333 15.3333,-178 16,-173.333 20.6667,-167.333 22,-163.333 24,-160 28.6667,-154 38,-144.667 40.6667,-142 42,-140.667 50,-132.667 51.3333,-131.333 56.6667,-126 60,-124 63.3333,-122 64.6667,-120.667 67.3333,-118 66.6667,-114.667 67.3333,-112.667 68,-108 81.3333,-94.6667 96.6667,-80.6667 98.6667,-80 104.667,-75.3333 106,-74 102,-75.3333 99.3333,-75.3333 96,-72 94,-72.6667 92,-70.6667 94,-67.3333 103.333,-58 110,-51.3333 111.333,-47.3333 109.333,-45.3333 109.333,-42.6667 100,-52 97.3333,-54.6667 90,-63.3333 88,-69.3333 84.6667,-74 81.3333,-78.6667 79.3333,-82 72.6667,-91.3333 70.6667,-94.6667 67.3333,-99.3333 63.3333,-108.667 58,-114 55.3333,-116.667 54,-118 44,-129.333 42.6667,-130.667 38.6667,-134.667 34,-138 31.3333,-138 29.3333,-138.667 26.6667,-138.667 24.6667,-136.667 24,-130.667 30,-123.333 29.3333,-122.667 42.6667,-109.333 40,-106.667 38,-107.333 30,-115.333 27.3333,-118 23.3333,-122 19.3333,-126 8,-133.333 7.33333,-132.667 6,-131.333 8.66667,-126 13.3333,-117.333 14.6667,-116 17.3333,-105.333 18.6667,-104 25.3333,-100 25.3333,-97.3333 30.6667,-92 33.3333,-86.6667 34,-82 33.3333,-81.3333 32.6667,-80.6667 34,-79.3333 38.6667,-76 39.3333,-76.6667 43.3333,-75.3333 47.3333,-74 54,-70 60.6667,-66 62,-64.6667 68,-60 75.3333,-56.6667 76.6667,-55.3333 99.3333,-35.3333 98.6667,-34.6667 90.6667,-37.3333 81.3333,-44 72,-53.3333 69.3333,-56 60.6667,-60.6667 52.6667,-63.3333 48.6667,-64.6667 48,-64 46.6667,-62.6667 46.6667,-60 50,-55.3333 54.6667,-46.6667 56,-45.3333 56.6667,-38 54,-40.6667 50,-44.6667 44.6667,-55.3333 42.6667,-58.6667 33.3333,-65.3333 30,-67.3333 24,-74.6667 19.3333,-80.6667 15.3333,-87.3333 14,-88.6667 0.666667,-104.667 -5.33333,-112 -12,-118.667 -14,-119.333 -17.3333,-116 -17.3333,-113.333 -17.3333,-110.667 -16,-101.333 -12,-97.3333 -9.33333,-94.6667 -2.66667,-88 1.33333,-84 2.66667,-82.6667 10,-76.6667 18,-68.6667 19.3333,-67.3333 22,-64.6667 23.3333,-60.6667 24.6667,-54 22.6667,-54.6667 20,-57.3333 16.6667,-62 11.3333,-67.3333 2,-76.6667 0.666667,-75.3333 0.666667,-72.6667 0.666667,-70 -2.66667,-72 -6.66667,-76 -8,-77.3333 -17.3333,-86.6667 -24,-93.3333 -27.3333,-92.6667 -36,-102.667 -41.3333,-108 -46,-103.333 -44,-100 -46,-92.6667 -45.3333,-90.6667 -40,-82.6667 -38.6667,-86.6667 -39.3333,-86 -35.3333,-82 -32,-80 -28,-76 -25.3333,-73.3333 -14,-63.3333 -12.6667,-62 -11.3333,-60.6667 -6.66667,-57.3333 -6,-58 4.66667,-50 4,-49.3333 6,-46 9.33333,-46.6667 10.6667,-45.3333 13.3333,-42.6667 18.6667,-37.3333 24,-32 29.3333,-26.6667 38.6667,-20 42.6667,-18.6667 48.6667,-14 52,-12 54.6667,-9.33333 58,-2 57.3333,1.33333 54,2 50.6667,0 44.6667,-2 40.6667,-6 38,-8.66667 34,-10 29.3333,-13.3333 26,-15.3333 20.6667,-20.6667 16.6667,-27.3333 14,-32.6667 3.33333,-46 -2,-48.6667 -5.33333,-48 -12,-52 -14.6667,-49.3333 -15.3333,-48.6667 -20,-41.3333 -20.6667,-40.6667 -27.3333,-42 -39.3333,-51.3333 -39.3333,-46 -39.3333,-43.3333 -35.3333,-39.3333 -32.6667,-36.6667 -28.6667,-32.6667 -26,-30 -24.6667,-28.6667 -22,-26 -18.6667,-21.3333 -17.3333,-20 -16.6667,-18 -16,-16 -14.6667,-14.6667"/>
  </object>
  <object id="583" x="12164.7" y="6031.33">
   <properties>
    <property name="collision" type="bool" value="true"/>
   </properties>
   <polygon points="0,0 6,2 7.33333,3.33333 16.6667,12.6667 18,16.6667 22,20.6667 24.6667,23.3333 28.6667,27.3333 34,32.6667 41.3333,38.6667 45.3333,42.6667 52.6667,48.6667 66,59.3333 79.3333,72.6667 92,81.3333 94.6667,84 97.3333,86.6667 101.333,90.6667 102.667,92 107.333,95.3333 112.667,98 119.333,102 127.333,107.333 130.667,112 134.667,116 136,117.333 138.667,114.667 138.667,112 144,114.667 141.333,106.667 142,106 144,98.6667 147.333,100.667 148,100 148.667,96.6667 150,95.3333 154.667,98.6667 160,101.333 162,102 176,112 179.333,111.333 183.333,112.667 184.667,111.333 187.333,108.667 187.333,103.333 185.333,97.3333 180,89.3333 174.667,81.3333 172,76 168.667,71.3333 166,66 163.333,63.3333 165.333,61.3333 166.667,62.6667 170,64.6667 171.333,66 175.333,70 180,73.3333 181.333,74.6667 186,78 192,80 194,80.6667 197.333,82.6667 199.333,83.3333 203.333,84.6667 204,81.3333 202.667,80 202,78 200,74.6667 199.333,72.6667 196.667,70 192.667,66 192,64 194,62 194,59.3333 197.333,58.6667 198.667,57.3333 199.333,54 201.333,52 202.667,50.6667 206,47.3333 204.667,40.6667 200.667,34 203.333,34 207.333,35.3333 214,36.6667 216,37.3333 217.333,38.6667 222.667,41.3333 225.333,38.6667 224,34.6667 224.667,34 228,33.3333 227.333,28.6667 221.333,21.3333 219.333,18 210.667,5.33333 206,-0.666667 211.333,-3.33333 214,-6 214,-11.3333 214.667,-12 215.333,-12.6667 215.333,-15.3333 214,-19.3333 210.667,-24 208,-26.6667 205.333,-29.3333 204,-30.6667 203.333,-32.6667 201.333,-36 197.333,-42.6667 190.667,-49.3333 188,-52 180,-57.3333 174.667,-57.3333 173.333,-53.3333 176.667,-46 178,-44.6667 179.333,-40.6667 178,-39.3333 178,-36.6667 176,-37.3333 172.667,-42 170.667,-50.6667 170,-55.3333 166,-59.3333 160.667,-64.6667 158,-67.3333 155.333,-64.6667 156.667,-60.6667 160,-50.6667 163.333,-43.3333 162.667,-42.6667 164.667,-39.3333 163.333,-40.6667 160,-48 158,-56.6667 154,-60.6667 152,-64 150.667,-68 151.333,-71.3333 149.333,-77.3333 148,-84 145.333,-89.3333 141.333,-96 138.667,-98.6667 133.333,-104 125.333,-112 119.333,-119.333 111.333,-127.333 107.333,-131.333 102,-136.667 95.3333,-143.333 87.3333,-148.667 84,-148 82.6667,-146.667 88.6667,-134 94,-128.667 96.6667,-123.333 100.667,-119.333 105.333,-113.333 114,-103.333 115.333,-102 119.333,-98 121.333,-94.6667 120.667,-94 121.333,-86.6667 120.667,-86 114.667,-90.6667 109.333,-96 106.667,-98.6667 104.667,-102 101.333,-106.667 98.6667,-109.333 97.3333,-110.667 95.3333,-111.333 94.6667,-110.667 89.3333,-116 88,-117.333 81.3333,-124 78.6667,-126.667 68,-140 65.3333,-142.667 56,-152 51.3333,-158 44.6667,-164.667 43.3333,-166 40,-170.667 34.6667,-176 30.6667,-180 29.3333,-181.333 22.6667,-182.667 20,-182.667 18.6667,-181.333 18,-180.667 16.6667,-179.333 15.3333,-178 16,-173.333 20.6667,-167.333 22,-163.333 24,-160 28.6667,-154 38,-144.667 40.6667,-142 42,-140.667 50,-132.667 51.3333,-131.333 56.6667,-126 60,-124 63.3333,-122 64.6667,-120.667 67.3333,-118 66.6667,-114.667 67.3333,-112.667 68,-108 81.3333,-94.6667 96.6667,-80.6667 98.6667,-80 104.667,-75.3333 106,-74 102,-75.3333 99.3333,-75.3333 96,-72 94,-72.6667 92,-70.6667 94,-67.3333 103.333,-58 110,-51.3333 111.333,-47.3333 109.333,-45.3333 109.333,-42.6667 100,-52 97.3333,-54.6667 90,-63.3333 88,-69.3333 84.6667,-74 81.3333,-78.6667 79.3333,-82 72.6667,-91.3333 70.6667,-94.6667 67.3333,-99.3333 63.3333,-108.667 58,-114 55.3333,-116.667 54,-118 44,-129.333 42.6667,-130.667 38.6667,-134.667 34,-138 31.3333,-138 29.3333,-138.667 26.6667,-138.667 24.6667,-136.667 24,-130.667 30,-123.333 29.3333,-122.667 42.6667,-109.333 40,-106.667 38,-107.333 30,-115.333 27.3333,-118 23.3333,-122 19.3333,-126 8,-133.333 7.33333,-132.667 6,-131.333 8.66667,-126 13.3333,-117.333 14.6667,-116 17.3333,-105.333 18.6667,-104 25.3333,-100 25.3333,-97.3333 30.6667,-92 33.3333,-86.6667 34,-82 33.3333,-81.3333 32.6667,-80.6667 34,-79.3333 38.6667,-76 39.3333,-76.6667 43.3333,-75.3333 47.3333,-74 54,-70 60.6667,-66 62,-64.6667 68,-60 75.3333,-56.6667 76.6667,-55.3333 99.3333,-35.3333 98.6667,-34.6667 90.6667,-37.3333 81.3333,-44 72,-53.3333 69.3333,-56 60.6667,-60.6667 52.6667,-63.3333 48.6667,-64.6667 48,-64 46.6667,-62.6667 46.6667,-60 50,-55.3333 54.6667,-46.6667 56,-45.3333 56.6667,-38 54,-40.6667 50,-44.6667 44.6667,-55.3333 42.6667,-58.6667 33.3333,-65.3333 30,-67.3333 24,-74.6667 19.3333,-80.6667 15.3333,-87.3333 14,-88.6667 0.666667,-104.667 -5.33333,-112 -12,-118.667 -14,-119.333 -17.3333,-116 -17.3333,-113.333 -17.3333,-110.667 -16,-101.333 -12,-97.3333 -9.33333,-94.6667 -2.66667,-88 1.33333,-84 2.66667,-82.6667 10,-76.6667 18,-68.6667 19.3333,-67.3333 22,-64.6667 23.3333,-60.6667 24.6667,-54 22.6667,-54.6667 20,-57.3333 16.6667,-62 11.3333,-67.3333 2,-76.6667 0.666667,-75.3333 0.666667,-72.6667 0.666667,-70 -2.66667,-72 -6.66667,-76 -8,-77.3333 -17.3333,-86.6667 -24,-93.3333 -27.3333,-92.6667 -36,-102.667 -41.3333,-108 -46,-103.333 -44,-100 -46,-92.6667 -45.3333,-90.6667 -40,-82.6667 -38.6667,-86.6667 -39.3333,-86 -35.3333,-82 -32,-80 -28,-76 -25.3333,-73.3333 -14,-63.3333 -12.6667,-62 -11.3333,-60.6667 -6.66667,-57.3333 -6,-58 4.66667,-50 4,-49.3333 6,-46 9.33333,-46.6667 10.6667,-45.3333 13.3333,-42.6667 18.6667,-37.3333 24,-32 29.3333,-26.6667 38.6667,-20 42.6667,-18.6667 48.6667,-14 52,-12 54.6667,-9.33333 58,-2 57.3333,1.33333 54,2 50.6667,0 44.6667,-2 40.6667,-6 38,-8.66667 34,-10 29.3333,-13.3333 26,-15.3333 20.6667,-20.6667 16.6667,-27.3333 14,-32.6667 3.33333,-46 -2,-48.6667 -5.33333,-48 -12,-52 -14.6667,-49.3333 -15.3333,-48.6667 -20,-41.3333 -20.6667,-40.6667 -27.3333,-42 -39.3333,-51.3333 -39.3333,-46 -39.3333,-43.3333 -35.3333,-39.3333 -32.6667,-36.6667 -28.6667,-32.6667 -26,-30 -24.6667,-28.6667 -22,-26 -18.6667,-21.3333 -17.3333,-20 -16.6667,-18 -16,-16 -14.6667,-14.6667"/>
  </object>
  <object id="584" x="13444.7" y="5903.33">
   <properties>
    <property name="collision" type="bool" value="true"/>
   </properties>
   <polygon points="0,0 6,2 7.33333,3.33333 16.6667,12.6667 18,16.6667 22,20.6667 24.6667,23.3333 28.6667,27.3333 34,32.6667 41.3333,38.6667 45.3333,42.6667 52.6667,48.6667 66,59.3333 79.3333,72.6667 92,81.3333 94.6667,84 97.3333,86.6667 101.333,90.6667 102.667,92 107.333,95.3333 112.667,98 119.333,102 127.333,107.333 130.667,112 134.667,116 136,117.333 138.667,114.667 138.667,112 144,114.667 141.333,106.667 142,106 144,98.6667 147.333,100.667 148,100 148.667,96.6667 150,95.3333 154.667,98.6667 160,101.333 162,102 176,112 179.333,111.333 183.333,112.667 184.667,111.333 187.333,108.667 187.333,103.333 185.333,97.3333 180,89.3333 174.667,81.3333 172,76 168.667,71.3333 166,66 163.333,63.3333 165.333,61.3333 166.667,62.6667 170,64.6667 171.333,66 175.333,70 180,73.3333 181.333,74.6667 186,78 192,80 194,80.6667 197.333,82.6667 199.333,83.3333 203.333,84.6667 204,81.3333 202.667,80 202,78 200,74.6667 199.333,72.6667 196.667,70 192.667,66 192,64 194,62 194,59.3333 197.333,58.6667 198.667,57.3333 199.333,54 201.333,52 202.667,50.6667 206,47.3333 204.667,40.6667 200.667,34 203.333,34 207.333,35.3333 214,36.6667 216,37.3333 217.333,38.6667 222.667,41.3333 225.333,38.6667 224,34.6667 224.667,34 228,33.3333 227.333,28.6667 221.333,21.3333 219.333,18 210.667,5.33333 206,-0.666667 211.333,-3.33333 214,-6 214,-11.3333 214.667,-12 215.333,-12.6667 215.333,-15.3333 214,-19.3333 210.667,-24 208,-26.6667 205.333,-29.3333 204,-30.6667 203.333,-32.6667 201.333,-36 197.333,-42.6667 190.667,-49.3333 188,-52 180,-57.3333 174.667,-57.3333 173.333,-53.3333 176.667,-46 178,-44.6667 179.333,-40.6667 178,-39.3333 178,-36.6667 176,-37.3333 172.667,-42 170.667,-50.6667 170,-55.3333 166,-59.3333 160.667,-64.6667 158,-67.3333 155.333,-64.6667 156.667,-60.6667 160,-50.6667 163.333,-43.3333 162.667,-42.6667 164.667,-39.3333 163.333,-40.6667 160,-48 158,-56.6667 154,-60.6667 152,-64 150.667,-68 151.333,-71.3333 149.333,-77.3333 148,-84 145.333,-89.3333 141.333,-96 138.667,-98.6667 133.333,-104 125.333,-112 119.333,-119.333 111.333,-127.333 107.333,-131.333 102,-136.667 95.3333,-143.333 87.3333,-148.667 84,-148 82.6667,-146.667 88.6667,-134 94,-128.667 96.6667,-123.333 100.667,-119.333 105.333,-113.333 114,-103.333 115.333,-102 119.333,-98 121.333,-94.6667 120.667,-94 121.333,-86.6667 120.667,-86 114.667,-90.6667 109.333,-96 106.667,-98.6667 104.667,-102 101.333,-106.667 98.6667,-109.333 97.3333,-110.667 95.3333,-111.333 94.6667,-110.667 89.3333,-116 88,-117.333 81.3333,-124 78.6667,-126.667 68,-140 65.3333,-142.667 56,-152 51.3333,-158 44.6667,-164.667 43.3333,-166 40,-170.667 34.6667,-176 30.6667,-180 29.3333,-181.333 22.6667,-182.667 20,-182.667 18.6667,-181.333 18,-180.667 16.6667,-179.333 15.3333,-178 16,-173.333 20.6667,-167.333 22,-163.333 24,-160 28.6667,-154 38,-144.667 40.6667,-142 42,-140.667 50,-132.667 51.3333,-131.333 56.6667,-126 60,-124 63.3333,-122 64.6667,-120.667 67.3333,-118 66.6667,-114.667 67.3333,-112.667 68,-108 81.3333,-94.6667 96.6667,-80.6667 98.6667,-80 104.667,-75.3333 106,-74 102,-75.3333 99.3333,-75.3333 96,-72 94,-72.6667 92,-70.6667 94,-67.3333 103.333,-58 110,-51.3333 111.333,-47.3333 109.333,-45.3333 109.333,-42.6667 100,-52 97.3333,-54.6667 90,-63.3333 88,-69.3333 84.6667,-74 81.3333,-78.6667 79.3333,-82 72.6667,-91.3333 70.6667,-94.6667 67.3333,-99.3333 63.3333,-108.667 58,-114 55.3333,-116.667 54,-118 44,-129.333 42.6667,-130.667 38.6667,-134.667 34,-138 31.3333,-138 29.3333,-138.667 26.6667,-138.667 24.6667,-136.667 24,-130.667 30,-123.333 29.3333,-122.667 42.6667,-109.333 40,-106.667 38,-107.333 30,-115.333 27.3333,-118 23.3333,-122 19.3333,-126 8,-133.333 7.33333,-132.667 6,-131.333 8.66667,-126 13.3333,-117.333 14.6667,-116 17.3333,-105.333 18.6667,-104 25.3333,-100 25.3333,-97.3333 30.6667,-92 33.3333,-86.6667 34,-82 33.3333,-81.3333 32.6667,-80.6667 34,-79.3333 38.6667,-76 39.3333,-76.6667 43.3333,-75.3333 47.3333,-74 54,-70 60.6667,-66 62,-64.6667 68,-60 75.3333,-56.6667 76.6667,-55.3333 99.3333,-35.3333 98.6667,-34.6667 90.6667,-37.3333 81.3333,-44 72,-53.3333 69.3333,-56 60.6667,-60.6667 52.6667,-63.3333 48.6667,-64.6667 48,-64 46.6667,-62.6667 46.6667,-60 50,-55.3333 54.6667,-46.6667 56,-45.3333 56.6667,-38 54,-40.6667 50,-44.6667 44.6667,-55.3333 42.6667,-58.6667 33.3333,-65.3333 30,-67.3333 24,-74.6667 19.3333,-80.6667 15.3333,-87.3333 14,-88.6667 0.666667,-104.667 -5.33333,-112 -12,-118.667 -14,-119.333 -17.3333,-116 -17.3333,-113.333 -17.3333,-110.667 -16,-101.333 -12,-97.3333 -9.33333,-94.6667 -2.66667,-88 1.33333,-84 2.66667,-82.6667 10,-76.6667 18,-68.6667 19.3333,-67.3333 22,-64.6667 23.3333,-60.6667 24.6667,-54 22.6667,-54.6667 20,-57.3333 16.6667,-62 11.3333,-67.3333 2,-76.6667 0.666667,-75.3333 0.666667,-72.6667 0.666667,-70 -2.66667,-72 -6.66667,-76 -8,-77.3333 -17.3333,-86.6667 -24,-93.3333 -27.3333,-92.6667 -36,-102.667 -41.3333,-108 -46,-103.333 -44,-100 -46,-92.6667 -45.3333,-90.6667 -40,-82.6667 -38.6667,-86.6667 -39.3333,-86 -35.3333,-82 -32,-80 -28,-76 -25.3333,-73.3333 -14,-63.3333 -12.6667,-62 -11.3333,-60.6667 -6.66667,-57.3333 -6,-58 4.66667,-50 4,-49.3333 6,-46 9.33333,-46.6667 10.6667,-45.3333 13.3333,-42.6667 18.6667,-37.3333 24,-32 29.3333,-26.6667 38.6667,-20 42.6667,-18.6667 48.6667,-14 52,-12 54.6667,-9.33333 58,-2 57.3333,1.33333 54,2 50.6667,0 44.6667,-2 40.6667,-6 38,-8.66667 34,-10 29.3333,-13.3333 26,-15.3333 20.6667,-20.6667 16.6667,-27.3333 14,-32.6667 3.33333,-46 -2,-48.6667 -5.33333,-48 -12,-52 -14.6667,-49.3333 -15.3333,-48.6667 -20,-41.3333 -20.6667,-40.6667 -27.3333,-42 -39.3333,-51.3333 -39.3333,-46 -39.3333,-43.3333 -35.3333,-39.3333 -32.6667,-36.6667 -28.6667,-32.6667 -26,-30 -24.6667,-28.6667 -22,-26 -18.6667,-21.3333 -17.3333,-20 -16.6667,-18 -16,-16 -14.6667,-14.6667"/>
  </object>
  <object id="585" x="12807.7" y="2448.33">
   <properties>
    <property name="collision" type="bool" value="true"/>
   </properties>
   <polygon points="0,0 6,2 7.33333,3.33333 16.6667,12.6667 18,16.6667 22,20.6667 24.6667,23.3333 28.6667,27.3333 34,32.6667 41.3333,38.6667 45.3333,42.6667 52.6667,48.6667 66,59.3333 79.3333,72.6667 92,81.3333 94.6667,84 97.3333,86.6667 101.333,90.6667 102.667,92 107.333,95.3333 112.667,98 119.333,102 127.333,107.333 130.667,112 134.667,116 136,117.333 138.667,114.667 138.667,112 144,114.667 141.333,106.667 142,106 144,98.6667 147.333,100.667 148,100 148.667,96.6667 150,95.3333 154.667,98.6667 160,101.333 162,102 176,112 179.333,111.333 183.333,112.667 184.667,111.333 187.333,108.667 187.333,103.333 185.333,97.3333 180,89.3333 174.667,81.3333 172,76 168.667,71.3333 166,66 163.333,63.3333 165.333,61.3333 166.667,62.6667 170,64.6667 171.333,66 175.333,70 180,73.3333 181.333,74.6667 186,78 192,80 194,80.6667 197.333,82.6667 199.333,83.3333 203.333,84.6667 204,81.3333 202.667,80 202,78 200,74.6667 199.333,72.6667 196.667,70 192.667,66 192,64 194,62 194,59.3333 197.333,58.6667 198.667,57.3333 199.333,54 201.333,52 202.667,50.6667 206,47.3333 204.667,40.6667 200.667,34 203.333,34 207.333,35.3333 214,36.6667 216,37.3333 217.333,38.6667 222.667,41.3333 225.333,38.6667 224,34.6667 224.667,34 228,33.3333 227.333,28.6667 221.333,21.3333 219.333,18 210.667,5.33333 206,-0.666667 211.333,-3.33333 214,-6 214,-11.3333 214.667,-12 215.333,-12.6667 215.333,-15.3333 214,-19.3333 210.667,-24 208,-26.6667 205.333,-29.3333 204,-30.6667 203.333,-32.6667 201.333,-36 197.333,-42.6667 190.667,-49.3333 188,-52 180,-57.3333 174.667,-57.3333 173.333,-53.3333 176.667,-46 178,-44.6667 179.333,-40.6667 178,-39.3333 178,-36.6667 176,-37.3333 172.667,-42 170.667,-50.6667 170,-55.3333 166,-59.3333 160.667,-64.6667 158,-67.3333 155.333,-64.6667 156.667,-60.6667 160,-50.6667 163.333,-43.3333 162.667,-42.6667 164.667,-39.3333 163.333,-40.6667 160,-48 158,-56.6667 154,-60.6667 152,-64 150.667,-68 151.333,-71.3333 149.333,-77.3333 148,-84 145.333,-89.3333 141.333,-96 138.667,-98.6667 133.333,-104 125.333,-112 119.333,-119.333 111.333,-127.333 107.333,-131.333 102,-136.667 95.3333,-143.333 87.3333,-148.667 84,-148 82.6667,-146.667 88.6667,-134 94,-128.667 96.6667,-123.333 100.667,-119.333 105.333,-113.333 114,-103.333 115.333,-102 119.333,-98 121.333,-94.6667 120.667,-94 121.333,-86.6667 120.667,-86 114.667,-90.6667 109.333,-96 106.667,-98.6667 104.667,-102 101.333,-106.667 98.6667,-109.333 97.3333,-110.667 95.3333,-111.333 94.6667,-110.667 89.3333,-116 88,-117.333 81.3333,-124 78.6667,-126.667 68,-140 65.3333,-142.667 56,-152 51.3333,-158 44.6667,-164.667 43.3333,-166 40,-170.667 34.6667,-176 30.6667,-180 29.3333,-181.333 22.6667,-182.667 20,-182.667 18.6667,-181.333 18,-180.667 16.6667,-179.333 15.3333,-178 16,-173.333 20.6667,-167.333 22,-163.333 24,-160 28.6667,-154 38,-144.667 40.6667,-142 42,-140.667 50,-132.667 51.3333,-131.333 56.6667,-126 60,-124 63.3333,-122 64.6667,-120.667 67.3333,-118 66.6667,-114.667 67.3333,-112.667 68,-108 81.3333,-94.6667 96.6667,-80.6667 98.6667,-80 104.667,-75.3333 106,-74 102,-75.3333 99.3333,-75.3333 96,-72 94,-72.6667 92,-70.6667 94,-67.3333 103.333,-58 110,-51.3333 111.333,-47.3333 109.333,-45.3333 109.333,-42.6667 100,-52 97.3333,-54.6667 90,-63.3333 88,-69.3333 84.6667,-74 81.3333,-78.6667 79.3333,-82 72.6667,-91.3333 70.6667,-94.6667 67.3333,-99.3333 63.3333,-108.667 58,-114 55.3333,-116.667 54,-118 44,-129.333 42.6667,-130.667 38.6667,-134.667 34,-138 31.3333,-138 29.3333,-138.667 26.6667,-138.667 24.6667,-136.667 24,-130.667 30,-123.333 29.3333,-122.667 42.6667,-109.333 40,-106.667 38,-107.333 30,-115.333 27.3333,-118 23.3333,-122 19.3333,-126 8,-133.333 7.33333,-132.667 6,-131.333 8.66667,-126 13.3333,-117.333 14.6667,-116 17.3333,-105.333 18.6667,-104 25.3333,-100 25.3333,-97.3333 30.6667,-92 33.3333,-86.6667 34,-82 33.3333,-81.3333 32.6667,-80.6667 34,-79.3333 38.6667,-76 39.3333,-76.6667 43.3333,-75.3333 47.3333,-74 54,-70 60.6667,-66 62,-64.6667 68,-60 75.3333,-56.6667 76.6667,-55.3333 99.3333,-35.3333 98.6667,-34.6667 90.6667,-37.3333 81.3333,-44 72,-53.3333 69.3333,-56 60.6667,-60.6667 52.6667,-63.3333 48.6667,-64.6667 48,-64 46.6667,-62.6667 46.6667,-60 50,-55.3333 54.6667,-46.6667 56,-45.3333 56.6667,-38 54,-40.6667 50,-44.6667 44.6667,-55.3333 42.6667,-58.6667 33.3333,-65.3333 30,-67.3333 24,-74.6667 19.3333,-80.6667 15.3333,-87.3333 14,-88.6667 0.666667,-104.667 -5.33333,-112 -12,-118.667 -14,-119.333 -17.3333,-116 -17.3333,-113.333 -17.3333,-110.667 -16,-101.333 -12,-97.3333 -9.33333,-94.6667 -2.66667,-88 1.33333,-84 2.66667,-82.6667 10,-76.6667 18,-68.6667 19.3333,-67.3333 22,-64.6667 23.3333,-60.6667 24.6667,-54 22.6667,-54.6667 20,-57.3333 16.6667,-62 11.3333,-67.3333 2,-76.6667 0.666667,-75.3333 0.666667,-72.6667 0.666667,-70 -2.66667,-72 -6.66667,-76 -8,-77.3333 -17.3333,-86.6667 -24,-93.3333 -27.3333,-92.6667 -36,-102.667 -41.3333,-108 -46,-103.333 -44,-100 -46,-92.6667 -45.3333,-90.6667 -40,-82.6667 -38.6667,-86.6667 -39.3333,-86 -35.3333,-82 -32,-80 -28,-76 -25.3333,-73.3333 -14,-63.3333 -12.6667,-62 -11.3333,-60.6667 -6.66667,-57.3333 -6,-58 4.66667,-50 4,-49.3333 6,-46 9.33333,-46.6667 10.6667,-45.3333 13.3333,-42.6667 18.6667,-37.3333 24,-32 29.3333,-26.6667 38.6667,-20 42.6667,-18.6667 48.6667,-14 52,-12 54.6667,-9.33333 58,-2 57.3333,1.33333 54,2 50.6667,0 44.6667,-2 40.6667,-6 38,-8.66667 34,-10 29.3333,-13.3333 26,-15.3333 20.6667,-20.6667 16.6667,-27.3333 14,-32.6667 3.33333,-46 -2,-48.6667 -5.33333,-48 -12,-52 -14.6667,-49.3333 -15.3333,-48.6667 -20,-41.3333 -20.6667,-40.6667 -27.3333,-42 -39.3333,-51.3333 -39.3333,-46 -39.3333,-43.3333 -35.3333,-39.3333 -32.6667,-36.6667 -28.6667,-32.6667 -26,-30 -24.6667,-28.6667 -22,-26 -18.6667,-21.3333 -17.3333,-20 -16.6667,-18 -16,-16 -14.6667,-14.6667"/>
  </object>
  <object id="586" x="12420.7" y="2191.33">
   <properties>
    <property name="collision" type="bool" value="true"/>
   </properties>
   <polygon points="0,0 6,2 7.33333,3.33333 16.6667,12.6667 18,16.6667 22,20.6667 24.6667,23.3333 28.6667,27.3333 34,32.6667 41.3333,38.6667 45.3333,42.6667 52.6667,48.6667 66,59.3333 79.3333,72.6667 92,81.3333 94.6667,84 97.3333,86.6667 101.333,90.6667 102.667,92 107.333,95.3333 112.667,98 119.333,102 127.333,107.333 130.667,112 134.667,116 136,117.333 138.667,114.667 138.667,112 144,114.667 141.333,106.667 142,106 144,98.6667 147.333,100.667 148,100 148.667,96.6667 150,95.3333 154.667,98.6667 160,101.333 162,102 176,112 179.333,111.333 183.333,112.667 184.667,111.333 187.333,108.667 187.333,103.333 185.333,97.3333 180,89.3333 174.667,81.3333 172,76 168.667,71.3333 166,66 163.333,63.3333 165.333,61.3333 166.667,62.6667 170,64.6667 171.333,66 175.333,70 180,73.3333 181.333,74.6667 186,78 192,80 194,80.6667 197.333,82.6667 199.333,83.3333 203.333,84.6667 204,81.3333 202.667,80 202,78 200,74.6667 199.333,72.6667 196.667,70 192.667,66 192,64 194,62 194,59.3333 197.333,58.6667 198.667,57.3333 199.333,54 201.333,52 202.667,50.6667 206,47.3333 204.667,40.6667 200.667,34 203.333,34 207.333,35.3333 214,36.6667 216,37.3333 217.333,38.6667 222.667,41.3333 225.333,38.6667 224,34.6667 224.667,34 228,33.3333 227.333,28.6667 221.333,21.3333 219.333,18 210.667,5.33333 206,-0.666667 211.333,-3.33333 214,-6 214,-11.3333 214.667,-12 215.333,-12.6667 215.333,-15.3333 214,-19.3333 210.667,-24 208,-26.6667 205.333,-29.3333 204,-30.6667 203.333,-32.6667 201.333,-36 197.333,-42.6667 190.667,-49.3333 188,-52 180,-57.3333 174.667,-57.3333 173.333,-53.3333 176.667,-46 178,-44.6667 179.333,-40.6667 178,-39.3333 178,-36.6667 176,-37.3333 172.667,-42 170.667,-50.6667 170,-55.3333 166,-59.3333 160.667,-64.6667 158,-67.3333 155.333,-64.6667 156.667,-60.6667 160,-50.6667 163.333,-43.3333 162.667,-42.6667 164.667,-39.3333 163.333,-40.6667 160,-48 158,-56.6667 154,-60.6667 152,-64 150.667,-68 151.333,-71.3333 149.333,-77.3333 148,-84 145.333,-89.3333 141.333,-96 138.667,-98.6667 133.333,-104 125.333,-112 119.333,-119.333 111.333,-127.333 107.333,-131.333 102,-136.667 95.3333,-143.333 87.3333,-148.667 84,-148 82.6667,-146.667 88.6667,-134 94,-128.667 96.6667,-123.333 100.667,-119.333 105.333,-113.333 114,-103.333 115.333,-102 119.333,-98 121.333,-94.6667 120.667,-94 121.333,-86.6667 120.667,-86 114.667,-90.6667 109.333,-96 106.667,-98.6667 104.667,-102 101.333,-106.667 98.6667,-109.333 97.3333,-110.667 95.3333,-111.333 94.6667,-110.667 89.3333,-116 88,-117.333 81.3333,-124 78.6667,-126.667 68,-140 65.3333,-142.667 56,-152 51.3333,-158 44.6667,-164.667 43.3333,-166 40,-170.667 34.6667,-176 30.6667,-180 29.3333,-181.333 22.6667,-182.667 20,-182.667 18.6667,-181.333 18,-180.667 16.6667,-179.333 15.3333,-178 16,-173.333 20.6667,-167.333 22,-163.333 24,-160 28.6667,-154 38,-144.667 40.6667,-142 42,-140.667 50,-132.667 51.3333,-131.333 56.6667,-126 60,-124 63.3333,-122 64.6667,-120.667 67.3333,-118 66.6667,-114.667 67.3333,-112.667 68,-108 81.3333,-94.6667 96.6667,-80.6667 98.6667,-80 104.667,-75.3333 106,-74 102,-75.3333 99.3333,-75.3333 96,-72 94,-72.6667 92,-70.6667 94,-67.3333 103.333,-58 110,-51.3333 111.333,-47.3333 109.333,-45.3333 109.333,-42.6667 100,-52 97.3333,-54.6667 90,-63.3333 88,-69.3333 84.6667,-74 81.3333,-78.6667 79.3333,-82 72.6667,-91.3333 70.6667,-94.6667 67.3333,-99.3333 63.3333,-108.667 58,-114 55.3333,-116.667 54,-118 44,-129.333 42.6667,-130.667 38.6667,-134.667 34,-138 31.3333,-138 29.3333,-138.667 26.6667,-138.667 24.6667,-136.667 24,-130.667 30,-123.333 29.3333,-122.667 42.6667,-109.333 40,-106.667 38,-107.333 30,-115.333 27.3333,-118 23.3333,-122 19.3333,-126 8,-133.333 7.33333,-132.667 6,-131.333 8.66667,-126 13.3333,-117.333 14.6667,-116 17.3333,-105.333 18.6667,-104 25.3333,-100 25.3333,-97.3333 30.6667,-92 33.3333,-86.6667 34,-82 33.3333,-81.3333 32.6667,-80.6667 34,-79.3333 38.6667,-76 39.3333,-76.6667 43.3333,-75.3333 47.3333,-74 54,-70 60.6667,-66 62,-64.6667 68,-60 75.3333,-56.6667 76.6667,-55.3333 99.3333,-35.3333 98.6667,-34.6667 90.6667,-37.3333 81.3333,-44 72,-53.3333 69.3333,-56 60.6667,-60.6667 52.6667,-63.3333 48.6667,-64.6667 48,-64 46.6667,-62.6667 46.6667,-60 50,-55.3333 54.6667,-46.6667 56,-45.3333 56.6667,-38 54,-40.6667 50,-44.6667 44.6667,-55.3333 42.6667,-58.6667 33.3333,-65.3333 30,-67.3333 24,-74.6667 19.3333,-80.6667 15.3333,-87.3333 14,-88.6667 0.666667,-104.667 -5.33333,-112 -12,-118.667 -14,-119.333 -17.3333,-116 -17.3333,-113.333 -17.3333,-110.667 -16,-101.333 -12,-97.3333 -9.33333,-94.6667 -2.66667,-88 1.33333,-84 2.66667,-82.6667 10,-76.6667 18,-68.6667 19.3333,-67.3333 22,-64.6667 23.3333,-60.6667 24.6667,-54 22.6667,-54.6667 20,-57.3333 16.6667,-62 11.3333,-67.3333 2,-76.6667 0.666667,-75.3333 0.666667,-72.6667 0.666667,-70 -2.66667,-72 -6.66667,-76 -8,-77.3333 -17.3333,-86.6667 -24,-93.3333 -27.3333,-92.6667 -36,-102.667 -41.3333,-108 -46,-103.333 -44,-100 -46,-92.6667 -45.3333,-90.6667 -40,-82.6667 -38.6667,-86.6667 -39.3333,-86 -35.3333,-82 -32,-80 -28,-76 -25.3333,-73.3333 -14,-63.3333 -12.6667,-62 -11.3333,-60.6667 -6.66667,-57.3333 -6,-58 4.66667,-50 4,-49.3333 6,-46 9.33333,-46.6667 10.6667,-45.3333 13.3333,-42.6667 18.6667,-37.3333 24,-32 29.3333,-26.6667 38.6667,-20 42.6667,-18.6667 48.6667,-14 52,-12 54.6667,-9.33333 58,-2 57.3333,1.33333 54,2 50.6667,0 44.6667,-2 40.6667,-6 38,-8.66667 34,-10 29.3333,-13.3333 26,-15.3333 20.6667,-20.6667 16.6667,-27.3333 14,-32.6667 3.33333,-46 -2,-48.6667 -5.33333,-48 -12,-52 -14.6667,-49.3333 -15.3333,-48.6667 -20,-41.3333 -20.6667,-40.6667 -27.3333,-42 -39.3333,-51.3333 -39.3333,-46 -39.3333,-43.3333 -35.3333,-39.3333 -32.6667,-36.6667 -28.6667,-32.6667 -26,-30 -24.6667,-28.6667 -22,-26 -18.6667,-21.3333 -17.3333,-20 -16.6667,-18 -16,-16 -14.6667,-14.6667"/>
  </object>
  <object id="588" x="11396.7" y="2063.33">
   <properties>
    <property name="collision" type="bool" value="true"/>
   </properties>
   <polygon points="0,0 6,2 7.33333,3.33333 16.6667,12.6667 18,16.6667 22,20.6667 24.6667,23.3333 28.6667,27.3333 34,32.6667 41.3333,38.6667 45.3333,42.6667 52.6667,48.6667 66,59.3333 79.3333,72.6667 92,81.3333 94.6667,84 97.3333,86.6667 101.333,90.6667 102.667,92 107.333,95.3333 112.667,98 119.333,102 127.333,107.333 130.667,112 134.667,116 136,117.333 138.667,114.667 138.667,112 144,114.667 141.333,106.667 142,106 144,98.6667 147.333,100.667 148,100 148.667,96.6667 150,95.3333 154.667,98.6667 160,101.333 162,102 176,112 179.333,111.333 183.333,112.667 184.667,111.333 187.333,108.667 187.333,103.333 185.333,97.3333 180,89.3333 174.667,81.3333 172,76 168.667,71.3333 166,66 163.333,63.3333 165.333,61.3333 166.667,62.6667 170,64.6667 171.333,66 175.333,70 180,73.3333 181.333,74.6667 186,78 192,80 194,80.6667 197.333,82.6667 199.333,83.3333 203.333,84.6667 204,81.3333 202.667,80 202,78 200,74.6667 199.333,72.6667 196.667,70 192.667,66 192,64 194,62 194,59.3333 197.333,58.6667 198.667,57.3333 199.333,54 201.333,52 202.667,50.6667 206,47.3333 204.667,40.6667 200.667,34 203.333,34 207.333,35.3333 214,36.6667 216,37.3333 217.333,38.6667 222.667,41.3333 225.333,38.6667 224,34.6667 224.667,34 228,33.3333 227.333,28.6667 221.333,21.3333 219.333,18 210.667,5.33333 206,-0.666667 211.333,-3.33333 214,-6 214,-11.3333 214.667,-12 215.333,-12.6667 215.333,-15.3333 214,-19.3333 210.667,-24 208,-26.6667 205.333,-29.3333 204,-30.6667 203.333,-32.6667 201.333,-36 197.333,-42.6667 190.667,-49.3333 188,-52 180,-57.3333 174.667,-57.3333 173.333,-53.3333 176.667,-46 178,-44.6667 179.333,-40.6667 178,-39.3333 178,-36.6667 176,-37.3333 172.667,-42 170.667,-50.6667 170,-55.3333 166,-59.3333 160.667,-64.6667 158,-67.3333 155.333,-64.6667 156.667,-60.6667 160,-50.6667 163.333,-43.3333 162.667,-42.6667 164.667,-39.3333 163.333,-40.6667 160,-48 158,-56.6667 154,-60.6667 152,-64 150.667,-68 151.333,-71.3333 149.333,-77.3333 148,-84 145.333,-89.3333 141.333,-96 138.667,-98.6667 133.333,-104 125.333,-112 119.333,-119.333 111.333,-127.333 107.333,-131.333 102,-136.667 95.3333,-143.333 87.3333,-148.667 84,-148 82.6667,-146.667 88.6667,-134 94,-128.667 96.6667,-123.333 100.667,-119.333 105.333,-113.333 114,-103.333 115.333,-102 119.333,-98 121.333,-94.6667 120.667,-94 121.333,-86.6667 120.667,-86 114.667,-90.6667 109.333,-96 106.667,-98.6667 104.667,-102 101.333,-106.667 98.6667,-109.333 97.3333,-110.667 95.3333,-111.333 94.6667,-110.667 89.3333,-116 88,-117.333 81.3333,-124 78.6667,-126.667 68,-140 65.3333,-142.667 56,-152 51.3333,-158 44.6667,-164.667 43.3333,-166 40,-170.667 34.6667,-176 30.6667,-180 29.3333,-181.333 22.6667,-182.667 20,-182.667 18.6667,-181.333 18,-180.667 16.6667,-179.333 15.3333,-178 16,-173.333 20.6667,-167.333 22,-163.333 24,-160 28.6667,-154 38,-144.667 40.6667,-142 42,-140.667 50,-132.667 51.3333,-131.333 56.6667,-126 60,-124 63.3333,-122 64.6667,-120.667 67.3333,-118 66.6667,-114.667 67.3333,-112.667 68,-108 81.3333,-94.6667 96.6667,-80.6667 98.6667,-80 104.667,-75.3333 106,-74 102,-75.3333 99.3333,-75.3333 96,-72 94,-72.6667 92,-70.6667 94,-67.3333 103.333,-58 110,-51.3333 111.333,-47.3333 109.333,-45.3333 109.333,-42.6667 100,-52 97.3333,-54.6667 90,-63.3333 88,-69.3333 84.6667,-74 81.3333,-78.6667 79.3333,-82 72.6667,-91.3333 70.6667,-94.6667 67.3333,-99.3333 63.3333,-108.667 58,-114 55.3333,-116.667 54,-118 44,-129.333 42.6667,-130.667 38.6667,-134.667 34,-138 31.3333,-138 29.3333,-138.667 26.6667,-138.667 24.6667,-136.667 24,-130.667 30,-123.333 29.3333,-122.667 42.6667,-109.333 40,-106.667 38,-107.333 30,-115.333 27.3333,-118 23.3333,-122 19.3333,-126 8,-133.333 7.33333,-132.667 6,-131.333 8.66667,-126 13.3333,-117.333 14.6667,-116 17.3333,-105.333 18.6667,-104 25.3333,-100 25.3333,-97.3333 30.6667,-92 33.3333,-86.6667 34,-82 33.3333,-81.3333 32.6667,-80.6667 34,-79.3333 38.6667,-76 39.3333,-76.6667 43.3333,-75.3333 47.3333,-74 54,-70 60.6667,-66 62,-64.6667 68,-60 75.3333,-56.6667 76.6667,-55.3333 99.3333,-35.3333 98.6667,-34.6667 90.6667,-37.3333 81.3333,-44 72,-53.3333 69.3333,-56 60.6667,-60.6667 52.6667,-63.3333 48.6667,-64.6667 48,-64 46.6667,-62.6667 46.6667,-60 50,-55.3333 54.6667,-46.6667 56,-45.3333 56.6667,-38 54,-40.6667 50,-44.6667 44.6667,-55.3333 42.6667,-58.6667 33.3333,-65.3333 30,-67.3333 24,-74.6667 19.3333,-80.6667 15.3333,-87.3333 14,-88.6667 0.666667,-104.667 -5.33333,-112 -12,-118.667 -14,-119.333 -17.3333,-116 -17.3333,-113.333 -17.3333,-110.667 -16,-101.333 -12,-97.3333 -9.33333,-94.6667 -2.66667,-88 1.33333,-84 2.66667,-82.6667 10,-76.6667 18,-68.6667 19.3333,-67.3333 22,-64.6667 23.3333,-60.6667 24.6667,-54 22.6667,-54.6667 20,-57.3333 16.6667,-62 11.3333,-67.3333 2,-76.6667 0.666667,-75.3333 0.666667,-72.6667 0.666667,-70 -2.66667,-72 -6.66667,-76 -8,-77.3333 -17.3333,-86.6667 -24,-93.3333 -27.3333,-92.6667 -36,-102.667 -41.3333,-108 -46,-103.333 -44,-100 -46,-92.6667 -45.3333,-90.6667 -40,-82.6667 -38.6667,-86.6667 -39.3333,-86 -35.3333,-82 -32,-80 -28,-76 -25.3333,-73.3333 -14,-63.3333 -12.6667,-62 -11.3333,-60.6667 -6.66667,-57.3333 -6,-58 4.66667,-50 4,-49.3333 6,-46 9.33333,-46.6667 10.6667,-45.3333 13.3333,-42.6667 18.6667,-37.3333 24,-32 29.3333,-26.6667 38.6667,-20 42.6667,-18.6667 48.6667,-14 52,-12 54.6667,-9.33333 58,-2 57.3333,1.33333 54,2 50.6667,0 44.6667,-2 40.6667,-6 38,-8.66667 34,-10 29.3333,-13.3333 26,-15.3333 20.6667,-20.6667 16.6667,-27.3333 14,-32.6667 3.33333,-46 -2,-48.6667 -5.33333,-48 -12,-52 -14.6667,-49.3333 -15.3333,-48.6667 -20,-41.3333 -20.6667,-40.6667 -27.3333,-42 -39.3333,-51.3333 -39.3333,-46 -39.3333,-43.3333 -35.3333,-39.3333 -32.6667,-36.6667 -28.6667,-32.6667 -26,-30 -24.6667,-28.6667 -22,-26 -18.6667,-21.3333 -17.3333,-20 -16.6667,-18 -16,-16 -14.6667,-14.6667"/>
  </object>
  <object id="589" x="8919.67" y="1484.33">
   <properties>
    <property name="collision" type="bool" value="true"/>
   </properties>
   <polygon points="0,0 6,2 7.33333,3.33333 16.6667,12.6667 18,16.6667 22,20.6667 24.6667,23.3333 28.6667,27.3333 34,32.6667 41.3333,38.6667 45.3333,42.6667 52.6667,48.6667 66,59.3333 79.3333,72.6667 92,81.3333 94.6667,84 97.3333,86.6667 101.333,90.6667 102.667,92 107.333,95.3333 112.667,98 119.333,102 127.333,107.333 130.667,112 134.667,116 136,117.333 138.667,114.667 138.667,112 144,114.667 141.333,106.667 142,106 144,98.6667 147.333,100.667 148,100 148.667,96.6667 150,95.3333 154.667,98.6667 160,101.333 162,102 176,112 179.333,111.333 183.333,112.667 184.667,111.333 187.333,108.667 187.333,103.333 185.333,97.3333 180,89.3333 174.667,81.3333 172,76 168.667,71.3333 166,66 163.333,63.3333 165.333,61.3333 166.667,62.6667 170,64.6667 171.333,66 175.333,70 180,73.3333 181.333,74.6667 186,78 192,80 194,80.6667 197.333,82.6667 199.333,83.3333 203.333,84.6667 204,81.3333 202.667,80 202,78 200,74.6667 199.333,72.6667 196.667,70 192.667,66 192,64 194,62 194,59.3333 197.333,58.6667 198.667,57.3333 199.333,54 201.333,52 202.667,50.6667 206,47.3333 204.667,40.6667 200.667,34 203.333,34 207.333,35.3333 214,36.6667 216,37.3333 217.333,38.6667 222.667,41.3333 225.333,38.6667 224,34.6667 224.667,34 228,33.3333 227.333,28.6667 221.333,21.3333 219.333,18 210.667,5.33333 206,-0.666667 211.333,-3.33333 214,-6 214,-11.3333 214.667,-12 215.333,-12.6667 215.333,-15.3333 214,-19.3333 210.667,-24 208,-26.6667 205.333,-29.3333 204,-30.6667 203.333,-32.6667 201.333,-36 197.333,-42.6667 190.667,-49.3333 188,-52 180,-57.3333 174.667,-57.3333 173.333,-53.3333 176.667,-46 178,-44.6667 179.333,-40.6667 178,-39.3333 178,-36.6667 176,-37.3333 172.667,-42 170.667,-50.6667 170,-55.3333 166,-59.3333 160.667,-64.6667 158,-67.3333 155.333,-64.6667 156.667,-60.6667 160,-50.6667 163.333,-43.3333 162.667,-42.6667 164.667,-39.3333 163.333,-40.6667 160,-48 158,-56.6667 154,-60.6667 152,-64 150.667,-68 151.333,-71.3333 149.333,-77.3333 148,-84 145.333,-89.3333 141.333,-96 138.667,-98.6667 133.333,-104 125.333,-112 119.333,-119.333 111.333,-127.333 107.333,-131.333 102,-136.667 95.3333,-143.333 87.3333,-148.667 84,-148 82.6667,-146.667 88.6667,-134 94,-128.667 96.6667,-123.333 100.667,-119.333 105.333,-113.333 114,-103.333 115.333,-102 119.333,-98 121.333,-94.6667 120.667,-94 121.333,-86.6667 120.667,-86 114.667,-90.6667 109.333,-96 106.667,-98.6667 104.667,-102 101.333,-106.667 98.6667,-109.333 97.3333,-110.667 95.3333,-111.333 94.6667,-110.667 89.3333,-116 88,-117.333 81.3333,-124 78.6667,-126.667 68,-140 65.3333,-142.667 56,-152 51.3333,-158 44.6667,-164.667 43.3333,-166 40,-170.667 34.6667,-176 30.6667,-180 29.3333,-181.333 22.6667,-182.667 20,-182.667 18.6667,-181.333 18,-180.667 16.6667,-179.333 15.3333,-178 16,-173.333 20.6667,-167.333 22,-163.333 24,-160 28.6667,-154 38,-144.667 40.6667,-142 42,-140.667 50,-132.667 51.3333,-131.333 56.6667,-126 60,-124 63.3333,-122 64.6667,-120.667 67.3333,-118 66.6667,-114.667 67.3333,-112.667 68,-108 81.3333,-94.6667 96.6667,-80.6667 98.6667,-80 104.667,-75.3333 106,-74 102,-75.3333 99.3333,-75.3333 96,-72 94,-72.6667 92,-70.6667 94,-67.3333 103.333,-58 110,-51.3333 111.333,-47.3333 109.333,-45.3333 109.333,-42.6667 100,-52 97.3333,-54.6667 90,-63.3333 88,-69.3333 84.6667,-74 81.3333,-78.6667 79.3333,-82 72.6667,-91.3333 70.6667,-94.6667 67.3333,-99.3333 63.3333,-108.667 58,-114 55.3333,-116.667 54,-118 44,-129.333 42.6667,-130.667 38.6667,-134.667 34,-138 31.3333,-138 29.3333,-138.667 26.6667,-138.667 24.6667,-136.667 24,-130.667 30,-123.333 29.3333,-122.667 42.6667,-109.333 40,-106.667 38,-107.333 30,-115.333 27.3333,-118 23.3333,-122 19.3333,-126 8,-133.333 7.33333,-132.667 6,-131.333 8.66667,-126 13.3333,-117.333 14.6667,-116 17.3333,-105.333 18.6667,-104 25.3333,-100 25.3333,-97.3333 30.6667,-92 33.3333,-86.6667 34,-82 33.3333,-81.3333 32.6667,-80.6667 34,-79.3333 38.6667,-76 39.3333,-76.6667 43.3333,-75.3333 47.3333,-74 54,-70 60.6667,-66 62,-64.6667 68,-60 75.3333,-56.6667 76.6667,-55.3333 99.3333,-35.3333 98.6667,-34.6667 90.6667,-37.3333 81.3333,-44 72,-53.3333 69.3333,-56 60.6667,-60.6667 52.6667,-63.3333 48.6667,-64.6667 48,-64 46.6667,-62.6667 46.6667,-60 50,-55.3333 54.6667,-46.6667 56,-45.3333 56.6667,-38 54,-40.6667 50,-44.6667 44.6667,-55.3333 42.6667,-58.6667 33.3333,-65.3333 30,-67.3333 24,-74.6667 19.3333,-80.6667 15.3333,-87.3333 14,-88.6667 0.666667,-104.667 -5.33333,-112 -12,-118.667 -14,-119.333 -17.3333,-116 -17.3333,-113.333 -17.3333,-110.667 -16,-101.333 -12,-97.3333 -9.33333,-94.6667 -2.66667,-88 1.33333,-84 2.66667,-82.6667 10,-76.6667 18,-68.6667 19.3333,-67.3333 22,-64.6667 23.3333,-60.6667 24.6667,-54 22.6667,-54.6667 20,-57.3333 16.6667,-62 11.3333,-67.3333 2,-76.6667 0.666667,-75.3333 0.666667,-72.6667 0.666667,-70 -2.66667,-72 -6.66667,-76 -8,-77.3333 -17.3333,-86.6667 -24,-93.3333 -27.3333,-92.6667 -36,-102.667 -41.3333,-108 -46,-103.333 -44,-100 -46,-92.6667 -45.3333,-90.6667 -40,-82.6667 -38.6667,-86.6667 -39.3333,-86 -35.3333,-82 -32,-80 -28,-76 -25.3333,-73.3333 -14,-63.3333 -12.6667,-62 -11.3333,-60.6667 -6.66667,-57.3333 -6,-58 4.66667,-50 4,-49.3333 6,-46 9.33333,-46.6667 10.6667,-45.3333 13.3333,-42.6667 18.6667,-37.3333 24,-32 29.3333,-26.6667 38.6667,-20 42.6667,-18.6667 48.6667,-14 52,-12 54.6667,-9.33333 58,-2 57.3333,1.33333 54,2 50.6667,0 44.6667,-2 40.6667,-6 38,-8.66667 34,-10 29.3333,-13.3333 26,-15.3333 20.6667,-20.6667 16.6667,-27.3333 14,-32.6667 3.33333,-46 -2,-48.6667 -5.33333,-48 -12,-52 -14.6667,-49.3333 -15.3333,-48.6667 -20,-41.3333 -20.6667,-40.6667 -27.3333,-42 -39.3333,-51.3333 -39.3333,-46 -39.3333,-43.3333 -35.3333,-39.3333 -32.6667,-36.6667 -28.6667,-32.6667 -26,-30 -24.6667,-28.6667 -22,-26 -18.6667,-21.3333 -17.3333,-20 -16.6667,-18 -16,-16 -14.6667,-14.6667"/>
  </object>
  <object id="590" x="7428.67" y="1679.33">
   <properties>
    <property name="collision" type="bool" value="true"/>
   </properties>
   <polygon points="0,0 6,2 7.33333,3.33333 16.6667,12.6667 18,16.6667 22,20.6667 24.6667,23.3333 28.6667,27.3333 34,32.6667 41.3333,38.6667 45.3333,42.6667 52.6667,48.6667 66,59.3333 79.3333,72.6667 92,81.3333 94.6667,84 97.3333,86.6667 101.333,90.6667 102.667,92 107.333,95.3333 112.667,98 119.333,102 127.333,107.333 130.667,112 134.667,116 136,117.333 138.667,114.667 138.667,112 144,114.667 141.333,106.667 142,106 144,98.6667 147.333,100.667 148,100 148.667,96.6667 150,95.3333 154.667,98.6667 160,101.333 162,102 176,112 179.333,111.333 183.333,112.667 184.667,111.333 187.333,108.667 187.333,103.333 185.333,97.3333 180,89.3333 174.667,81.3333 172,76 168.667,71.3333 166,66 163.333,63.3333 165.333,61.3333 166.667,62.6667 170,64.6667 171.333,66 175.333,70 180,73.3333 181.333,74.6667 186,78 192,80 194,80.6667 197.333,82.6667 199.333,83.3333 203.333,84.6667 204,81.3333 202.667,80 202,78 200,74.6667 199.333,72.6667 196.667,70 192.667,66 192,64 194,62 194,59.3333 197.333,58.6667 198.667,57.3333 199.333,54 201.333,52 202.667,50.6667 206,47.3333 204.667,40.6667 200.667,34 203.333,34 207.333,35.3333 214,36.6667 216,37.3333 217.333,38.6667 222.667,41.3333 225.333,38.6667 224,34.6667 224.667,34 228,33.3333 227.333,28.6667 221.333,21.3333 219.333,18 210.667,5.33333 206,-0.666667 211.333,-3.33333 214,-6 214,-11.3333 214.667,-12 215.333,-12.6667 215.333,-15.3333 214,-19.3333 210.667,-24 208,-26.6667 205.333,-29.3333 204,-30.6667 203.333,-32.6667 201.333,-36 197.333,-42.6667 190.667,-49.3333 188,-52 180,-57.3333 174.667,-57.3333 173.333,-53.3333 176.667,-46 178,-44.6667 179.333,-40.6667 178,-39.3333 178,-36.6667 176,-37.3333 172.667,-42 170.667,-50.6667 170,-55.3333 166,-59.3333 160.667,-64.6667 158,-67.3333 155.333,-64.6667 156.667,-60.6667 160,-50.6667 163.333,-43.3333 162.667,-42.6667 164.667,-39.3333 163.333,-40.6667 160,-48 158,-56.6667 154,-60.6667 152,-64 150.667,-68 151.333,-71.3333 149.333,-77.3333 148,-84 145.333,-89.3333 141.333,-96 138.667,-98.6667 133.333,-104 125.333,-112 119.333,-119.333 111.333,-127.333 107.333,-131.333 102,-136.667 95.3333,-143.333 87.3333,-148.667 84,-148 82.6667,-146.667 88.6667,-134 94,-128.667 96.6667,-123.333 100.667,-119.333 105.333,-113.333 114,-103.333 115.333,-102 119.333,-98 121.333,-94.6667 120.667,-94 121.333,-86.6667 120.667,-86 114.667,-90.6667 109.333,-96 106.667,-98.6667 104.667,-102 101.333,-106.667 98.6667,-109.333 97.3333,-110.667 95.3333,-111.333 94.6667,-110.667 89.3333,-116 88,-117.333 81.3333,-124 78.6667,-126.667 68,-140 65.3333,-142.667 56,-152 51.3333,-158 44.6667,-164.667 43.3333,-166 40,-170.667 34.6667,-176 30.6667,-180 29.3333,-181.333 22.6667,-182.667 20,-182.667 18.6667,-181.333 18,-180.667 16.6667,-179.333 15.3333,-178 16,-173.333 20.6667,-167.333 22,-163.333 24,-160 28.6667,-154 38,-144.667 40.6667,-142 42,-140.667 50,-132.667 51.3333,-131.333 56.6667,-126 60,-124 63.3333,-122 64.6667,-120.667 67.3333,-118 66.6667,-114.667 67.3333,-112.667 68,-108 81.3333,-94.6667 96.6667,-80.6667 98.6667,-80 104.667,-75.3333 106,-74 102,-75.3333 99.3333,-75.3333 96,-72 94,-72.6667 92,-70.6667 94,-67.3333 103.333,-58 110,-51.3333 111.333,-47.3333 109.333,-45.3333 109.333,-42.6667 100,-52 97.3333,-54.6667 90,-63.3333 88,-69.3333 84.6667,-74 81.3333,-78.6667 79.3333,-82 72.6667,-91.3333 70.6667,-94.6667 67.3333,-99.3333 63.3333,-108.667 58,-114 55.3333,-116.667 54,-118 44,-129.333 42.6667,-130.667 38.6667,-134.667 34,-138 31.3333,-138 29.3333,-138.667 26.6667,-138.667 24.6667,-136.667 24,-130.667 30,-123.333 29.3333,-122.667 42.6667,-109.333 40,-106.667 38,-107.333 30,-115.333 27.3333,-118 23.3333,-122 19.3333,-126 8,-133.333 7.33333,-132.667 6,-131.333 8.66667,-126 13.3333,-117.333 14.6667,-116 17.3333,-105.333 18.6667,-104 25.3333,-100 25.3333,-97.3333 30.6667,-92 33.3333,-86.6667 34,-82 33.3333,-81.3333 32.6667,-80.6667 34,-79.3333 38.6667,-76 39.3333,-76.6667 43.3333,-75.3333 47.3333,-74 54,-70 60.6667,-66 62,-64.6667 68,-60 75.3333,-56.6667 76.6667,-55.3333 99.3333,-35.3333 98.6667,-34.6667 90.6667,-37.3333 81.3333,-44 72,-53.3333 69.3333,-56 60.6667,-60.6667 52.6667,-63.3333 48.6667,-64.6667 48,-64 46.6667,-62.6667 46.6667,-60 50,-55.3333 54.6667,-46.6667 56,-45.3333 56.6667,-38 54,-40.6667 50,-44.6667 44.6667,-55.3333 42.6667,-58.6667 33.3333,-65.3333 30,-67.3333 24,-74.6667 19.3333,-80.6667 15.3333,-87.3333 14,-88.6667 0.666667,-104.667 -5.33333,-112 -12,-118.667 -14,-119.333 -17.3333,-116 -17.3333,-113.333 -17.3333,-110.667 -16,-101.333 -12,-97.3333 -9.33333,-94.6667 -2.66667,-88 1.33333,-84 2.66667,-82.6667 10,-76.6667 18,-68.6667 19.3333,-67.3333 22,-64.6667 23.3333,-60.6667 24.6667,-54 22.6667,-54.6667 20,-57.3333 16.6667,-62 11.3333,-67.3333 2,-76.6667 0.666667,-75.3333 0.666667,-72.6667 0.666667,-70 -2.66667,-72 -6.66667,-76 -8,-77.3333 -17.3333,-86.6667 -24,-93.3333 -27.3333,-92.6667 -36,-102.667 -41.3333,-108 -46,-103.333 -44,-100 -46,-92.6667 -45.3333,-90.6667 -40,-82.6667 -38.6667,-86.6667 -39.3333,-86 -35.3333,-82 -32,-80 -28,-76 -25.3333,-73.3333 -14,-63.3333 -12.6667,-62 -11.3333,-60.6667 -6.66667,-57.3333 -6,-58 4.66667,-50 4,-49.3333 6,-46 9.33333,-46.6667 10.6667,-45.3333 13.3333,-42.6667 18.6667,-37.3333 24,-32 29.3333,-26.6667 38.6667,-20 42.6667,-18.6667 48.6667,-14 52,-12 54.6667,-9.33333 58,-2 57.3333,1.33333 54,2 50.6667,0 44.6667,-2 40.6667,-6 38,-8.66667 34,-10 29.3333,-13.3333 26,-15.3333 20.6667,-20.6667 16.6667,-27.3333 14,-32.6667 3.33333,-46 -2,-48.6667 -5.33333,-48 -12,-52 -14.6667,-49.3333 -15.3333,-48.6667 -20,-41.3333 -20.6667,-40.6667 -27.3333,-42 -39.3333,-51.3333 -39.3333,-46 -39.3333,-43.3333 -35.3333,-39.3333 -32.6667,-36.6667 -28.6667,-32.6667 -26,-30 -24.6667,-28.6667 -22,-26 -18.6667,-21.3333 -17.3333,-20 -16.6667,-18 -16,-16 -14.6667,-14.6667"/>
  </object>
  <object id="591" x="5001.67" y="1558.33">
   <properties>
    <property name="collision" type="bool" value="true"/>
   </properties>
   <polygon points="0,0 6,2 7.33333,3.33333 16.6667,12.6667 18,16.6667 22,20.6667 24.6667,23.3333 28.6667,27.3333 34,32.6667 41.3333,38.6667 45.3333,42.6667 52.6667,48.6667 66,59.3333 79.3333,72.6667 92,81.3333 94.6667,84 97.3333,86.6667 101.333,90.6667 102.667,92 107.333,95.3333 112.667,98 119.333,102 127.333,107.333 130.667,112 134.667,116 136,117.333 138.667,114.667 138.667,112 144,114.667 141.333,106.667 142,106 144,98.6667 147.333,100.667 148,100 148.667,96.6667 150,95.3333 154.667,98.6667 160,101.333 162,102 176,112 179.333,111.333 183.333,112.667 184.667,111.333 187.333,108.667 187.333,103.333 185.333,97.3333 180,89.3333 174.667,81.3333 172,76 168.667,71.3333 166,66 163.333,63.3333 165.333,61.3333 166.667,62.6667 170,64.6667 171.333,66 175.333,70 180,73.3333 181.333,74.6667 186,78 192,80 194,80.6667 197.333,82.6667 199.333,83.3333 203.333,84.6667 204,81.3333 202.667,80 202,78 200,74.6667 199.333,72.6667 196.667,70 192.667,66 192,64 194,62 194,59.3333 197.333,58.6667 198.667,57.3333 199.333,54 201.333,52 202.667,50.6667 206,47.3333 204.667,40.6667 200.667,34 203.333,34 207.333,35.3333 214,36.6667 216,37.3333 217.333,38.6667 222.667,41.3333 225.333,38.6667 224,34.6667 224.667,34 228,33.3333 227.333,28.6667 221.333,21.3333 219.333,18 210.667,5.33333 206,-0.666667 211.333,-3.33333 214,-6 214,-11.3333 214.667,-12 215.333,-12.6667 215.333,-15.3333 214,-19.3333 210.667,-24 208,-26.6667 205.333,-29.3333 204,-30.6667 203.333,-32.6667 201.333,-36 197.333,-42.6667 190.667,-49.3333 188,-52 180,-57.3333 174.667,-57.3333 173.333,-53.3333 176.667,-46 178,-44.6667 179.333,-40.6667 178,-39.3333 178,-36.6667 176,-37.3333 172.667,-42 170.667,-50.6667 170,-55.3333 166,-59.3333 160.667,-64.6667 158,-67.3333 155.333,-64.6667 156.667,-60.6667 160,-50.6667 163.333,-43.3333 162.667,-42.6667 164.667,-39.3333 163.333,-40.6667 160,-48 158,-56.6667 154,-60.6667 152,-64 150.667,-68 151.333,-71.3333 149.333,-77.3333 148,-84 145.333,-89.3333 141.333,-96 138.667,-98.6667 133.333,-104 125.333,-112 119.333,-119.333 111.333,-127.333 107.333,-131.333 102,-136.667 95.3333,-143.333 87.3333,-148.667 84,-148 82.6667,-146.667 88.6667,-134 94,-128.667 96.6667,-123.333 100.667,-119.333 105.333,-113.333 114,-103.333 115.333,-102 119.333,-98 121.333,-94.6667 120.667,-94 121.333,-86.6667 120.667,-86 114.667,-90.6667 109.333,-96 106.667,-98.6667 104.667,-102 101.333,-106.667 98.6667,-109.333 97.3333,-110.667 95.3333,-111.333 94.6667,-110.667 89.3333,-116 88,-117.333 81.3333,-124 78.6667,-126.667 68,-140 65.3333,-142.667 56,-152 51.3333,-158 44.6667,-164.667 43.3333,-166 40,-170.667 34.6667,-176 30.6667,-180 29.3333,-181.333 22.6667,-182.667 20,-182.667 18.6667,-181.333 18,-180.667 16.6667,-179.333 15.3333,-178 16,-173.333 20.6667,-167.333 22,-163.333 24,-160 28.6667,-154 38,-144.667 40.6667,-142 42,-140.667 50,-132.667 51.3333,-131.333 56.6667,-126 60,-124 63.3333,-122 64.6667,-120.667 67.3333,-118 66.6667,-114.667 67.3333,-112.667 68,-108 81.3333,-94.6667 96.6667,-80.6667 98.6667,-80 104.667,-75.3333 106,-74 102,-75.3333 99.3333,-75.3333 96,-72 94,-72.6667 92,-70.6667 94,-67.3333 103.333,-58 110,-51.3333 111.333,-47.3333 109.333,-45.3333 109.333,-42.6667 100,-52 97.3333,-54.6667 90,-63.3333 88,-69.3333 84.6667,-74 81.3333,-78.6667 79.3333,-82 72.6667,-91.3333 70.6667,-94.6667 67.3333,-99.3333 63.3333,-108.667 58,-114 55.3333,-116.667 54,-118 44,-129.333 42.6667,-130.667 38.6667,-134.667 34,-138 31.3333,-138 29.3333,-138.667 26.6667,-138.667 24.6667,-136.667 24,-130.667 30,-123.333 29.3333,-122.667 42.6667,-109.333 40,-106.667 38,-107.333 30,-115.333 27.3333,-118 23.3333,-122 19.3333,-126 8,-133.333 7.33333,-132.667 6,-131.333 8.66667,-126 13.3333,-117.333 14.6667,-116 17.3333,-105.333 18.6667,-104 25.3333,-100 25.3333,-97.3333 30.6667,-92 33.3333,-86.6667 34,-82 33.3333,-81.3333 32.6667,-80.6667 34,-79.3333 38.6667,-76 39.3333,-76.6667 43.3333,-75.3333 47.3333,-74 54,-70 60.6667,-66 62,-64.6667 68,-60 75.3333,-56.6667 76.6667,-55.3333 99.3333,-35.3333 98.6667,-34.6667 90.6667,-37.3333 81.3333,-44 72,-53.3333 69.3333,-56 60.6667,-60.6667 52.6667,-63.3333 48.6667,-64.6667 48,-64 46.6667,-62.6667 46.6667,-60 50,-55.3333 54.6667,-46.6667 56,-45.3333 56.6667,-38 54,-40.6667 50,-44.6667 44.6667,-55.3333 42.6667,-58.6667 33.3333,-65.3333 30,-67.3333 24,-74.6667 19.3333,-80.6667 15.3333,-87.3333 14,-88.6667 0.666667,-104.667 -5.33333,-112 -12,-118.667 -14,-119.333 -17.3333,-116 -17.3333,-113.333 -17.3333,-110.667 -16,-101.333 -12,-97.3333 -9.33333,-94.6667 -2.66667,-88 1.33333,-84 2.66667,-82.6667 10,-76.6667 18,-68.6667 19.3333,-67.3333 22,-64.6667 23.3333,-60.6667 24.6667,-54 22.6667,-54.6667 20,-57.3333 16.6667,-62 11.3333,-67.3333 2,-76.6667 0.666667,-75.3333 0.666667,-72.6667 0.666667,-70 -2.66667,-72 -6.66667,-76 -8,-77.3333 -17.3333,-86.6667 -24,-93.3333 -27.3333,-92.6667 -36,-102.667 -41.3333,-108 -46,-103.333 -44,-100 -46,-92.6667 -45.3333,-90.6667 -40,-82.6667 -38.6667,-86.6667 -39.3333,-86 -35.3333,-82 -32,-80 -28,-76 -25.3333,-73.3333 -14,-63.3333 -12.6667,-62 -11.3333,-60.6667 -6.66667,-57.3333 -6,-58 4.66667,-50 4,-49.3333 6,-46 9.33333,-46.6667 10.6667,-45.3333 13.3333,-42.6667 18.6667,-37.3333 24,-32 29.3333,-26.6667 38.6667,-20 42.6667,-18.6667 48.6667,-14 52,-12 54.6667,-9.33333 58,-2 57.3333,1.33333 54,2 50.6667,0 44.6667,-2 40.6667,-6 38,-8.66667 34,-10 29.3333,-13.3333 26,-15.3333 20.6667,-20.6667 16.6667,-27.3333 14,-32.6667 3.33333,-46 -2,-48.6667 -5.33333,-48 -12,-52 -14.6667,-49.3333 -15.3333,-48.6667 -20,-41.3333 -20.6667,-40.6667 -27.3333,-42 -39.3333,-51.3333 -39.3333,-46 -39.3333,-43.3333 -35.3333,-39.3333 -32.6667,-36.6667 -28.6667,-32.6667 -26,-30 -24.6667,-28.6667 -22,-26 -18.6667,-21.3333 -17.3333,-20 -16.6667,-18 -16,-16 -14.6667,-14.6667"/>
  </object>
  <object id="587" x="12805.7" y="1810.33">
   <properties>
    <property name="collision" type="bool" value="true"/>
   </properties>
   <polygon points="0,0 6,2 7.33333,3.33333 16.6667,12.6667 18,16.6667 22,20.6667 24.6667,23.3333 28.6667,27.3333 34,32.6667 41.3333,38.6667 45.3333,42.6667 52.6667,48.6667 66,59.3333 79.3333,72.6667 92,81.3333 94.6667,84 97.3333,86.6667 101.333,90.6667 102.667,92 107.333,95.3333 112.667,98 119.333,102 127.333,107.333 130.667,112 134.667,116 136,117.333 138.667,114.667 138.667,112 144,114.667 141.333,106.667 142,106 144,98.6667 147.333,100.667 148,100 148.667,96.6667 150,95.3333 154.667,98.6667 160,101.333 162,102 176,112 179.333,111.333 183.333,112.667 184.667,111.333 187.333,108.667 187.333,103.333 185.333,97.3333 180,89.3333 174.667,81.3333 172,76 168.667,71.3333 166,66 163.333,63.3333 165.333,61.3333 166.667,62.6667 170,64.6667 171.333,66 175.333,70 180,73.3333 181.333,74.6667 186,78 192,80 194,80.6667 197.333,82.6667 199.333,83.3333 203.333,84.6667 204,81.3333 202.667,80 202,78 200,74.6667 199.333,72.6667 196.667,70 192.667,66 192,64 194,62 194,59.3333 197.333,58.6667 198.667,57.3333 199.333,54 201.333,52 202.667,50.6667 206,47.3333 204.667,40.6667 200.667,34 203.333,34 207.333,35.3333 214,36.6667 216,37.3333 217.333,38.6667 222.667,41.3333 225.333,38.6667 224,34.6667 224.667,34 228,33.3333 227.333,28.6667 221.333,21.3333 219.333,18 210.667,5.33333 206,-0.666667 211.333,-3.33333 214,-6 214,-11.3333 214.667,-12 215.333,-12.6667 215.333,-15.3333 214,-19.3333 210.667,-24 208,-26.6667 205.333,-29.3333 204,-30.6667 203.333,-32.6667 201.333,-36 197.333,-42.6667 190.667,-49.3333 188,-52 180,-57.3333 174.667,-57.3333 173.333,-53.3333 176.667,-46 178,-44.6667 179.333,-40.6667 178,-39.3333 178,-36.6667 176,-37.3333 172.667,-42 170.667,-50.6667 170,-55.3333 166,-59.3333 160.667,-64.6667 158,-67.3333 155.333,-64.6667 156.667,-60.6667 160,-50.6667 163.333,-43.3333 162.667,-42.6667 164.667,-39.3333 163.333,-40.6667 160,-48 158,-56.6667 154,-60.6667 152,-64 150.667,-68 151.333,-71.3333 149.333,-77.3333 148,-84 145.333,-89.3333 141.333,-96 138.667,-98.6667 133.333,-104 125.333,-112 119.333,-119.333 111.333,-127.333 107.333,-131.333 102,-136.667 95.3333,-143.333 87.3333,-148.667 84,-148 82.6667,-146.667 88.6667,-134 94,-128.667 96.6667,-123.333 100.667,-119.333 105.333,-113.333 114,-103.333 115.333,-102 119.333,-98 121.333,-94.6667 120.667,-94 121.333,-86.6667 120.667,-86 114.667,-90.6667 109.333,-96 106.667,-98.6667 104.667,-102 101.333,-106.667 98.6667,-109.333 97.3333,-110.667 95.3333,-111.333 94.6667,-110.667 89.3333,-116 88,-117.333 81.3333,-124 78.6667,-126.667 68,-140 65.3333,-142.667 56,-152 51.3333,-158 44.6667,-164.667 43.3333,-166 40,-170.667 34.6667,-176 30.6667,-180 29.3333,-181.333 22.6667,-182.667 20,-182.667 18.6667,-181.333 18,-180.667 16.6667,-179.333 15.3333,-178 16,-173.333 20.6667,-167.333 22,-163.333 24,-160 28.6667,-154 38,-144.667 40.6667,-142 42,-140.667 50,-132.667 51.3333,-131.333 56.6667,-126 60,-124 63.3333,-122 64.6667,-120.667 67.3333,-118 66.6667,-114.667 67.3333,-112.667 68,-108 81.3333,-94.6667 96.6667,-80.6667 98.6667,-80 104.667,-75.3333 106,-74 102,-75.3333 99.3333,-75.3333 96,-72 94,-72.6667 92,-70.6667 94,-67.3333 103.333,-58 110,-51.3333 111.333,-47.3333 109.333,-45.3333 109.333,-42.6667 100,-52 97.3333,-54.6667 90,-63.3333 88,-69.3333 84.6667,-74 81.3333,-78.6667 79.3333,-82 72.6667,-91.3333 70.6667,-94.6667 67.3333,-99.3333 63.3333,-108.667 58,-114 55.3333,-116.667 54,-118 44,-129.333 42.6667,-130.667 38.6667,-134.667 34,-138 31.3333,-138 29.3333,-138.667 26.6667,-138.667 24.6667,-136.667 24,-130.667 30,-123.333 29.3333,-122.667 42.6667,-109.333 40,-106.667 38,-107.333 30,-115.333 27.3333,-118 23.3333,-122 19.3333,-126 8,-133.333 7.33333,-132.667 6,-131.333 8.66667,-126 13.3333,-117.333 14.6667,-116 17.3333,-105.333 18.6667,-104 25.3333,-100 25.3333,-97.3333 30.6667,-92 33.3333,-86.6667 34,-82 33.3333,-81.3333 32.6667,-80.6667 34,-79.3333 38.6667,-76 39.3333,-76.6667 43.3333,-75.3333 47.3333,-74 54,-70 60.6667,-66 62,-64.6667 68,-60 75.3333,-56.6667 76.6667,-55.3333 99.3333,-35.3333 98.6667,-34.6667 90.6667,-37.3333 81.3333,-44 72,-53.3333 69.3333,-56 60.6667,-60.6667 52.6667,-63.3333 48.6667,-64.6667 48,-64 46.6667,-62.6667 46.6667,-60 50,-55.3333 54.6667,-46.6667 56,-45.3333 56.6667,-38 54,-40.6667 50,-44.6667 44.6667,-55.3333 42.6667,-58.6667 33.3333,-65.3333 30,-67.3333 24,-74.6667 19.3333,-80.6667 15.3333,-87.3333 14,-88.6667 0.666667,-104.667 -5.33333,-112 -12,-118.667 -14,-119.333 -17.3333,-116 -17.3333,-113.333 -17.3333,-110.667 -16,-101.333 -12,-97.3333 -9.33333,-94.6667 -2.66667,-88 1.33333,-84 2.66667,-82.6667 10,-76.6667 18,-68.6667 19.3333,-67.3333 22,-64.6667 23.3333,-60.6667 24.6667,-54 22.6667,-54.6667 20,-57.3333 16.6667,-62 11.3333,-67.3333 2,-76.6667 0.666667,-75.3333 0.666667,-72.6667 0.666667,-70 -2.66667,-72 -6.66667,-76 -8,-77.3333 -17.3333,-86.6667 -24,-93.3333 -27.3333,-92.6667 -36,-102.667 -41.3333,-108 -46,-103.333 -44,-100 -46,-92.6667 -45.3333,-90.6667 -40,-82.6667 -38.6667,-86.6667 -39.3333,-86 -35.3333,-82 -32,-80 -28,-76 -25.3333,-73.3333 -14,-63.3333 -12.6667,-62 -11.3333,-60.6667 -6.66667,-57.3333 -6,-58 4.66667,-50 4,-49.3333 6,-46 9.33333,-46.6667 10.6667,-45.3333 13.3333,-42.6667 18.6667,-37.3333 24,-32 29.3333,-26.6667 38.6667,-20 42.6667,-18.6667 48.6667,-14 52,-12 54.6667,-9.33333 58,-2 57.3333,1.33333 54,2 50.6667,0 44.6667,-2 40.6667,-6 38,-8.66667 34,-10 29.3333,-13.3333 26,-15.3333 20.6667,-20.6667 16.6667,-27.3333 14,-32.6667 3.33333,-46 -2,-48.6667 -5.33333,-48 -12,-52 -14.6667,-49.3333 -15.3333,-48.6667 -20,-41.3333 -20.6667,-40.6667 -27.3333,-42 -39.3333,-51.3333 -39.3333,-46 -39.3333,-43.3333 -35.3333,-39.3333 -32.6667,-36.6667 -28.6667,-32.6667 -26,-30 -24.6667,-28.6667 -22,-26 -18.6667,-21.3333 -17.3333,-20 -16.6667,-18 -16,-16 -14.6667,-14.6667"/>
  </object>
  <object id="592" x="3587" y="4981">
   <properties>
    <property name="collision" type="bool" value="true"/>
   </properties>
   <polygon points="0,0 -24,-240 -40,-256 -26,-278 -31,-285 -58,-294 -249,-479 -256,-480 -263,-477 -275,-489 -372,-500 -386,-514 -399,-521 -431,-525 -428,-472 -415,-457 -411,-377 -417,-375 -455,-409 -492,-372 -491,-361 -331,-197 -326,-154 -295,-121 -288,-120 -216,-48 -177,-11"/>
  </object>
  <object id="593" x="3457.21" y="2806.55">
   <properties>
    <property name="collision" type="bool" value="true"/>
   </properties>
   <polygon points="0,0 -24,-240 -40,-256 -26,-278 -31,-285 -58,-294 -249,-479 -256,-480 -263,-477 -275,-489 -372,-500 -386,-514 -399,-521 -431,-525 -428,-472 -415,-457 -411,-377 -417,-375 -455,-409 -492,-372 -491,-361 -331,-197 -326,-154 -295,-121 -288,-120 -216,-48 -177,-11"/>
  </object>
  <object id="594" x="6655.7" y="2802">
   <properties>
    <property name="collision" type="bool" value="true"/>
   </properties>
   <polygon points="0,0 -24,-240 -40,-256 -26,-278 -31,-285 -58,-294 -249,-479 -256,-480 -263,-477 -275,-489 -372,-500 -386,-514 -399,-521 -431,-525 -428,-472 -415,-457 -411,-377 -417,-375 -455,-409 -492,-372 -491,-361 -331,-197 -326,-154 -295,-121 -288,-120 -216,-48 -177,-11"/>
  </object>
  <object id="595" x="10243.6" y="4983.82">
   <properties>
    <property name="collision" type="bool" value="true"/>
   </properties>
   <polygon points="0,0 -24,-240 -40,-256 -26,-278 -31,-285 -58,-294 -249,-479 -256,-480 -263,-477 -275,-489 -372,-500 -386,-514 -399,-521 -431,-525 -428,-472 -415,-457 -411,-377 -417,-375 -455,-409 -492,-372 -491,-361 -331,-197 -326,-154 -295,-121 -288,-120 -216,-48 -177,-11"/>
  </object>
  <object id="596" x="9525.33" y="4584">
   <properties>
    <property name="collision" type="bool" value="true"/>
   </properties>
   <polygon points="0,0 8.66667,138 10.6667,144 13.3333,146.667 14,148.667 16,152 18.6667,154.667 22.6667,158.667 24,160 26.6667,162.667 28,164 28.6667,163.333 108,244 132,252 153.333,273.333 164.667,275.333 166,271.333 146,251.333 168,253.333 194,278 248,282.667 245.333,258.667 248,258.667 249.333,257.333 250.667,258.667 253.333,258.667 254.667,257.333 255.333,256.667 256,256 257.333,254.667 258.667,253.333 260,252 262.667,249.333 266,246 268,244 267.333,239.333 268.667,238 269.333,237.333 289.333,236 287.333,147.333 264.667,124.667 264.667,116.667 262.667,113.333 263.333,112.667 256,101.333 156.667,0.666667 15.3333,-7.33333 14.6667,-6.66667 14,-6 12,-6.66667 11.3333,-6 10.6667,-5.33333 9.33333,-4"/>
  </object>
  <object id="599" x="7737.52" y="5229.27">
   <properties>
    <property name="collision" type="bool" value="true"/>
   </properties>
   <polygon points="0,0 8.66667,138 10.6667,144 13.3333,146.667 14,148.667 16,152 18.6667,154.667 22.6667,158.667 24,160 26.6667,162.667 28,164 28.6667,163.333 108,244 132,252 153.333,273.333 164.667,275.333 166,271.333 146,251.333 168,253.333 194,278 248,282.667 245.333,258.667 248,258.667 249.333,257.333 250.667,258.667 253.333,258.667 254.667,257.333 255.333,256.667 256,256 257.333,254.667 258.667,253.333 260,252 262.667,249.333 266,246 268,244 267.333,239.333 268.667,238 269.333,237.333 289.333,236 287.333,147.333 264.667,124.667 264.667,116.667 262.667,113.333 263.333,112.667 256,101.333 156.667,0.666667 15.3333,-7.33333 14.6667,-6.66667 14,-6 12,-6.66667 11.3333,-6 10.6667,-5.33333 9.33333,-4"/>
  </object>
  <object id="600" x="5811.76" y="6118.67">
   <properties>
    <property name="collision" type="bool" value="true"/>
   </properties>
   <polygon points="0,0 8.66667,138 10.6667,144 13.3333,146.667 14,148.667 16,152 18.6667,154.667 22.6667,158.667 24,160 26.6667,162.667 28,164 28.6667,163.333 108,244 132,252 153.333,273.333 164.667,275.333 166,271.333 146,251.333 168,253.333 194,278 248,282.667 245.333,258.667 248,258.667 249.333,257.333 250.667,258.667 253.333,258.667 254.667,257.333 255.333,256.667 256,256 257.333,254.667 258.667,253.333 260,252 262.667,249.333 266,246 268,244 267.333,239.333 268.667,238 269.333,237.333 289.333,236 287.333,147.333 264.667,124.667 264.667,116.667 262.667,113.333 263.333,112.667 256,101.333 156.667,0.666667 15.3333,-7.33333 14.6667,-6.66667 14,-6 12,-6.66667 11.3333,-6 10.6667,-5.33333 9.33333,-4"/>
  </object>
  <object id="601" x="2999.64" y="1639.88">
   <properties>
    <property name="collision" type="bool" value="true"/>
   </properties>
   <polygon points="0,0 8.66667,138 10.6667,144 13.3333,146.667 14,148.667 16,152 18.6667,154.667 22.6667,158.667 24,160 26.6667,162.667 28,164 28.6667,163.333 108,244 132,252 153.333,273.333 164.667,275.333 166,271.333 146,251.333 168,253.333 194,278 248,282.667 245.333,258.667 248,258.667 249.333,257.333 250.667,258.667 253.333,258.667 254.667,257.333 255.333,256.667 256,256 257.333,254.667 258.667,253.333 260,252 262.667,249.333 266,246 268,244 267.333,239.333 268.667,238 269.333,237.333 289.333,236 287.333,147.333 264.667,124.667 264.667,116.667 262.667,113.333 263.333,112.667 256,101.333 156.667,0.666667 15.3333,-7.33333 14.6667,-6.66667 14,-6 12,-6.66667 11.3333,-6 10.6667,-5.33333 9.33333,-4"/>
  </object>
  <object id="602" x="6451.15" y="2024.73">
   <properties>
    <property name="collision" type="bool" value="true"/>
   </properties>
   <polygon points="0,0 8.66667,138 10.6667,144 13.3333,146.667 14,148.667 16,152 18.6667,154.667 22.6667,158.667 24,160 26.6667,162.667 28,164 28.6667,163.333 108,244 132,252 153.333,273.333 164.667,275.333 166,271.333 146,251.333 168,253.333 194,278 248,282.667 245.333,258.667 248,258.667 249.333,257.333 250.667,258.667 253.333,258.667 254.667,257.333 255.333,256.667 256,256 257.333,254.667 258.667,253.333 260,252 262.667,249.333 266,246 268,244 267.333,239.333 268.667,238 269.333,237.333 289.333,236 287.333,147.333 264.667,124.667 264.667,116.667 262.667,113.333 263.333,112.667 256,101.333 156.667,0.666667 15.3333,-7.33333 14.6667,-6.66667 14,-6 12,-6.66667 11.3333,-6 10.6667,-5.33333 9.33333,-4"/>
  </object>
  <object id="603" x="9270.85" y="1514.12">
   <properties>
    <property name="collision" type="bool" value="true"/>
   </properties>
   <polygon points="0,0 8.66667,138 10.6667,144 13.3333,146.667 14,148.667 16,152 18.6667,154.667 22.6667,158.667 24,160 26.6667,162.667 28,164 28.6667,163.333 108,244 132,252 153.333,273.333 164.667,275.333 166,271.333 146,251.333 168,253.333 194,278 248,282.667 245.333,258.667 248,258.667 249.333,257.333 250.667,258.667 253.333,258.667 254.667,257.333 255.333,256.667 256,256 257.333,254.667 258.667,253.333 260,252 262.667,249.333 266,246 268,244 267.333,239.333 268.667,238 269.333,237.333 289.333,236 287.333,147.333 264.667,124.667 264.667,116.667 262.667,113.333 263.333,112.667 256,101.333 156.667,0.666667 15.3333,-7.33333 14.6667,-6.66667 14,-6 12,-6.66667 11.3333,-6 10.6667,-5.33333 9.33333,-4"/>
  </object>
  <object id="597" x="9782" y="4967.33">
   <properties>
    <property name="collision" type="bool" value="true"/>
   </properties>
   <polygon points="0,0 8.66667,138 10.6667,144 13.3333,146.667 14,148.667 16,152 18.6667,154.667 22.6667,158.667 24,160 26.6667,162.667 28,164 28.6667,163.333 108,244 132,252 153.333,273.333 164.667,275.333 166,271.333 146,251.333 168,253.333 194,278 248,282.667 245.333,258.667 248,258.667 249.333,257.333 250.667,258.667 253.333,258.667 254.667,257.333 255.333,256.667 256,256 257.333,254.667 258.667,253.333 260,252 262.667,249.333 266,246 268,244 267.333,239.333 268.667,238 269.333,237.333 289.333,236 287.333,147.333 264.667,124.667 264.667,116.667 262.667,113.333 263.333,112.667 256,101.333 156.667,0.666667 15.3333,-7.33333 14.6667,-6.66667 14,-6 12,-6.66667 11.3333,-6 10.6667,-5.33333 9.33333,-4"/>
  </object>
  <object id="598" x="10038.7" y="4969.33">
   <properties>
    <property name="collision" type="bool" value="true"/>
   </properties>
   <polygon points="0,0 8.66667,138 10.6667,144 13.3333,146.667 14,148.667 16,152 18.6667,154.667 22.6667,158.667 24,160 26.6667,162.667 28,164 28.6667,163.333 108,244 132,252 153.333,273.333 164.667,275.333 166,271.333 146,251.333 168,253.333 194,278 248,282.667 245.333,258.667 248,258.667 249.333,257.333 250.667,258.667 253.333,258.667 254.667,257.333 255.333,256.667 256,256 257.333,254.667 258.667,253.333 260,252 262.667,249.333 266,246 268,244 267.333,239.333 268.667,238 269.333,237.333 289.333,236 287.333,147.333 264.667,124.667 264.667,116.667 262.667,113.333 263.333,112.667 256,101.333 156.667,0.666667 15.3333,-7.33333 14.6667,-6.66667 14,-6 12,-6.66667 11.3333,-6 10.6667,-5.33333 9.33333,-4"/>
  </object>
  <object id="606" x="6009" y="2723">
   <properties>
    <property name="collision" type="bool" value="true"/>
   </properties>
   <polygon points="0,0 262,18 265,19 267,17 267,13 266,10 271,9 274,6 274,2 276,-4 271,-11 267,-15 268,-16 268,-28 269,-29 270,-30 273,-33 271,-39 267,-43 258,-50 249,-57 242,-62 238,-66 229,-73 225,-77 220,-80 214,-82 211,-83 66,-90 65,-89 61,-93 56,-96 51,-99 50,-98 46,-98 -45,-191 -62,-194 -68,-192 -70,-190 -77,-187 -76,-180 -82,-186 -84,-192 -93,-195 -94,-194 -109,-199 -115,-193 -119,-185 -124,-180 -118,-170 -114,-166 -100,-152 -108,-156 -108,-152 -114,-146 -115,-137 -113,-131 -112,-124 -38,-50 -31,-29"/>
  </object>
  <object id="607" x="6010" y="2594">
   <properties>
    <property name="collision" type="bool" value="true"/>
   </properties>
   <polygon points="0,0 262,18 265,19 267,17 267,13 266,10 271,9 274,6 274,2 276,-4 271,-11 267,-15 268,-16 268,-28 269,-29 270,-30 273,-33 271,-39 267,-43 258,-50 249,-57 242,-62 238,-66 229,-73 225,-77 220,-80 214,-82 211,-83 66,-90 65,-89 61,-93 56,-96 51,-99 50,-98 46,-98 -45,-191 -62,-194 -68,-192 -70,-190 -77,-187 -76,-180 -82,-186 -84,-192 -93,-195 -94,-194 -109,-199 -115,-193 -119,-185 -124,-180 -118,-170 -114,-166 -100,-152 -108,-156 -108,-152 -114,-146 -115,-137 -113,-131 -112,-124 -38,-50 -31,-29"/>
  </object>
  <object id="608" x="3399" y="1909">
   <properties>
    <property name="collision" type="bool" value="true"/>
   </properties>
   <polygon points="0,0 27,5 32,0 37,3 84,8 84,-36 129,-33 130,-78 165,-73 176,-80 172,-164 79,-259 27,-299 -63,-309 -63,-305 -142,-306 -128,-168 -98,-138 -96,-96"/>
  </object>
  <object id="609" x="5995" y="2421">
   <properties>
    <property name="collision" type="bool" value="true"/>
   </properties>
   <polygon points="0,0 27,5 32,0 37,3 84,8 84,-36 129,-33 130,-78 165,-73 176,-80 172,-164 79,-259 27,-299 -63,-309 -63,-305 -142,-306 -128,-168 -98,-138 -96,-96"/>
  </object>
  <object id="610" x="8647" y="2421">
   <properties>
    <property name="collision" type="bool" value="true"/>
   </properties>
   <polygon points="0,0 27,5 32,0 37,3 84,8 84,-36 129,-33 130,-78 165,-73 176,-80 172,-164 79,-259 27,-299 -63,-309 -63,-305 -142,-306 -128,-168 -98,-138 -96,-96"/>
  </object>
  <object id="611" x="3399" y="5237">
   <properties>
    <property name="collision" type="bool" value="true"/>
   </properties>
   <polygon points="0,0 27,5 32,0 37,3 84,8 84,-36 129,-33 130,-78 165,-73 176,-80 172,-164 79,-259 27,-299 -63,-309 -63,-305 -142,-306 -128,-168 -98,-138 -96,-96"/>
  </object>
  <object id="612" x="2355" y="5885">
   <properties>
    <property name="collision" type="bool" value="true"/>
   </properties>
   <polygon points="0,0 -265,-267 -314,-350 -324,-492 -249,-487 -234,-506 -239,-581 -97,-571 -12,-524 244,-272 248,-244 198,-242 199,-227 248,-180 247,-175 197,-169 255,-111 260,-88 244,-76 235,-83 178,-26 180,-20 173,3 160,4 82,-74 79,-63 31,-63 79,-15 74,-10 24,-60 -32,-64 24,-8"/>
  </object>
  <object id="613" x="4788" y="5884">
   <properties>
    <property name="collision" type="bool" value="true"/>
   </properties>
   <polygon points="0,0 -265,-267 -314,-350 -324,-492 -249,-487 -234,-506 -239,-581 -97,-571 -12,-524 244,-272 248,-244 198,-242 199,-227 248,-180 247,-175 197,-169 255,-111 260,-88 244,-76 235,-83 178,-26 180,-20 173,3 160,4 82,-74 79,-63 31,-63 79,-15 74,-10 24,-60 -32,-64 24,-8"/>
  </object>
  <object id="614" x="7472.85" y="5496.12">
   <properties>
    <property name="collision" type="bool" value="true"/>
   </properties>
   <polygon points="0,0 -265,-267 -314,-350 -324,-492 -249,-487 -234,-506 -239,-581 -97,-571 -12,-524 244,-272 248,-244 198,-242 199,-227 248,-180 247,-175 197,-169 255,-111 260,-88 244,-76 235,-83 178,-26 180,-20 173,3 160,4 82,-74 79,-63 31,-63 79,-15 74,-10 24,-60 -32,-64 24,-8"/>
  </object>
  <object id="615" x="13744.1" y="4982.48">
   <properties>
    <property name="collision" type="bool" value="true"/>
   </properties>
   <polygon points="0,0 -265,-267 -314,-350 -324,-492 -249,-487 -234,-506 -239,-581 -97,-571 -12,-524 244,-272 248,-244 198,-242 199,-227 248,-180 247,-175 197,-169 255,-111 260,-88 244,-76 235,-83 178,-26 180,-20 173,3 160,4 82,-74 79,-63 31,-63 79,-15 74,-10 24,-60 -32,-64 24,-8"/>
  </object>
  <object id="616" x="11188" y="2556.73">
   <properties>
    <property name="collision" type="bool" value="true"/>
   </properties>
   <polygon points="0,0 -265,-267 -314,-350 -324,-492 -249,-487 -234,-506 -239,-581 -97,-571 -12,-524 244,-272 248,-244 198,-242 199,-227 248,-180 247,-175 197,-169 255,-111 260,-88 244,-76 235,-83 178,-26 180,-20 173,3 160,4 82,-74 79,-63 31,-63 79,-15 74,-10 24,-60 -32,-64 24,-8"/>
  </object>
  <object id="617" x="9015.27" y="2299.15">
   <properties>
    <property name="collision" type="bool" value="true"/>
   </properties>
   <polygon points="0,0 -265,-267 -314,-350 -324,-492 -249,-487 -234,-506 -239,-581 -97,-571 -12,-524 244,-272 248,-244 198,-242 199,-227 248,-180 247,-175 197,-169 255,-111 260,-88 244,-76 235,-83 178,-26 180,-20 173,3 160,4 82,-74 79,-63 31,-63 79,-15 74,-10 24,-60 -32,-64 24,-8"/>
  </object>
  <object id="618" x="7089.52" y="2558.24">
   <properties>
    <property name="collision" type="bool" value="true"/>
   </properties>
   <polygon points="0,0 -265,-267 -314,-350 -324,-492 -249,-487 -234,-506 -239,-581 -97,-571 -12,-524 244,-272 248,-244 198,-242 199,-227 248,-180 247,-175 197,-169 255,-111 260,-88 244,-76 235,-83 178,-26 180,-20 173,3 160,4 82,-74 79,-63 31,-63 79,-15 74,-10 24,-60 -32,-64 24,-8"/>
  </object>
  <object id="717" name="wallNorthEast" x="1850" y="1238">
   <properties>
    <property name="collision" type="bool" value="true"/>
   </properties>
   <polygon points="0,0 151,25 151,1 647,37 649,15 1414,58 1661,43 2068,64 2077,47 2355,69 2355,53 2540,64 2549,23 3028,56 3027,37 3790,74 3791,45 3968,56 3985,35 4451,61 4471,41 4947,69 4950,50 5001,55 5424,80 5436,68 5918,106 5920,80 6398,122 6406,106 7372,164 7376,144 7854,178 7861,171 8837,231 8840,208 9596,248 9796,264 9810,254 10291,289 10293,271 11556,344 11564,332 11755,349 11754,330 12206,366 11974,-86 -314,-342"/>
  </object>
  <object id="718" name="wallSouth" x="1811" y="6585">
   <properties>
    <property name="collision" type="bool" value="true"/>
   </properties>
   <polygon points="0,0 247,33 444,232 555,241 538,226 527,37 710,50 890,234 1016,236 999,45 1177,51 1377,251 1502,258 1486,242 1471,57 1658,70 1834,246 1972,260 1957,243 1938,54 2124,68 2333,275 2431,277 2419,261 2406,78 2587,89 2773,275 2903,281 2886,266 2879,77 3058,90 3234,266 3366,274 3352,260 3341,71 3524,88 3703,269 3835,277 3822,266 3805,75 3988,88 4180,280 4306,286 4289,95 4478,114 4656,292 4789,299 4779,129 4962,138 5156,332 5285,339 5268,152 5447,165 5631,345 5764,356 5750,178 5942,194 6116,368 6245,379 6231,185 6416,204 6593,379 6724,384 6719,217 6906,234 7091,421 7214,426 7201,235 7381,247 7562,430 7697,439 7683,265 7869,279 8055,465 8191,473 8177,283 8363,301 8536,472 8673,487 8665,315 8843,325 9035,513 9173,523 9158,334 9335,345 9516,524 9649,531 9640,360 9822,374 10012,560 10153,571 10134,386 10320,396 10501,575 10629,579 10623,413 10792,416 10974,594 11120,604 11110,422 11292,436 11467,609 11602,618 11591,449 11775,461 11912,592 12127,609 12118,434 12432,464 12617,1147 109,583"/>
  </object>
 </objectgroup>
 <objectgroup id="6" name="Object" locked="1">
  <properties>
   <property name="collectible" type="bool" value="true"/>
  </properties>
  <object id="452" name="patata1" x="2816" y="2176">
   <properties>
    <property name="collectible" type="bool" value="true"/>
    <property name="id" value="level_3_bomb"/>
    <property name="interaction_radius" type="float" value="80"/>
   </properties>
   <point/>
  </object>
  <object id="619" name="fico1" x="5783.17" y="5450.17">
   <properties>
    <property name="collectible" type="bool" value="true"/>
    <property name="id" value="level_3_potion"/>
    <property name="interaction_radius" type="float" value="80"/>
   </properties>
   <point/>
  </object>
  <object id="620" name="fico2" x="5233.17" y="2066.83">
   <properties>
    <property name="collectible" type="bool" value="true"/>
    <property name="id" value="level_3_potion"/>
    <property name="interaction_radius" type="float" value="80"/>
   </properties>
   <point/>
  </object>
  <object id="621" name="patata2" x="7641.5" y="4808.5">
   <properties>
    <property name="collectible" type="bool" value="true"/>
    <property name="id" value="level_3_bomb"/>
    <property name="interaction_radius" type="float" value="80"/>
   </properties>
   <point/>
  </object>
  <object id="622" name="miele1" x="12666.5" y="6083.5">
   <properties>
    <property name="collectible" type="bool" value="true"/>
    <property name="id" value="level_3_buff"/>
    <property name="interaction_radius" type="float" value="80"/>
   </properties>
   <point/>
  </object>
  <object id="623" name="miele2" x="3345.67" y="5921">
   <properties>
    <property name="collectible" type="bool" value="true"/>
    <property name="id" value="level_3_buff"/>
    <property name="interaction_radius" type="float" value="80"/>
   </properties>
   <point/>
  </object>
 </objectgroup>
 <objectgroup id="7" name="Enemy" locked="1">
  <object id="453" name="enemy1" x="3328" y="2944">
   <properties>
    <property name="enemies_number" type="int" value="3"/>
    <property name="enemy_type" value="alieno_sciame"/>
   </properties>
   <point/>
  </object>
  <object id="454" name="enemy2" x="6656" y="2944">
   <properties>
    <property name="enemies_number" type="int" value="3"/>
    <property name="enemy_type" value="alieno_sciame"/>
   </properties>
   <point/>
  </object>
  <object id="624" name="enemy3" x="10183.2" y="5450.17">
   <properties>
    <property name="enemies_number" type="int" value="2"/>
    <property name="enemy_type" value="alieno_base"/>
   </properties>
   <point/>
  </object>
  <object id="625" name="enemy4" x="9483.17" y="2016.83">
   <properties>
    <property name="enemies_number" type="int" value="4"/>
    <property name="enemy_type" value="alieno_guardiano"/>
   </properties>
   <point/>
  </object>
  <object id="627" name="BOSS" x="13696" y="3968">
   <properties>
    <property name="enemy_type" value="boss_livello_3"/>
   </properties>
   <point/>
  </object>
 </objectgroup>
 <objectgroup id="10" name="NPC" locked="1">
  <object id="628" name="NPC" x="6239" y="6357">
   <point/>
  </object>
 </objectgroup>
 <objectgroup id="8" name="checkpoint" locked="1">
  <object id="626" name="checkpoint" x="7424" y="7168">
   <polyline points="0,0 -256,-6400"/>
  </object>
 </objectgroup>
 <objectgroup id="9" name="Spawn" locked="1">
  <object id="456" name="Spawn" x="2906.3" y="3521.82">
   <point/>
  </object>
  <object id="458" name="SpawnPlayer" x="2921.45" y="3414.3">
   <point/>
  </object>
 </objectgroup>
</map>
